P3
400 225
255
0 255 0
0 255 0
1 254 0
1 254 0
2 253 0
3 252 0
3 252 0
4 251 0
5 250 0
5 250 0
6 249 0
7 248 0
7 248 0
8 247 0
8 247 0
9 246 0
10 245 0
10 245 0
11 244 0
12 243 0
12 243 0
13 242 0
14 241 0
14 241 0
15 240 0
15 239 0
16 239 0
17 238 0
17 238 0
18 237 0
19 236 0
19 236 0
20 235 0
21 234 0
21 234 0
22 233 0
23 232 0
23 232 0
24 231 0
24 231 0
25 230 0
26 229 0
26 229 0
27 228 0
28 227 0
28 227 0
29 226 0
30 225 0
30 225 0
31 224 0
31 223 0
32 223 0
33 222 0
33 222 0
34 221 0
35 220 0
35 220 0
36 219 0
37 218 0
37 218 0
38 217 0
39 216 0
39 216 0
40 215 0
40 215 0
41 214 0
42 213 0
42 213 0
43 212 0
44 211 0
44 211 0
45 210 0
46 209 0
46 209 0
47 208 0
47 207 0
48 207 0
49 206 0
49 206 0
50 205 0
51 204 0
51 204 0
52 203 0
53 202 0
53 202 0
54 201 0
55 200 0
55 200 0
56 199 0
56 199 0
57 198 0
58 197 0
58 197 0
59 196 0
60 195 0
60 195 0
61 194 0
62 193 0
62 193 0
63 192 0
63 191 0
64 191 0
65 190 0
65 190 0
66 189 0
67 188 0
67 188 0
68 187 0
69 186 0
69 186 0
70 185 0
71 184 0
71 184 0
72 183 0
72 183 0
73 182 0
74 181 0
74 181 0
75 180 0
76 179 0
76 179 0
77 178 0
78 177 0
78 177 0
79 176 0
79 175 0
80 175 0
81 174 0
81 174 0
82 173 0
83 172 0
83 172 0
84 171 0
85 170 0
85 170 0
86 169 0
87 168 0
87 168 0
88 167 0
88 167 0
89 166 0
90 165 0
90 165 0
91 164 0
92 163 0
92 163 0
93 162 0
94 161 0
94 161 0
95 160 0
95 159 0
96 159 0
97 158 0
97 158 0
98 157 0
99 156 0
99 156 0
100 155 0
101 154 0
101 154 0
102 153 0
103 152 0
103 152 0
104 151 0
104 151 0
105 150 0
106 149 0
106 149 0
107 148 0
108 147 0
108 147 0
109 146 0
110 145 0
110 145 0
111 144 0
111 143 0
112 143 0
113 142 0
113 142 0
114 141 0
115 140 0
115 140 0
116 139 0
117 138 0
117 138 0
118 137 0
119 136 0
119 136 0
120 135 0
120 135 0
121 134 0
122 133 0
122 133 0
123 132 0
124 131 0
124 131 0
125 130 0
126 129 0
126 129 0
127 128 0
127 127 0
128 127 0
129 126 0
129 126 0
130 125 0
131 124 0
131 124 0
132 123 0
133 122 0
133 122 0
134 121 0
135 120 0
135 120 0
136 119 0
136 119 0
137 118 0
138 117 0
138 117 0
139 116 0
140 115 0
140 115 0
141 114 0
142 113 0
142 113 0
143 112 0
143 111 0
144 111 0
145 110 0
145 110 0
146 109 0
147 108 0
147 108 0
148 107 0
149 106 0
149 106 0
150 105 0
151 104 0
151 104 0
152 103 0
152 103 0
153 102 0
154 101 0
154 101 0
155 100 0
156 99 0
156 99 0
157 98 0
158 97 0
158 97 0
159 96 0
159 95 0
160 95 0
161 94 0
161 94 0
162 93 0
163 92 0
163 92 0
164 91 0
165 90 0
165 90 0
166 89 0
167 88 0
167 88 0
168 87 0
168 87 0
169 86 0
170 85 0
170 85 0
171 84 0
172 83 0
172 83 0
173 82 0
174 81 0
174 81 0
175 80 0
175 79 0
176 79 0
177 78 0
177 78 0
178 77 0
179 76 0
179 76 0
180 75 0
181 74 0
181 74 0
182 73 0
183 72 0
183 72 0
184 71 0
184 71 0
185 70 0
186 69 0
186 69 0
187 68 0
188 67 0
188 67 0
189 66 0
190 65 0
190 65 0
191 64 0
191 63 0
192 63 0
193 62 0
193 62 0
194 61 0
195 60 0
195 60 0
196 59 0
197 58 0
197 58 0
198 57 0
199 56 0
199 56 0
200 55 0
200 55 0
201 54 0
202 53 0
202 53 0
203 52 0
204 51 0
204 51 0
205 50 0
206 49 0
206 49 0
207 48 0
207 47 0
208 47 0
209 46 0
209 46 0
210 45 0
211 44 0
211 44 0
212 43 0
213 42 0
213 42 0
214 41 0
215 40 0
215 40 0
216 39 0
216 39 0
217 38 0
218 37 0
218 37 0
219 36 0
220 35 0
220 35 0
221 34 0
222 33 0
222 33 0
223 32 0
223 31 0
224 31 0
225 30 0
225 30 0
226 29 0
227 28 0
227 28 0
228 27 0
229 26 0
229 26 0
230 25 0
231 24 0
231 24 0
232 23 0
232 23 0
233 22 0
234 21 0
234 21 0
235 20 0
236 19 0
236 19 0
237 18 0
238 17 0
238 17 0
239 16 0
239 15 0
240 15 0
241 14 0
241 14 0
242 13 0
243 12 0
243 12 0
244 11 0
245 10 0
245 10 0
246 9 0
247 8 0
247 8 0
248 7 0
248 7 0
249 6 0
250 5 0
250 5 0
251 4 0
252 3 0
252 3 0
253 2 0
254 1 0
254 1 0
255 0 0
0 255 1
0 255 1
1 254 1
1 254 1
2 253 1
3 252 1
3 252 1
4 251 1
5 250 1
5 250 1
6 249 1
7 248 1
7 248 1
8 247 1
8 247 1
9 246 1
10 245 1
10 245 1
11 244 1
12 243 1
12 243 1
13 242 1
14 241 1
14 241 1
15 240 1
15 239 1
16 239 1
17 238 1
17 238 1
18 237 1
19 236 1
19 236 1
20 235 1
21 234 1
21 234 1
22 233 1
23 232 1
23 232 1
24 231 1
24 231 1
25 230 1
26 229 1
26 229 1
27 228 1
28 227 1
28 227 1
29 226 1
30 225 1
30 225 1
31 224 1
31 223 1
32 223 1
33 222 1
33 222 1
34 221 1
35 220 1
35 220 1
36 219 1
37 218 1
37 218 1
38 217 1
39 216 1
39 216 1
40 215 1
40 215 1
41 214 1
42 213 1
42 213 1
43 212 1
44 211 1
44 211 1
45 210 1
46 209 1
46 209 1
47 208 1
47 207 1
48 207 1
49 206 1
49 206 1
50 205 1
51 204 1
51 204 1
52 203 1
53 202 1
53 202 1
54 201 1
55 200 1
55 200 1
56 199 1
56 199 1
57 198 1
58 197 1
58 197 1
59 196 1
60 195 1
60 195 1
61 194 1
62 193 1
62 193 1
63 192 1
63 191 1
64 191 1
65 190 1
65 190 1
66 189 1
67 188 1
67 188 1
68 187 1
69 186 1
69 186 1
70 185 1
71 184 1
71 184 1
72 183 1
72 183 1
73 182 1
74 181 1
74 181 1
75 180 1
76 179 1
76 179 1
77 178 1
78 177 1
78 177 1
79 176 1
79 175 1
80 175 1
81 174 1
81 174 1
82 173 1
83 172 1
83 172 1
84 171 1
85 170 1
85 170 1
86 169 1
87 168 1
87 168 1
88 167 1
88 167 1
89 166 1
90 165 1
90 165 1
91 164 1
92 163 1
92 163 1
93 162 1
94 161 1
94 161 1
95 160 1
95 159 1
96 159 1
97 158 1
97 158 1
98 157 1
99 156 1
99 156 1
100 155 1
101 154 1
101 154 1
102 153 1
103 152 1
103 152 1
104 151 1
104 151 1
105 150 1
106 149 1
106 149 1
107 148 1
108 147 1
108 147 1
109 146 1
110 145 1
110 145 1
111 144 1
111 143 1
112 143 1
113 142 1
113 142 1
114 141 1
115 140 1
115 140 1
116 139 1
117 138 1
117 138 1
118 137 1
119 136 1
119 136 1
120 135 1
120 135 1
121 134 1
122 133 1
122 133 1
123 132 1
124 131 1
124 131 1
125 130 1
126 129 1
126 129 1
127 128 1
127 127 1
128 127 1
129 126 1
129 126 1
130 125 1
131 124 1
131 124 1
132 123 1
133 122 1
133 122 1
134 121 1
135 120 1
135 120 1
136 119 1
136 119 1
137 118 1
138 117 1
138 117 1
139 116 1
140 115 1
140 115 1
141 114 1
142 113 1
142 113 1
143 112 1
143 111 1
144 111 1
145 110 1
145 110 1
146 109 1
147 108 1
147 108 1
148 107 1
149 106 1
149 106 1
150 105 1
151 104 1
151 104 1
152 103 1
152 103 1
153 102 1
154 101 1
154 101 1
155 100 1
156 99 1
156 99 1
157 98 1
158 97 1
158 97 1
159 96 1
159 95 1
160 95 1
161 94 1
161 94 1
162 93 1
163 92 1
163 92 1
164 91 1
165 90 1
165 90 1
166 89 1
167 88 1
167 88 1
168 87 1
168 87 1
169 86 1
170 85 1
170 85 1
171 84 1
172 83 1
172 83 1
173 82 1
174 81 1
174 81 1
175 80 1
175 79 1
176 79 1
177 78 1
177 78 1
178 77 1
179 76 1
179 76 1
180 75 1
181 74 1
181 74 1
182 73 1
183 72 1
183 72 1
184 71 1
184 71 1
185 70 1
186 69 1
186 69 1
187 68 1
188 67 1
188 67 1
189 66 1
190 65 1
190 65 1
191 64 1
191 63 1
192 63 1
193 62 1
193 62 1
194 61 1
195 60 1
195 60 1
196 59 1
197 58 1
197 58 1
198 57 1
199 56 1
199 56 1
200 55 1
200 55 1
201 54 1
202 53 1
202 53 1
203 52 1
204 51 1
204 51 1
205 50 1
206 49 1
206 49 1
207 48 1
207 47 1
208 47 1
209 46 1
209 46 1
210 45 1
211 44 1
211 44 1
212 43 1
213 42 1
213 42 1
214 41 1
215 40 1
215 40 1
216 39 1
216 39 1
217 38 1
218 37 1
218 37 1
219 36 1
220 35 1
220 35 1
221 34 1
222 33 1
222 33 1
223 32 1
223 31 1
224 31 1
225 30 1
225 30 1
226 29 1
227 28 1
227 28 1
228 27 1
229 26 1
229 26 1
230 25 1
231 24 1
231 24 1
232 23 1
232 23 1
233 22 1
234 21 1
234 21 1
235 20 1
236 19 1
236 19 1
237 18 1
238 17 1
238 17 1
239 16 1
239 15 1
240 15 1
241 14 1
241 14 1
242 13 1
243 12 1
243 12 1
244 11 1
245 10 1
245 10 1
246 9 1
247 8 1
247 8 1
248 7 1
248 7 1
249 6 1
250 5 1
250 5 1
251 4 1
252 3 1
252 3 1
253 2 1
254 1 1
254 1 1
255 0 1
0 255 2
0 255 2
1 254 2
1 254 2
2 253 2
3 252 2
3 252 2
4 251 2
5 250 2
5 250 2
6 249 2
7 248 2
7 248 2
8 247 2
8 247 2
9 246 2
10 245 2
10 245 2
11 244 2
12 243 2
12 243 2
13 242 2
14 241 2
14 241 2
15 240 2
15 239 2
16 239 2
17 238 2
17 238 2
18 237 2
19 236 2
19 236 2
20 235 2
21 234 2
21 234 2
22 233 2
23 232 2
23 232 2
24 231 2
24 231 2
25 230 2
26 229 2
26 229 2
27 228 2
28 227 2
28 227 2
29 226 2
30 225 2
30 225 2
31 224 2
31 223 2
32 223 2
33 222 2
33 222 2
34 221 2
35 220 2
35 220 2
36 219 2
37 218 2
37 218 2
38 217 2
39 216 2
39 216 2
40 215 2
40 215 2
41 214 2
42 213 2
42 213 2
43 212 2
44 211 2
44 211 2
45 210 2
46 209 2
46 209 2
47 208 2
47 207 2
48 207 2
49 206 2
49 206 2
50 205 2
51 204 2
51 204 2
52 203 2
53 202 2
53 202 2
54 201 2
55 200 2
55 200 2
56 199 2
56 199 2
57 198 2
58 197 2
58 197 2
59 196 2
60 195 2
60 195 2
61 194 2
62 193 2
62 193 2
63 192 2
63 191 2
64 191 2
65 190 2
65 190 2
66 189 2
67 188 2
67 188 2
68 187 2
69 186 2
69 186 2
70 185 2
71 184 2
71 184 2
72 183 2
72 183 2
73 182 2
74 181 2
74 181 2
75 180 2
76 179 2
76 179 2
77 178 2
78 177 2
78 177 2
79 176 2
79 175 2
80 175 2
81 174 2
81 174 2
82 173 2
83 172 2
83 172 2
84 171 2
85 170 2
85 170 2
86 169 2
87 168 2
87 168 2
88 167 2
88 167 2
89 166 2
90 165 2
90 165 2
91 164 2
92 163 2
92 163 2
93 162 2
94 161 2
94 161 2
95 160 2
95 159 2
96 159 2
97 158 2
97 158 2
98 157 2
99 156 2
99 156 2
100 155 2
101 154 2
101 154 2
102 153 2
103 152 2
103 152 2
104 151 2
104 151 2
105 150 2
106 149 2
106 149 2
107 148 2
108 147 2
108 147 2
109 146 2
110 145 2
110 145 2
111 144 2
111 143 2
112 143 2
113 142 2
113 142 2
114 141 2
115 140 2
115 140 2
116 139 2
117 138 2
117 138 2
118 137 2
119 136 2
119 136 2
120 135 2
120 135 2
121 134 2
122 133 2
122 133 2
123 132 2
124 131 2
124 131 2
125 130 2
126 129 2
126 129 2
127 128 2
127 127 2
128 127 2
129 126 2
129 126 2
130 125 2
131 124 2
131 124 2
132 123 2
133 122 2
133 122 2
134 121 2
135 120 2
135 120 2
136 119 2
136 119 2
137 118 2
138 117 2
138 117 2
139 116 2
140 115 2
140 115 2
141 114 2
142 113 2
142 113 2
143 112 2
143 111 2
144 111 2
145 110 2
145 110 2
146 109 2
147 108 2
147 108 2
148 107 2
149 106 2
149 106 2
150 105 2
151 104 2
151 104 2
152 103 2
152 103 2
153 102 2
154 101 2
154 101 2
155 100 2
156 99 2
156 99 2
157 98 2
158 97 2
158 97 2
159 96 2
159 95 2
160 95 2
161 94 2
161 94 2
162 93 2
163 92 2
163 92 2
164 91 2
165 90 2
165 90 2
166 89 2
167 88 2
167 88 2
168 87 2
168 87 2
169 86 2
170 85 2
170 85 2
171 84 2
172 83 2
172 83 2
173 82 2
174 81 2
174 81 2
175 80 2
175 79 2
176 79 2
177 78 2
177 78 2
178 77 2
179 76 2
179 76 2
180 75 2
181 74 2
181 74 2
182 73 2
183 72 2
183 72 2
184 71 2
184 71 2
185 70 2
186 69 2
186 69 2
187 68 2
188 67 2
188 67 2
189 66 2
190 65 2
190 65 2
191 64 2
191 63 2
192 63 2
193 62 2
193 62 2
194 61 2
195 60 2
195 60 2
196 59 2
197 58 2
197 58 2
198 57 2
199 56 2
199 56 2
200 55 2
200 55 2
201 54 2
202 53 2
202 53 2
203 52 2
204 51 2
204 51 2
205 50 2
206 49 2
206 49 2
207 48 2
207 47 2
208 47 2
209 46 2
209 46 2
210 45 2
211 44 2
211 44 2
212 43 2
213 42 2
213 42 2
214 41 2
215 40 2
215 40 2
216 39 2
216 39 2
217 38 2
218 37 2
218 37 2
219 36 2
220 35 2
220 35 2
221 34 2
222 33 2
222 33 2
223 32 2
223 31 2
224 31 2
225 30 2
225 30 2
226 29 2
227 28 2
227 28 2
228 27 2
229 26 2
229 26 2
230 25 2
231 24 2
231 24 2
232 23 2
232 23 2
233 22 2
234 21 2
234 21 2
235 20 2
236 19 2
236 19 2
237 18 2
238 17 2
238 17 2
239 16 2
239 15 2
240 15 2
241 14 2
241 14 2
242 13 2
243 12 2
243 12 2
244 11 2
245 10 2
245 10 2
246 9 2
247 8 2
247 8 2
248 7 2
248 7 2
249 6 2
250 5 2
250 5 2
251 4 2
252 3 2
252 3 2
253 2 2
254 1 2
254 1 2
255 0 2
0 255 3
0 255 3
1 254 3
1 254 3
2 253 3
3 252 3
3 252 3
4 251 3
5 250 3
5 250 3
6 249 3
7 248 3
7 248 3
8 247 3
8 247 3
9 246 3
10 245 3
10 245 3
11 244 3
12 243 3
12 243 3
13 242 3
14 241 3
14 241 3
15 240 3
15 239 3
16 239 3
17 238 3
17 238 3
18 237 3
19 236 3
19 236 3
20 235 3
21 234 3
21 234 3
22 233 3
23 232 3
23 232 3
24 231 3
24 231 3
25 230 3
26 229 3
26 229 3
27 228 3
28 227 3
28 227 3
29 226 3
30 225 3
30 225 3
31 224 3
31 223 3
32 223 3
33 222 3
33 222 3
34 221 3
35 220 3
35 220 3
36 219 3
37 218 3
37 218 3
38 217 3
39 216 3
39 216 3
40 215 3
40 215 3
41 214 3
42 213 3
42 213 3
43 212 3
44 211 3
44 211 3
45 210 3
46 209 3
46 209 3
47 208 3
47 207 3
48 207 3
49 206 3
49 206 3
50 205 3
51 204 3
51 204 3
52 203 3
53 202 3
53 202 3
54 201 3
55 200 3
55 200 3
56 199 3
56 199 3
57 198 3
58 197 3
58 197 3
59 196 3
60 195 3
60 195 3
61 194 3
62 193 3
62 193 3
63 192 3
63 191 3
64 191 3
65 190 3
65 190 3
66 189 3
67 188 3
67 188 3
68 187 3
69 186 3
69 186 3
70 185 3
71 184 3
71 184 3
72 183 3
72 183 3
73 182 3
74 181 3
74 181 3
75 180 3
76 179 3
76 179 3
77 178 3
78 177 3
78 177 3
79 176 3
79 175 3
80 175 3
81 174 3
81 174 3
82 173 3
83 172 3
83 172 3
84 171 3
85 170 3
85 170 3
86 169 3
87 168 3
87 168 3
88 167 3
88 167 3
89 166 3
90 165 3
90 165 3
91 164 3
92 163 3
92 163 3
93 162 3
94 161 3
94 161 3
95 160 3
95 159 3
96 159 3
97 158 3
97 158 3
98 157 3
99 156 3
99 156 3
100 155 3
101 154 3
101 154 3
102 153 3
103 152 3
103 152 3
104 151 3
104 151 3
105 150 3
106 149 3
106 149 3
107 148 3
108 147 3
108 147 3
109 146 3
110 145 3
110 145 3
111 144 3
111 143 3
112 143 3
113 142 3
113 142 3
114 141 3
115 140 3
115 140 3
116 139 3
117 138 3
117 138 3
118 137 3
119 136 3
119 136 3
120 135 3
120 135 3
121 134 3
122 133 3
122 133 3
123 132 3
124 131 3
124 131 3
125 130 3
126 129 3
126 129 3
127 128 3
127 127 3
128 127 3
129 126 3
129 126 3
130 125 3
131 124 3
131 124 3
132 123 3
133 122 3
133 122 3
134 121 3
135 120 3
135 120 3
136 119 3
136 119 3
137 118 3
138 117 3
138 117 3
139 116 3
140 115 3
140 115 3
141 114 3
142 113 3
142 113 3
143 112 3
143 111 3
144 111 3
145 110 3
145 110 3
146 109 3
147 108 3
147 108 3
148 107 3
149 106 3
149 106 3
150 105 3
151 104 3
151 104 3
152 103 3
152 103 3
153 102 3
154 101 3
154 101 3
155 100 3
156 99 3
156 99 3
157 98 3
158 97 3
158 97 3
159 96 3
159 95 3
160 95 3
161 94 3
161 94 3
162 93 3
163 92 3
163 92 3
164 91 3
165 90 3
165 90 3
166 89 3
167 88 3
167 88 3
168 87 3
168 87 3
169 86 3
170 85 3
170 85 3
171 84 3
172 83 3
172 83 3
173 82 3
174 81 3
174 81 3
175 80 3
175 79 3
176 79 3
177 78 3
177 78 3
178 77 3
179 76 3
179 76 3
180 75 3
181 74 3
181 74 3
182 73 3
183 72 3
183 72 3
184 71 3
184 71 3
185 70 3
186 69 3
186 69 3
187 68 3
188 67 3
188 67 3
189 66 3
190 65 3
190 65 3
191 64 3
191 63 3
192 63 3
193 62 3
193 62 3
194 61 3
195 60 3
195 60 3
196 59 3
197 58 3
197 58 3
198 57 3
199 56 3
199 56 3
200 55 3
200 55 3
201 54 3
202 53 3
202 53 3
203 52 3
204 51 3
204 51 3
205 50 3
206 49 3
206 49 3
207 48 3
207 47 3
208 47 3
209 46 3
209 46 3
210 45 3
211 44 3
211 44 3
212 43 3
213 42 3
213 42 3
214 41 3
215 40 3
215 40 3
216 39 3
216 39 3
217 38 3
218 37 3
218 37 3
219 36 3
220 35 3
220 35 3
221 34 3
222 33 3
222 33 3
223 32 3
223 31 3
224 31 3
225 30 3
225 30 3
226 29 3
227 28 3
227 28 3
228 27 3
229 26 3
229 26 3
230 25 3
231 24 3
231 24 3
232 23 3
232 23 3
233 22 3
234 21 3
234 21 3
235 20 3
236 19 3
236 19 3
237 18 3
238 17 3
238 17 3
239 16 3
239 15 3
240 15 3
241 14 3
241 14 3
242 13 3
243 12 3
243 12 3
244 11 3
245 10 3
245 10 3
246 9 3
247 8 3
247 8 3
248 7 3
248 7 3
249 6 3
250 5 3
250 5 3
251 4 3
252 3 3
252 3 3
253 2 3
254 1 3
254 1 3
255 0 3
0 255 4
0 255 4
1 254 4
1 254 4
2 253 4
3 252 4
3 252 4
4 251 4
5 250 4
5 250 4
6 249 4
7 248 4
7 248 4
8 247 4
8 247 4
9 246 4
10 245 4
10 245 4
11 244 4
12 243 4
12 243 4
13 242 4
14 241 4
14 241 4
15 240 4
15 239 4
16 239 4
17 238 4
17 238 4
18 237 4
19 236 4
19 236 4
20 235 4
21 234 4
21 234 4
22 233 4
23 232 4
23 232 4
24 231 4
24 231 4
25 230 4
26 229 4
26 229 4
27 228 4
28 227 4
28 227 4
29 226 4
30 225 4
30 225 4
31 224 4
31 223 4
32 223 4
33 222 4
33 222 4
34 221 4
35 220 4
35 220 4
36 219 4
37 218 4
37 218 4
38 217 4
39 216 4
39 216 4
40 215 4
40 215 4
41 214 4
42 213 4
42 213 4
43 212 4
44 211 4
44 211 4
45 210 4
46 209 4
46 209 4
47 208 4
47 207 4
48 207 4
49 206 4
49 206 4
50 205 4
51 204 4
51 204 4
52 203 4
53 202 4
53 202 4
54 201 4
55 200 4
55 200 4
56 199 4
56 199 4
57 198 4
58 197 4
58 197 4
59 196 4
60 195 4
60 195 4
61 194 4
62 193 4
62 193 4
63 192 4
63 191 4
64 191 4
65 190 4
65 190 4
66 189 4
67 188 4
67 188 4
68 187 4
69 186 4
69 186 4
70 185 4
71 184 4
71 184 4
72 183 4
72 183 4
73 182 4
74 181 4
74 181 4
75 180 4
76 179 4
76 179 4
77 178 4
78 177 4
78 177 4
79 176 4
79 175 4
80 175 4
81 174 4
81 174 4
82 173 4
83 172 4
83 172 4
84 171 4
85 170 4
85 170 4
86 169 4
87 168 4
87 168 4
88 167 4
88 167 4
89 166 4
90 165 4
90 165 4
91 164 4
92 163 4
92 163 4
93 162 4
94 161 4
94 161 4
95 160 4
95 159 4
96 159 4
97 158 4
97 158 4
98 157 4
99 156 4
99 156 4
100 155 4
101 154 4
101 154 4
102 153 4
103 152 4
103 152 4
104 151 4
104 151 4
105 150 4
106 149 4
106 149 4
107 148 4
108 147 4
108 147 4
109 146 4
110 145 4
110 145 4
111 144 4
111 143 4
112 143 4
113 142 4
113 142 4
114 141 4
115 140 4
115 140 4
116 139 4
117 138 4
117 138 4
118 137 4
119 136 4
119 136 4
120 135 4
120 135 4
121 134 4
122 133 4
122 133 4
123 132 4
124 131 4
124 131 4
125 130 4
126 129 4
126 129 4
127 128 4
127 127 4
128 127 4
129 126 4
129 126 4
130 125 4
131 124 4
131 124 4
132 123 4
133 122 4
133 122 4
134 121 4
135 120 4
135 120 4
136 119 4
136 119 4
137 118 4
138 117 4
138 117 4
139 116 4
140 115 4
140 115 4
141 114 4
142 113 4
142 113 4
143 112 4
143 111 4
144 111 4
145 110 4
145 110 4
146 109 4
147 108 4
147 108 4
148 107 4
149 106 4
149 106 4
150 105 4
151 104 4
151 104 4
152 103 4
152 103 4
153 102 4
154 101 4
154 101 4
155 100 4
156 99 4
156 99 4
157 98 4
158 97 4
158 97 4
159 96 4
159 95 4
160 95 4
161 94 4
161 94 4
162 93 4
163 92 4
163 92 4
164 91 4
165 90 4
165 90 4
166 89 4
167 88 4
167 88 4
168 87 4
168 87 4
169 86 4
170 85 4
170 85 4
171 84 4
172 83 4
172 83 4
173 82 4
174 81 4
174 81 4
175 80 4
175 79 4
176 79 4
177 78 4
177 78 4
178 77 4
179 76 4
179 76 4
180 75 4
181 74 4
181 74 4
182 73 4
183 72 4
183 72 4
184 71 4
184 71 4
185 70 4
186 69 4
186 69 4
187 68 4
188 67 4
188 67 4
189 66 4
190 65 4
190 65 4
191 64 4
191 63 4
192 63 4
193 62 4
193 62 4
194 61 4
195 60 4
195 60 4
196 59 4
197 58 4
197 58 4
198 57 4
199 56 4
199 56 4
200 55 4
200 55 4
201 54 4
202 53 4
202 53 4
203 52 4
204 51 4
204 51 4
205 50 4
206 49 4
206 49 4
207 48 4
207 47 4
208 47 4
209 46 4
209 46 4
210 45 4
211 44 4
211 44 4
212 43 4
213 42 4
213 42 4
214 41 4
215 40 4
215 40 4
216 39 4
216 39 4
217 38 4
218 37 4
218 37 4
219 36 4
220 35 4
220 35 4
221 34 4
222 33 4
222 33 4
223 32 4
223 31 4
224 31 4
225 30 4
225 30 4
226 29 4
227 28 4
227 28 4
228 27 4
229 26 4
229 26 4
230 25 4
231 24 4
231 24 4
232 23 4
232 23 4
233 22 4
234 21 4
234 21 4
235 20 4
236 19 4
236 19 4
237 18 4
238 17 4
238 17 4
239 16 4
239 15 4
240 15 4
241 14 4
241 14 4
242 13 4
243 12 4
243 12 4
244 11 4
245 10 4
245 10 4
246 9 4
247 8 4
247 8 4
248 7 4
248 7 4
249 6 4
250 5 4
250 5 4
251 4 4
252 3 4
252 3 4
253 2 4
254 1 4
254 1 4
255 0 4
0 255 5
0 255 5
1 254 5
1 254 5
2 253 5
3 252 5
3 252 5
4 251 5
5 250 5
5 250 5
6 249 5
7 248 5
7 248 5
8 247 5
8 247 5
9 246 5
10 245 5
10 245 5
11 244 5
12 243 5
12 243 5
13 242 5
14 241 5
14 241 5
15 240 5
15 239 5
16 239 5
17 238 5
17 238 5
18 237 5
19 236 5
19 236 5
20 235 5
21 234 5
21 234 5
22 233 5
23 232 5
23 232 5
24 231 5
24 231 5
25 230 5
26 229 5
26 229 5
27 228 5
28 227 5
28 227 5
29 226 5
30 225 5
30 225 5
31 224 5
31 223 5
32 223 5
33 222 5
33 222 5
34 221 5
35 220 5
35 220 5
36 219 5
37 218 5
37 218 5
38 217 5
39 216 5
39 216 5
40 215 5
40 215 5
41 214 5
42 213 5
42 213 5
43 212 5
44 211 5
44 211 5
45 210 5
46 209 5
46 209 5
47 208 5
47 207 5
48 207 5
49 206 5
49 206 5
50 205 5
51 204 5
51 204 5
52 203 5
53 202 5
53 202 5
54 201 5
55 200 5
55 200 5
56 199 5
56 199 5
57 198 5
58 197 5
58 197 5
59 196 5
60 195 5
60 195 5
61 194 5
62 193 5
62 193 5
63 192 5
63 191 5
64 191 5
65 190 5
65 190 5
66 189 5
67 188 5
67 188 5
68 187 5
69 186 5
69 186 5
70 185 5
71 184 5
71 184 5
72 183 5
72 183 5
73 182 5
74 181 5
74 181 5
75 180 5
76 179 5
76 179 5
77 178 5
78 177 5
78 177 5
79 176 5
79 175 5
80 175 5
81 174 5
81 174 5
82 173 5
83 172 5
83 172 5
84 171 5
85 170 5
85 170 5
86 169 5
87 168 5
87 168 5
88 167 5
88 167 5
89 166 5
90 165 5
90 165 5
91 164 5
92 163 5
92 163 5
93 162 5
94 161 5
94 161 5
95 160 5
95 159 5
96 159 5
97 158 5
97 158 5
98 157 5
99 156 5
99 156 5
100 155 5
101 154 5
101 154 5
102 153 5
103 152 5
103 152 5
104 151 5
104 151 5
105 150 5
106 149 5
106 149 5
107 148 5
108 147 5
108 147 5
109 146 5
110 145 5
110 145 5
111 144 5
111 143 5
112 143 5
113 142 5
113 142 5
114 141 5
115 140 5
115 140 5
116 139 5
117 138 5
117 138 5
118 137 5
119 136 5
119 136 5
120 135 5
120 135 5
121 134 5
122 133 5
122 133 5
123 132 5
124 131 5
124 131 5
125 130 5
126 129 5
126 129 5
127 128 5
127 127 5
128 127 5
129 126 5
129 126 5
130 125 5
131 124 5
131 124 5
132 123 5
133 122 5
133 122 5
134 121 5
135 120 5
135 120 5
136 119 5
136 119 5
137 118 5
138 117 5
138 117 5
139 116 5
140 115 5
140 115 5
141 114 5
142 113 5
142 113 5
143 112 5
143 111 5
144 111 5
145 110 5
145 110 5
146 109 5
147 108 5
147 108 5
148 107 5
149 106 5
149 106 5
150 105 5
151 104 5
151 104 5
152 103 5
152 103 5
153 102 5
154 101 5
154 101 5
155 100 5
156 99 5
156 99 5
157 98 5
158 97 5
158 97 5
159 96 5
159 95 5
160 95 5
161 94 5
161 94 5
162 93 5
163 92 5
163 92 5
164 91 5
165 90 5
165 90 5
166 89 5
167 88 5
167 88 5
168 87 5
168 87 5
169 86 5
170 85 5
170 85 5
171 84 5
172 83 5
172 83 5
173 82 5
174 81 5
174 81 5
175 80 5
175 79 5
176 79 5
177 78 5
177 78 5
178 77 5
179 76 5
179 76 5
180 75 5
181 74 5
181 74 5
182 73 5
183 72 5
183 72 5
184 71 5
184 71 5
185 70 5
186 69 5
186 69 5
187 68 5
188 67 5
188 67 5
189 66 5
190 65 5
190 65 5
191 64 5
191 63 5
192 63 5
193 62 5
193 62 5
194 61 5
195 60 5
195 60 5
196 59 5
197 58 5
197 58 5
198 57 5
199 56 5
199 56 5
200 55 5
200 55 5
201 54 5
202 53 5
202 53 5
203 52 5
204 51 5
204 51 5
205 50 5
206 49 5
206 49 5
207 48 5
207 47 5
208 47 5
209 46 5
209 46 5
210 45 5
211 44 5
211 44 5
212 43 5
213 42 5
213 42 5
214 41 5
215 40 5
215 40 5
216 39 5
216 39 5
217 38 5
218 37 5
218 37 5
219 36 5
220 35 5
220 35 5
221 34 5
222 33 5
222 33 5
223 32 5
223 31 5
224 31 5
225 30 5
225 30 5
226 29 5
227 28 5
227 28 5
228 27 5
229 26 5
229 26 5
230 25 5
231 24 5
231 24 5
232 23 5
232 23 5
233 22 5
234 21 5
234 21 5
235 20 5
236 19 5
236 19 5
237 18 5
238 17 5
238 17 5
239 16 5
239 15 5
240 15 5
241 14 5
241 14 5
242 13 5
243 12 5
243 12 5
244 11 5
245 10 5
245 10 5
246 9 5
247 8 5
247 8 5
248 7 5
248 7 5
249 6 5
250 5 5
250 5 5
251 4 5
252 3 5
252 3 5
253 2 5
254 1 5
254 1 5
255 0 5
0 255 6
0 255 6
1 254 6
1 254 6
2 253 6
3 252 6
3 252 6
4 251 6
5 250 6
5 250 6
6 249 6
7 248 6
7 248 6
8 247 6
8 247 6
9 246 6
10 245 6
10 245 6
11 244 6
12 243 6
12 243 6
13 242 6
14 241 6
14 241 6
15 240 6
15 239 6
16 239 6
17 238 6
17 238 6
18 237 6
19 236 6
19 236 6
20 235 6
21 234 6
21 234 6
22 233 6
23 232 6
23 232 6
24 231 6
24 231 6
25 230 6
26 229 6
26 229 6
27 228 6
28 227 6
28 227 6
29 226 6
30 225 6
30 225 6
31 224 6
31 223 6
32 223 6
33 222 6
33 222 6
34 221 6
35 220 6
35 220 6
36 219 6
37 218 6
37 218 6
38 217 6
39 216 6
39 216 6
40 215 6
40 215 6
41 214 6
42 213 6
42 213 6
43 212 6
44 211 6
44 211 6
45 210 6
46 209 6
46 209 6
47 208 6
47 207 6
48 207 6
49 206 6
49 206 6
50 205 6
51 204 6
51 204 6
52 203 6
53 202 6
53 202 6
54 201 6
55 200 6
55 200 6
56 199 6
56 199 6
57 198 6
58 197 6
58 197 6
59 196 6
60 195 6
60 195 6
61 194 6
62 193 6
62 193 6
63 192 6
63 191 6
64 191 6
65 190 6
65 190 6
66 189 6
67 188 6
67 188 6
68 187 6
69 186 6
69 186 6
70 185 6
71 184 6
71 184 6
72 183 6
72 183 6
73 182 6
74 181 6
74 181 6
75 180 6
76 179 6
76 179 6
77 178 6
78 177 6
78 177 6
79 176 6
79 175 6
80 175 6
81 174 6
81 174 6
82 173 6
83 172 6
83 172 6
84 171 6
85 170 6
85 170 6
86 169 6
87 168 6
87 168 6
88 167 6
88 167 6
89 166 6
90 165 6
90 165 6
91 164 6
92 163 6
92 163 6
93 162 6
94 161 6
94 161 6
95 160 6
95 159 6
96 159 6
97 158 6
97 158 6
98 157 6
99 156 6
99 156 6
100 155 6
101 154 6
101 154 6
102 153 6
103 152 6
103 152 6
104 151 6
104 151 6
105 150 6
106 149 6
106 149 6
107 148 6
108 147 6
108 147 6
109 146 6
110 145 6
110 145 6
111 144 6
111 143 6
112 143 6
113 142 6
113 142 6
114 141 6
115 140 6
115 140 6
116 139 6
117 138 6
117 138 6
118 137 6
119 136 6
119 136 6
120 135 6
120 135 6
121 134 6
122 133 6
122 133 6
123 132 6
124 131 6
124 131 6
125 130 6
126 129 6
126 129 6
127 128 6
127 127 6
128 127 6
129 126 6
129 126 6
130 125 6
131 124 6
131 124 6
132 123 6
133 122 6
133 122 6
134 121 6
135 120 6
135 120 6
136 119 6
136 119 6
137 118 6
138 117 6
138 117 6
139 116 6
140 115 6
140 115 6
141 114 6
142 113 6
142 113 6
143 112 6
143 111 6
144 111 6
145 110 6
145 110 6
146 109 6
147 108 6
147 108 6
148 107 6
149 106 6
149 106 6
150 105 6
151 104 6
151 104 6
152 103 6
152 103 6
153 102 6
154 101 6
154 101 6
155 100 6
156 99 6
156 99 6
157 98 6
158 97 6
158 97 6
159 96 6
159 95 6
160 95 6
161 94 6
161 94 6
162 93 6
163 92 6
163 92 6
164 91 6
165 90 6
165 90 6
166 89 6
167 88 6
167 88 6
168 87 6
168 87 6
169 86 6
170 85 6
170 85 6
171 84 6
172 83 6
172 83 6
173 82 6
174 81 6
174 81 6
175 80 6
175 79 6
176 79 6
177 78 6
177 78 6
178 77 6
179 76 6
179 76 6
180 75 6
181 74 6
181 74 6
182 73 6
183 72 6
183 72 6
184 71 6
184 71 6
185 70 6
186 69 6
186 69 6
187 68 6
188 67 6
188 67 6
189 66 6
190 65 6
190 65 6
191 64 6
191 63 6
192 63 6
193 62 6
193 62 6
194 61 6
195 60 6
195 60 6
196 59 6
197 58 6
197 58 6
198 57 6
199 56 6
199 56 6
200 55 6
200 55 6
201 54 6
202 53 6
202 53 6
203 52 6
204 51 6
204 51 6
205 50 6
206 49 6
206 49 6
207 48 6
207 47 6
208 47 6
209 46 6
209 46 6
210 45 6
211 44 6
211 44 6
212 43 6
213 42 6
213 42 6
214 41 6
215 40 6
215 40 6
216 39 6
216 39 6
217 38 6
218 37 6
218 37 6
219 36 6
220 35 6
220 35 6
221 34 6
222 33 6
222 33 6
223 32 6
223 31 6
224 31 6
225 30 6
225 30 6
226 29 6
227 28 6
227 28 6
228 27 6
229 26 6
229 26 6
230 25 6
231 24 6
231 24 6
232 23 6
232 23 6
233 22 6
234 21 6
234 21 6
235 20 6
236 19 6
236 19 6
237 18 6
238 17 6
238 17 6
239 16 6
239 15 6
240 15 6
241 14 6
241 14 6
242 13 6
243 12 6
243 12 6
244 11 6
245 10 6
245 10 6
246 9 6
247 8 6
247 8 6
248 7 6
248 7 6
249 6 6
250 5 6
250 5 6
251 4 6
252 3 6
252 3 6
253 2 6
254 1 6
254 1 6
255 0 6
0 255 7
0 255 7
1 254 7
1 254 7
2 253 7
3 252 7
3 252 7
4 251 7
5 250 7
5 250 7
6 249 7
7 248 7
7 248 7
8 247 7
8 247 7
9 246 7
10 245 7
10 245 7
11 244 7
12 243 7
12 243 7
13 242 7
14 241 7
14 241 7
15 240 7
15 239 7
16 239 7
17 238 7
17 238 7
18 237 7
19 236 7
19 236 7
20 235 7
21 234 7
21 234 7
22 233 7
23 232 7
23 232 7
24 231 7
24 231 7
25 230 7
26 229 7
26 229 7
27 228 7
28 227 7
28 227 7
29 226 7
30 225 7
30 225 7
31 224 7
31 223 7
32 223 7
33 222 7
33 222 7
34 221 7
35 220 7
35 220 7
36 219 7
37 218 7
37 218 7
38 217 7
39 216 7
39 216 7
40 215 7
40 215 7
41 214 7
42 213 7
42 213 7
43 212 7
44 211 7
44 211 7
45 210 7
46 209 7
46 209 7
47 208 7
47 207 7
48 207 7
49 206 7
49 206 7
50 205 7
51 204 7
51 204 7
52 203 7
53 202 7
53 202 7
54 201 7
55 200 7
55 200 7
56 199 7
56 199 7
57 198 7
58 197 7
58 197 7
59 196 7
60 195 7
60 195 7
61 194 7
62 193 7
62 193 7
63 192 7
63 191 7
64 191 7
65 190 7
65 190 7
66 189 7
67 188 7
67 188 7
68 187 7
69 186 7
69 186 7
70 185 7
71 184 7
71 184 7
72 183 7
72 183 7
73 182 7
74 181 7
74 181 7
75 180 7
76 179 7
76 179 7
77 178 7
78 177 7
78 177 7
79 176 7
79 175 7
80 175 7
81 174 7
81 174 7
82 173 7
83 172 7
83 172 7
84 171 7
85 170 7
85 170 7
86 169 7
87 168 7
87 168 7
88 167 7
88 167 7
89 166 7
90 165 7
90 165 7
91 164 7
92 163 7
92 163 7
93 162 7
94 161 7
94 161 7
95 160 7
95 159 7
96 159 7
97 158 7
97 158 7
98 157 7
99 156 7
99 156 7
100 155 7
101 154 7
101 154 7
102 153 7
103 152 7
103 152 7
104 151 7
104 151 7
105 150 7
106 149 7
106 149 7
107 148 7
108 147 7
108 147 7
109 146 7
110 145 7
110 145 7
111 144 7
111 143 7
112 143 7
113 142 7
113 142 7
114 141 7
115 140 7
115 140 7
116 139 7
117 138 7
117 138 7
118 137 7
119 136 7
119 136 7
120 135 7
120 135 7
121 134 7
122 133 7
122 133 7
123 132 7
124 131 7
124 131 7
125 130 7
126 129 7
126 129 7
127 128 7
127 127 7
128 127 7
129 126 7
129 126 7
130 125 7
131 124 7
131 124 7
132 123 7
133 122 7
133 122 7
134 121 7
135 120 7
135 120 7
136 119 7
136 119 7
137 118 7
138 117 7
138 117 7
139 116 7
140 115 7
140 115 7
141 114 7
142 113 7
142 113 7
143 112 7
143 111 7
144 111 7
145 110 7
145 110 7
146 109 7
147 108 7
147 108 7
148 107 7
149 106 7
149 106 7
150 105 7
151 104 7
151 104 7
152 103 7
152 103 7
153 102 7
154 101 7
154 101 7
155 100 7
156 99 7
156 99 7
157 98 7
158 97 7
158 97 7
159 96 7
159 95 7
160 95 7
161 94 7
161 94 7
162 93 7
163 92 7
163 92 7
164 91 7
165 90 7
165 90 7
166 89 7
167 88 7
167 88 7
168 87 7
168 87 7
169 86 7
170 85 7
170 85 7
171 84 7
172 83 7
172 83 7
173 82 7
174 81 7
174 81 7
175 80 7
175 79 7
176 79 7
177 78 7
177 78 7
178 77 7
179 76 7
179 76 7
180 75 7
181 74 7
181 74 7
182 73 7
183 72 7
183 72 7
184 71 7
184 71 7
185 70 7
186 69 7
186 69 7
187 68 7
188 67 7
188 67 7
189 66 7
190 65 7
190 65 7
191 64 7
191 63 7
192 63 7
193 62 7
193 62 7
194 61 7
195 60 7
195 60 7
196 59 7
197 58 7
197 58 7
198 57 7
199 56 7
199 56 7
200 55 7
200 55 7
201 54 7
202 53 7
202 53 7
203 52 7
204 51 7
204 51 7
205 50 7
206 49 7
206 49 7
207 48 7
207 47 7
208 47 7
209 46 7
209 46 7
210 45 7
211 44 7
211 44 7
212 43 7
213 42 7
213 42 7
214 41 7
215 40 7
215 40 7
216 39 7
216 39 7
217 38 7
218 37 7
218 37 7
219 36 7
220 35 7
220 35 7
221 34 7
222 33 7
222 33 7
223 32 7
223 31 7
224 31 7
225 30 7
225 30 7
226 29 7
227 28 7
227 28 7
228 27 7
229 26 7
229 26 7
230 25 7
231 24 7
231 24 7
232 23 7
232 23 7
233 22 7
234 21 7
234 21 7
235 20 7
236 19 7
236 19 7
237 18 7
238 17 7
238 17 7
239 16 7
239 15 7
240 15 7
241 14 7
241 14 7
242 13 7
243 12 7
243 12 7
244 11 7
245 10 7
245 10 7
246 9 7
247 8 7
247 8 7
248 7 7
248 7 7
249 6 7
250 5 7
250 5 7
251 4 7
252 3 7
252 3 7
253 2 7
254 1 7
254 1 7
255 0 7
0 255 9
0 255 9
1 254 9
1 254 9
2 253 9
3 252 9
3 252 9
4 251 9
5 250 9
5 250 9
6 249 9
7 248 9
7 248 9
8 247 9
8 247 9
9 246 9
10 245 9
10 245 9
11 244 9
12 243 9
12 243 9
13 242 9
14 241 9
14 241 9
15 240 9
15 239 9
16 239 9
17 238 9
17 238 9
18 237 9
19 236 9
19 236 9
20 235 9
21 234 9
21 234 9
22 233 9
23 232 9
23 232 9
24 231 9
24 231 9
25 230 9
26 229 9
26 229 9
27 228 9
28 227 9
28 227 9
29 226 9
30 225 9
30 225 9
31 224 9
31 223 9
32 223 9
33 222 9
33 222 9
34 221 9
35 220 9
35 220 9
36 219 9
37 218 9
37 218 9
38 217 9
39 216 9
39 216 9
40 215 9
40 215 9
41 214 9
42 213 9
42 213 9
43 212 9
44 211 9
44 211 9
45 210 9
46 209 9
46 209 9
47 208 9
47 207 9
48 207 9
49 206 9
49 206 9
50 205 9
51 204 9
51 204 9
52 203 9
53 202 9
53 202 9
54 201 9
55 200 9
55 200 9
56 199 9
56 199 9
57 198 9
58 197 9
58 197 9
59 196 9
60 195 9
60 195 9
61 194 9
62 193 9
62 193 9
63 192 9
63 191 9
64 191 9
65 190 9
65 190 9
66 189 9
67 188 9
67 188 9
68 187 9
69 186 9
69 186 9
70 185 9
71 184 9
71 184 9
72 183 9
72 183 9
73 182 9
74 181 9
74 181 9
75 180 9
76 179 9
76 179 9
77 178 9
78 177 9
78 177 9
79 176 9
79 175 9
80 175 9
81 174 9
81 174 9
82 173 9
83 172 9
83 172 9
84 171 9
85 170 9
85 170 9
86 169 9
87 168 9
87 168 9
88 167 9
88 167 9
89 166 9
90 165 9
90 165 9
91 164 9
92 163 9
92 163 9
93 162 9
94 161 9
94 161 9
95 160 9
95 159 9
96 159 9
97 158 9
97 158 9
98 157 9
99 156 9
99 156 9
100 155 9
101 154 9
101 154 9
102 153 9
103 152 9
103 152 9
104 151 9
104 151 9
105 150 9
106 149 9
106 149 9
107 148 9
108 147 9
108 147 9
109 146 9
110 145 9
110 145 9
111 144 9
111 143 9
112 143 9
113 142 9
113 142 9
114 141 9
115 140 9
115 140 9
116 139 9
117 138 9
117 138 9
118 137 9
119 136 9
119 136 9
120 135 9
120 135 9
121 134 9
122 133 9
122 133 9
123 132 9
124 131 9
124 131 9
125 130 9
126 129 9
126 129 9
127 128 9
127 127 9
128 127 9
129 126 9
129 126 9
130 125 9
131 124 9
131 124 9
132 123 9
133 122 9
133 122 9
134 121 9
135 120 9
135 120 9
136 119 9
136 119 9
137 118 9
138 117 9
138 117 9
139 116 9
140 115 9
140 115 9
141 114 9
142 113 9
142 113 9
143 112 9
143 111 9
144 111 9
145 110 9
145 110 9
146 109 9
147 108 9
147 108 9
148 107 9
149 106 9
149 106 9
150 105 9
151 104 9
151 104 9
152 103 9
152 103 9
153 102 9
154 101 9
154 101 9
155 100 9
156 99 9
156 99 9
157 98 9
158 97 9
158 97 9
159 96 9
159 95 9
160 95 9
161 94 9
161 94 9
162 93 9
163 92 9
163 92 9
164 91 9
165 90 9
165 90 9
166 89 9
167 88 9
167 88 9
168 87 9
168 87 9
169 86 9
170 85 9
170 85 9
171 84 9
172 83 9
172 83 9
173 82 9
174 81 9
174 81 9
175 80 9
175 79 9
176 79 9
177 78 9
177 78 9
178 77 9
179 76 9
179 76 9
180 75 9
181 74 9
181 74 9
182 73 9
183 72 9
183 72 9
184 71 9
184 71 9
185 70 9
186 69 9
186 69 9
187 68 9
188 67 9
188 67 9
189 66 9
190 65 9
190 65 9
191 64 9
191 63 9
192 63 9
193 62 9
193 62 9
194 61 9
195 60 9
195 60 9
196 59 9
197 58 9
197 58 9
198 57 9
199 56 9
199 56 9
200 55 9
200 55 9
201 54 9
202 53 9
202 53 9
203 52 9
204 51 9
204 51 9
205 50 9
206 49 9
206 49 9
207 48 9
207 47 9
208 47 9
209 46 9
209 46 9
210 45 9
211 44 9
211 44 9
212 43 9
213 42 9
213 42 9
214 41 9
215 40 9
215 40 9
216 39 9
216 39 9
217 38 9
218 37 9
218 37 9
219 36 9
220 35 9
220 35 9
221 34 9
222 33 9
222 33 9
223 32 9
223 31 9
224 31 9
225 30 9
225 30 9
226 29 9
227 28 9
227 28 9
228 27 9
229 26 9
229 26 9
230 25 9
231 24 9
231 24 9
232 23 9
232 23 9
233 22 9
234 21 9
234 21 9
235 20 9
236 19 9
236 19 9
237 18 9
238 17 9
238 17 9
239 16 9
239 15 9
240 15 9
241 14 9
241 14 9
242 13 9
243 12 9
243 12 9
244 11 9
245 10 9
245 10 9
246 9 9
247 8 9
247 8 9
248 7 9
248 7 9
249 6 9
250 5 9
250 5 9
251 4 9
252 3 9
252 3 9
253 2 9
254 1 9
254 1 9
255 0 9
0 255 10
0 255 10
1 254 10
1 254 10
2 253 10
3 252 10
3 252 10
4 251 10
5 250 10
5 250 10
6 249 10
7 248 10
7 248 10
8 247 10
8 247 10
9 246 10
10 245 10
10 245 10
11 244 10
12 243 10
12 243 10
13 242 10
14 241 10
14 241 10
15 240 10
15 239 10
16 239 10
17 238 10
17 238 10
18 237 10
19 236 10
19 236 10
20 235 10
21 234 10
21 234 10
22 233 10
23 232 10
23 232 10
24 231 10
24 231 10
25 230 10
26 229 10
26 229 10
27 228 10
28 227 10
28 227 10
29 226 10
30 225 10
30 225 10
31 224 10
31 223 10
32 223 10
33 222 10
33 222 10
34 221 10
35 220 10
35 220 10
36 219 10
37 218 10
37 218 10
38 217 10
39 216 10
39 216 10
40 215 10
40 215 10
41 214 10
42 213 10
42 213 10
43 212 10
44 211 10
44 211 10
45 210 10
46 209 10
46 209 10
47 208 10
47 207 10
48 207 10
49 206 10
49 206 10
50 205 10
51 204 10
51 204 10
52 203 10
53 202 10
53 202 10
54 201 10
55 200 10
55 200 10
56 199 10
56 199 10
57 198 10
58 197 10
58 197 10
59 196 10
60 195 10
60 195 10
61 194 10
62 193 10
62 193 10
63 192 10
63 191 10
64 191 10
65 190 10
65 190 10
66 189 10
67 188 10
67 188 10
68 187 10
69 186 10
69 186 10
70 185 10
71 184 10
71 184 10
72 183 10
72 183 10
73 182 10
74 181 10
74 181 10
75 180 10
76 179 10
76 179 10
77 178 10
78 177 10
78 177 10
79 176 10
79 175 10
80 175 10
81 174 10
81 174 10
82 173 10
83 172 10
83 172 10
84 171 10
85 170 10
85 170 10
86 169 10
87 168 10
87 168 10
88 167 10
88 167 10
89 166 10
90 165 10
90 165 10
91 164 10
92 163 10
92 163 10
93 162 10
94 161 10
94 161 10
95 160 10
95 159 10
96 159 10
97 158 10
97 158 10
98 157 10
99 156 10
99 156 10
100 155 10
101 154 10
101 154 10
102 153 10
103 152 10
103 152 10
104 151 10
104 151 10
105 150 10
106 149 10
106 149 10
107 148 10
108 147 10
108 147 10
109 146 10
110 145 10
110 145 10
111 144 10
111 143 10
112 143 10
113 142 10
113 142 10
114 141 10
115 140 10
115 140 10
116 139 10
117 138 10
117 138 10
118 137 10
119 136 10
119 136 10
120 135 10
120 135 10
121 134 10
122 133 10
122 133 10
123 132 10
124 131 10
124 131 10
125 130 10
126 129 10
126 129 10
127 128 10
127 127 10
128 127 10
129 126 10
129 126 10
130 125 10
131 124 10
131 124 10
132 123 10
133 122 10
133 122 10
134 121 10
135 120 10
135 120 10
136 119 10
136 119 10
137 118 10
138 117 10
138 117 10
139 116 10
140 115 10
140 115 10
141 114 10
142 113 10
142 113 10
143 112 10
143 111 10
144 111 10
145 110 10
145 110 10
146 109 10
147 108 10
147 108 10
148 107 10
149 106 10
149 106 10
150 105 10
151 104 10
151 104 10
152 103 10
152 103 10
153 102 10
154 101 10
154 101 10
155 100 10
156 99 10
156 99 10
157 98 10
158 97 10
158 97 10
159 96 10
159 95 10
160 95 10
161 94 10
161 94 10
162 93 10
163 92 10
163 92 10
164 91 10
165 90 10
165 90 10
166 89 10
167 88 10
167 88 10
168 87 10
168 87 10
169 86 10
170 85 10
170 85 10
171 84 10
172 83 10
172 83 10
173 82 10
174 81 10
174 81 10
175 80 10
175 79 10
176 79 10
177 78 10
177 78 10
178 77 10
179 76 10
179 76 10
180 75 10
181 74 10
181 74 10
182 73 10
183 72 10
183 72 10
184 71 10
184 71 10
185 70 10
186 69 10
186 69 10
187 68 10
188 67 10
188 67 10
189 66 10
190 65 10
190 65 10
191 64 10
191 63 10
192 63 10
193 62 10
193 62 10
194 61 10
195 60 10
195 60 10
196 59 10
197 58 10
197 58 10
198 57 10
199 56 10
199 56 10
200 55 10
200 55 10
201 54 10
202 53 10
202 53 10
203 52 10
204 51 10
204 51 10
205 50 10
206 49 10
206 49 10
207 48 10
207 47 10
208 47 10
209 46 10
209 46 10
210 45 10
211 44 10
211 44 10
212 43 10
213 42 10
213 42 10
214 41 10
215 40 10
215 40 10
216 39 10
216 39 10
217 38 10
218 37 10
218 37 10
219 36 10
220 35 10
220 35 10
221 34 10
222 33 10
222 33 10
223 32 10
223 31 10
224 31 10
225 30 10
225 30 10
226 29 10
227 28 10
227 28 10
228 27 10
229 26 10
229 26 10
230 25 10
231 24 10
231 24 10
232 23 10
232 23 10
233 22 10
234 21 10
234 21 10
235 20 10
236 19 10
236 19 10
237 18 10
238 17 10
238 17 10
239 16 10
239 15 10
240 15 10
241 14 10
241 14 10
242 13 10
243 12 10
243 12 10
244 11 10
245 10 10
245 10 10
246 9 10
247 8 10
247 8 10
248 7 10
248 7 10
249 6 10
250 5 10
250 5 10
251 4 10
252 3 10
252 3 10
253 2 10
254 1 10
254 1 10
255 0 10
0 255 11
0 255 11
1 254 11
1 254 11
2 253 11
3 252 11
3 252 11
4 251 11
5 250 11
5 250 11
6 249 11
7 248 11
7 248 11
8 247 11
8 247 11
9 246 11
10 245 11
10 245 11
11 244 11
12 243 11
12 243 11
13 242 11
14 241 11
14 241 11
15 240 11
15 239 11
16 239 11
17 238 11
17 238 11
18 237 11
19 236 11
19 236 11
20 235 11
21 234 11
21 234 11
22 233 11
23 232 11
23 232 11
24 231 11
24 231 11
25 230 11
26 229 11
26 229 11
27 228 11
28 227 11
28 227 11
29 226 11
30 225 11
30 225 11
31 224 11
31 223 11
32 223 11
33 222 11
33 222 11
34 221 11
35 220 11
35 220 11
36 219 11
37 218 11
37 218 11
38 217 11
39 216 11
39 216 11
40 215 11
40 215 11
41 214 11
42 213 11
42 213 11
43 212 11
44 211 11
44 211 11
45 210 11
46 209 11
46 209 11
47 208 11
47 207 11
48 207 11
49 206 11
49 206 11
50 205 11
51 204 11
51 204 11
52 203 11
53 202 11
53 202 11
54 201 11
55 200 11
55 200 11
56 199 11
56 199 11
57 198 11
58 197 11
58 197 11
59 196 11
60 195 11
60 195 11
61 194 11
62 193 11
62 193 11
63 192 11
63 191 11
64 191 11
65 190 11
65 190 11
66 189 11
67 188 11
67 188 11
68 187 11
69 186 11
69 186 11
70 185 11
71 184 11
71 184 11
72 183 11
72 183 11
73 182 11
74 181 11
74 181 11
75 180 11
76 179 11
76 179 11
77 178 11
78 177 11
78 177 11
79 176 11
79 175 11
80 175 11
81 174 11
81 174 11
82 173 11
83 172 11
83 172 11
84 171 11
85 170 11
85 170 11
86 169 11
87 168 11
87 168 11
88 167 11
88 167 11
89 166 11
90 165 11
90 165 11
91 164 11
92 163 11
92 163 11
93 162 11
94 161 11
94 161 11
95 160 11
95 159 11
96 159 11
97 158 11
97 158 11
98 157 11
99 156 11
99 156 11
100 155 11
101 154 11
101 154 11
102 153 11
103 152 11
103 152 11
104 151 11
104 151 11
105 150 11
106 149 11
106 149 11
107 148 11
108 147 11
108 147 11
109 146 11
110 145 11
110 145 11
111 144 11
111 143 11
112 143 11
113 142 11
113 142 11
114 141 11
115 140 11
115 140 11
116 139 11
117 138 11
117 138 11
118 137 11
119 136 11
119 136 11
120 135 11
120 135 11
121 134 11
122 133 11
122 133 11
123 132 11
124 131 11
124 131 11
125 130 11
126 129 11
126 129 11
127 128 11
127 127 11
128 127 11
129 126 11
129 126 11
130 125 11
131 124 11
131 124 11
132 123 11
133 122 11
133 122 11
134 121 11
135 120 11
135 120 11
136 119 11
136 119 11
137 118 11
138 117 11
138 117 11
139 116 11
140 115 11
140 115 11
141 114 11
142 113 11
142 113 11
143 112 11
143 111 11
144 111 11
145 110 11
145 110 11
146 109 11
147 108 11
147 108 11
148 107 11
149 106 11
149 106 11
150 105 11
151 104 11
151 104 11
152 103 11
152 103 11
153 102 11
154 101 11
154 101 11
155 100 11
156 99 11
156 99 11
157 98 11
158 97 11
158 97 11
159 96 11
159 95 11
160 95 11
161 94 11
161 94 11
162 93 11
163 92 11
163 92 11
164 91 11
165 90 11
165 90 11
166 89 11
167 88 11
167 88 11
168 87 11
168 87 11
169 86 11
170 85 11
170 85 11
171 84 11
172 83 11
172 83 11
173 82 11
174 81 11
174 81 11
175 80 11
175 79 11
176 79 11
177 78 11
177 78 11
178 77 11
179 76 11
179 76 11
180 75 11
181 74 11
181 74 11
182 73 11
183 72 11
183 72 11
184 71 11
184 71 11
185 70 11
186 69 11
186 69 11
187 68 11
188 67 11
188 67 11
189 66 11
190 65 11
190 65 11
191 64 11
191 63 11
192 63 11
193 62 11
193 62 11
194 61 11
195 60 11
195 60 11
196 59 11
197 58 11
197 58 11
198 57 11
199 56 11
199 56 11
200 55 11
200 55 11
201 54 11
202 53 11
202 53 11
203 52 11
204 51 11
204 51 11
205 50 11
206 49 11
206 49 11
207 48 11
207 47 11
208 47 11
209 46 11
209 46 11
210 45 11
211 44 11
211 44 11
212 43 11
213 42 11
213 42 11
214 41 11
215 40 11
215 40 11
216 39 11
216 39 11
217 38 11
218 37 11
218 37 11
219 36 11
220 35 11
220 35 11
221 34 11
222 33 11
222 33 11
223 32 11
223 31 11
224 31 11
225 30 11
225 30 11
226 29 11
227 28 11
227 28 11
228 27 11
229 26 11
229 26 11
230 25 11
231 24 11
231 24 11
232 23 11
232 23 11
233 22 11
234 21 11
234 21 11
235 20 11
236 19 11
236 19 11
237 18 11
238 17 11
238 17 11
239 16 11
239 15 11
240 15 11
241 14 11
241 14 11
242 13 11
243 12 11
243 12 11
244 11 11
245 10 11
245 10 11
246 9 11
247 8 11
247 8 11
248 7 11
248 7 11
249 6 11
250 5 11
250 5 11
251 4 11
252 3 11
252 3 11
253 2 11
254 1 11
254 1 11
255 0 11
0 255 12
0 255 12
1 254 12
1 254 12
2 253 12
3 252 12
3 252 12
4 251 12
5 250 12
5 250 12
6 249 12
7 248 12
7 248 12
8 247 12
8 247 12
9 246 12
10 245 12
10 245 12
11 244 12
12 243 12
12 243 12
13 242 12
14 241 12
14 241 12
15 240 12
15 239 12
16 239 12
17 238 12
17 238 12
18 237 12
19 236 12
19 236 12
20 235 12
21 234 12
21 234 12
22 233 12
23 232 12
23 232 12
24 231 12
24 231 12
25 230 12
26 229 12
26 229 12
27 228 12
28 227 12
28 227 12
29 226 12
30 225 12
30 225 12
31 224 12
31 223 12
32 223 12
33 222 12
33 222 12
34 221 12
35 220 12
35 220 12
36 219 12
37 218 12
37 218 12
38 217 12
39 216 12
39 216 12
40 215 12
40 215 12
41 214 12
42 213 12
42 213 12
43 212 12
44 211 12
44 211 12
45 210 12
46 209 12
46 209 12
47 208 12
47 207 12
48 207 12
49 206 12
49 206 12
50 205 12
51 204 12
51 204 12
52 203 12
53 202 12
53 202 12
54 201 12
55 200 12
55 200 12
56 199 12
56 199 12
57 198 12
58 197 12
58 197 12
59 196 12
60 195 12
60 195 12
61 194 12
62 193 12
62 193 12
63 192 12
63 191 12
64 191 12
65 190 12
65 190 12
66 189 12
67 188 12
67 188 12
68 187 12
69 186 12
69 186 12
70 185 12
71 184 12
71 184 12
72 183 12
72 183 12
73 182 12
74 181 12
74 181 12
75 180 12
76 179 12
76 179 12
77 178 12
78 177 12
78 177 12
79 176 12
79 175 12
80 175 12
81 174 12
81 174 12
82 173 12
83 172 12
83 172 12
84 171 12
85 170 12
85 170 12
86 169 12
87 168 12
87 168 12
88 167 12
88 167 12
89 166 12
90 165 12
90 165 12
91 164 12
92 163 12
92 163 12
93 162 12
94 161 12
94 161 12
95 160 12
95 159 12
96 159 12
97 158 12
97 158 12
98 157 12
99 156 12
99 156 12
100 155 12
101 154 12
101 154 12
102 153 12
103 152 12
103 152 12
104 151 12
104 151 12
105 150 12
106 149 12
106 149 12
107 148 12
108 147 12
108 147 12
109 146 12
110 145 12
110 145 12
111 144 12
111 143 12
112 143 12
113 142 12
113 142 12
114 141 12
115 140 12
115 140 12
116 139 12
117 138 12
117 138 12
118 137 12
119 136 12
119 136 12
120 135 12
120 135 12
121 134 12
122 133 12
122 133 12
123 132 12
124 131 12
124 131 12
125 130 12
126 129 12
126 129 12
127 128 12
127 127 12
128 127 12
129 126 12
129 126 12
130 125 12
131 124 12
131 124 12
132 123 12
133 122 12
133 122 12
134 121 12
135 120 12
135 120 12
136 119 12
136 119 12
137 118 12
138 117 12
138 117 12
139 116 12
140 115 12
140 115 12
141 114 12
142 113 12
142 113 12
143 112 12
143 111 12
144 111 12
145 110 12
145 110 12
146 109 12
147 108 12
147 108 12
148 107 12
149 106 12
149 106 12
150 105 12
151 104 12
151 104 12
152 103 12
152 103 12
153 102 12
154 101 12
154 101 12
155 100 12
156 99 12
156 99 12
157 98 12
158 97 12
158 97 12
159 96 12
159 95 12
160 95 12
161 94 12
161 94 12
162 93 12
163 92 12
163 92 12
164 91 12
165 90 12
165 90 12
166 89 12
167 88 12
167 88 12
168 87 12
168 87 12
169 86 12
170 85 12
170 85 12
171 84 12
172 83 12
172 83 12
173 82 12
174 81 12
174 81 12
175 80 12
175 79 12
176 79 12
177 78 12
177 78 12
178 77 12
179 76 12
179 76 12
180 75 12
181 74 12
181 74 12
182 73 12
183 72 12
183 72 12
184 71 12
184 71 12
185 70 12
186 69 12
186 69 12
187 68 12
188 67 12
188 67 12
189 66 12
190 65 12
190 65 12
191 64 12
191 63 12
192 63 12
193 62 12
193 62 12
194 61 12
195 60 12
195 60 12
196 59 12
197 58 12
197 58 12
198 57 12
199 56 12
199 56 12
200 55 12
200 55 12
201 54 12
202 53 12
202 53 12
203 52 12
204 51 12
204 51 12
205 50 12
206 49 12
206 49 12
207 48 12
207 47 12
208 47 12
209 46 12
209 46 12
210 45 12
211 44 12
211 44 12
212 43 12
213 42 12
213 42 12
214 41 12
215 40 12
215 40 12
216 39 12
216 39 12
217 38 12
218 37 12
218 37 12
219 36 12
220 35 12
220 35 12
221 34 12
222 33 12
222 33 12
223 32 12
223 31 12
224 31 12
225 30 12
225 30 12
226 29 12
227 28 12
227 28 12
228 27 12
229 26 12
229 26 12
230 25 12
231 24 12
231 24 12
232 23 12
232 23 12
233 22 12
234 21 12
234 21 12
235 20 12
236 19 12
236 19 12
237 18 12
238 17 12
238 17 12
239 16 12
239 15 12
240 15 12
241 14 12
241 14 12
242 13 12
243 12 12
243 12 12
244 11 12
245 10 12
245 10 12
246 9 12
247 8 12
247 8 12
248 7 12
248 7 12
249 6 12
250 5 12
250 5 12
251 4 12
252 3 12
252 3 12
253 2 12
254 1 12
254 1 12
255 0 12
0 255 13
0 255 13
1 254 13
1 254 13
2 253 13
3 252 13
3 252 13
4 251 13
5 250 13
5 250 13
6 249 13
7 248 13
7 248 13
8 247 13
8 247 13
9 246 13
10 245 13
10 245 13
11 244 13
12 243 13
12 243 13
13 242 13
14 241 13
14 241 13
15 240 13
15 239 13
16 239 13
17 238 13
17 238 13
18 237 13
19 236 13
19 236 13
20 235 13
21 234 13
21 234 13
22 233 13
23 232 13
23 232 13
24 231 13
24 231 13
25 230 13
26 229 13
26 229 13
27 228 13
28 227 13
28 227 13
29 226 13
30 225 13
30 225 13
31 224 13
31 223 13
32 223 13
33 222 13
33 222 13
34 221 13
35 220 13
35 220 13
36 219 13
37 218 13
37 218 13
38 217 13
39 216 13
39 216 13
40 215 13
40 215 13
41 214 13
42 213 13
42 213 13
43 212 13
44 211 13
44 211 13
45 210 13
46 209 13
46 209 13
47 208 13
47 207 13
48 207 13
49 206 13
49 206 13
50 205 13
51 204 13
51 204 13
52 203 13
53 202 13
53 202 13
54 201 13
55 200 13
55 200 13
56 199 13
56 199 13
57 198 13
58 197 13
58 197 13
59 196 13
60 195 13
60 195 13
61 194 13
62 193 13
62 193 13
63 192 13
63 191 13
64 191 13
65 190 13
65 190 13
66 189 13
67 188 13
67 188 13
68 187 13
69 186 13
69 186 13
70 185 13
71 184 13
71 184 13
72 183 13
72 183 13
73 182 13
74 181 13
74 181 13
75 180 13
76 179 13
76 179 13
77 178 13
78 177 13
78 177 13
79 176 13
79 175 13
80 175 13
81 174 13
81 174 13
82 173 13
83 172 13
83 172 13
84 171 13
85 170 13
85 170 13
86 169 13
87 168 13
87 168 13
88 167 13
88 167 13
89 166 13
90 165 13
90 165 13
91 164 13
92 163 13
92 163 13
93 162 13
94 161 13
94 161 13
95 160 13
95 159 13
96 159 13
97 158 13
97 158 13
98 157 13
99 156 13
99 156 13
100 155 13
101 154 13
101 154 13
102 153 13
103 152 13
103 152 13
104 151 13
104 151 13
105 150 13
106 149 13
106 149 13
107 148 13
108 147 13
108 147 13
109 146 13
110 145 13
110 145 13
111 144 13
111 143 13
112 143 13
113 142 13
113 142 13
114 141 13
115 140 13
115 140 13
116 139 13
117 138 13
117 138 13
118 137 13
119 136 13
119 136 13
120 135 13
120 135 13
121 134 13
122 133 13
122 133 13
123 132 13
124 131 13
124 131 13
125 130 13
126 129 13
126 129 13
127 128 13
127 127 13
128 127 13
129 126 13
129 126 13
130 125 13
131 124 13
131 124 13
132 123 13
133 122 13
133 122 13
134 121 13
135 120 13
135 120 13
136 119 13
136 119 13
137 118 13
138 117 13
138 117 13
139 116 13
140 115 13
140 115 13
141 114 13
142 113 13
142 113 13
143 112 13
143 111 13
144 111 13
145 110 13
145 110 13
146 109 13
147 108 13
147 108 13
148 107 13
149 106 13
149 106 13
150 105 13
151 104 13
151 104 13
152 103 13
152 103 13
153 102 13
154 101 13
154 101 13
155 100 13
156 99 13
156 99 13
157 98 13
158 97 13
158 97 13
159 96 13
159 95 13
160 95 13
161 94 13
161 94 13
162 93 13
163 92 13
163 92 13
164 91 13
165 90 13
165 90 13
166 89 13
167 88 13
167 88 13
168 87 13
168 87 13
169 86 13
170 85 13
170 85 13
171 84 13
172 83 13
172 83 13
173 82 13
174 81 13
174 81 13
175 80 13
175 79 13
176 79 13
177 78 13
177 78 13
178 77 13
179 76 13
179 76 13
180 75 13
181 74 13
181 74 13
182 73 13
183 72 13
183 72 13
184 71 13
184 71 13
185 70 13
186 69 13
186 69 13
187 68 13
188 67 13
188 67 13
189 66 13
190 65 13
190 65 13
191 64 13
191 63 13
192 63 13
193 62 13
193 62 13
194 61 13
195 60 13
195 60 13
196 59 13
197 58 13
197 58 13
198 57 13
199 56 13
199 56 13
200 55 13
200 55 13
201 54 13
202 53 13
202 53 13
203 52 13
204 51 13
204 51 13
205 50 13
206 49 13
206 49 13
207 48 13
207 47 13
208 47 13
209 46 13
209 46 13
210 45 13
211 44 13
211 44 13
212 43 13
213 42 13
213 42 13
214 41 13
215 40 13
215 40 13
216 39 13
216 39 13
217 38 13
218 37 13
218 37 13
219 36 13
220 35 13
220 35 13
221 34 13
222 33 13
222 33 13
223 32 13
223 31 13
224 31 13
225 30 13
225 30 13
226 29 13
227 28 13
227 28 13
228 27 13
229 26 13
229 26 13
230 25 13
231 24 13
231 24 13
232 23 13
232 23 13
233 22 13
234 21 13
234 21 13
235 20 13
236 19 13
236 19 13
237 18 13
238 17 13
238 17 13
239 16 13
239 15 13
240 15 13
241 14 13
241 14 13
242 13 13
243 12 13
243 12 13
244 11 13
245 10 13
245 10 13
246 9 13
247 8 13
247 8 13
248 7 13
248 7 13
249 6 13
250 5 13
250 5 13
251 4 13
252 3 13
252 3 13
253 2 13
254 1 13
254 1 13
255 0 13
0 255 14
0 255 14
1 254 14
1 254 14
2 253 14
3 252 14
3 252 14
4 251 14
5 250 14
5 250 14
6 249 14
7 248 14
7 248 14
8 247 14
8 247 14
9 246 14
10 245 14
10 245 14
11 244 14
12 243 14
12 243 14
13 242 14
14 241 14
14 241 14
15 240 14
15 239 14
16 239 14
17 238 14
17 238 14
18 237 14
19 236 14
19 236 14
20 235 14
21 234 14
21 234 14
22 233 14
23 232 14
23 232 14
24 231 14
24 231 14
25 230 14
26 229 14
26 229 14
27 228 14
28 227 14
28 227 14
29 226 14
30 225 14
30 225 14
31 224 14
31 223 14
32 223 14
33 222 14
33 222 14
34 221 14
35 220 14
35 220 14
36 219 14
37 218 14
37 218 14
38 217 14
39 216 14
39 216 14
40 215 14
40 215 14
41 214 14
42 213 14
42 213 14
43 212 14
44 211 14
44 211 14
45 210 14
46 209 14
46 209 14
47 208 14
47 207 14
48 207 14
49 206 14
49 206 14
50 205 14
51 204 14
51 204 14
52 203 14
53 202 14
53 202 14
54 201 14
55 200 14
55 200 14
56 199 14
56 199 14
57 198 14
58 197 14
58 197 14
59 196 14
60 195 14
60 195 14
61 194 14
62 193 14
62 193 14
63 192 14
63 191 14
64 191 14
65 190 14
65 190 14
66 189 14
67 188 14
67 188 14
68 187 14
69 186 14
69 186 14
70 185 14
71 184 14
71 184 14
72 183 14
72 183 14
73 182 14
74 181 14
74 181 14
75 180 14
76 179 14
76 179 14
77 178 14
78 177 14
78 177 14
79 176 14
79 175 14
80 175 14
81 174 14
81 174 14
82 173 14
83 172 14
83 172 14
84 171 14
85 170 14
85 170 14
86 169 14
87 168 14
87 168 14
88 167 14
88 167 14
89 166 14
90 165 14
90 165 14
91 164 14
92 163 14
92 163 14
93 162 14
94 161 14
94 161 14
95 160 14
95 159 14
96 159 14
97 158 14
97 158 14
98 157 14
99 156 14
99 156 14
100 155 14
101 154 14
101 154 14
102 153 14
103 152 14
103 152 14
104 151 14
104 151 14
105 150 14
106 149 14
106 149 14
107 148 14
108 147 14
108 147 14
109 146 14
110 145 14
110 145 14
111 144 14
111 143 14
112 143 14
113 142 14
113 142 14
114 141 14
115 140 14
115 140 14
116 139 14
117 138 14
117 138 14
118 137 14
119 136 14
119 136 14
120 135 14
120 135 14
121 134 14
122 133 14
122 133 14
123 132 14
124 131 14
124 131 14
125 130 14
126 129 14
126 129 14
127 128 14
127 127 14
128 127 14
129 126 14
129 126 14
130 125 14
131 124 14
131 124 14
132 123 14
133 122 14
133 122 14
134 121 14
135 120 14
135 120 14
136 119 14
136 119 14
137 118 14
138 117 14
138 117 14
139 116 14
140 115 14
140 115 14
141 114 14
142 113 14
142 113 14
143 112 14
143 111 14
144 111 14
145 110 14
145 110 14
146 109 14
147 108 14
147 108 14
148 107 14
149 106 14
149 106 14
150 105 14
151 104 14
151 104 14
152 103 14
152 103 14
153 102 14
154 101 14
154 101 14
155 100 14
156 99 14
156 99 14
157 98 14
158 97 14
158 97 14
159 96 14
159 95 14
160 95 14
161 94 14
161 94 14
162 93 14
163 92 14
163 92 14
164 91 14
165 90 14
165 90 14
166 89 14
167 88 14
167 88 14
168 87 14
168 87 14
169 86 14
170 85 14
170 85 14
171 84 14
172 83 14
172 83 14
173 82 14
174 81 14
174 81 14
175 80 14
175 79 14
176 79 14
177 78 14
177 78 14
178 77 14
179 76 14
179 76 14
180 75 14
181 74 14
181 74 14
182 73 14
183 72 14
183 72 14
184 71 14
184 71 14
185 70 14
186 69 14
186 69 14
187 68 14
188 67 14
188 67 14
189 66 14
190 65 14
190 65 14
191 64 14
191 63 14
192 63 14
193 62 14
193 62 14
194 61 14
195 60 14
195 60 14
196 59 14
197 58 14
197 58 14
198 57 14
199 56 14
199 56 14
200 55 14
200 55 14
201 54 14
202 53 14
202 53 14
203 52 14
204 51 14
204 51 14
205 50 14
206 49 14
206 49 14
207 48 14
207 47 14
208 47 14
209 46 14
209 46 14
210 45 14
211 44 14
211 44 14
212 43 14
213 42 14
213 42 14
214 41 14
215 40 14
215 40 14
216 39 14
216 39 14
217 38 14
218 37 14
218 37 14
219 36 14
220 35 14
220 35 14
221 34 14
222 33 14
222 33 14
223 32 14
223 31 14
224 31 14
225 30 14
225 30 14
226 29 14
227 28 14
227 28 14
228 27 14
229 26 14
229 26 14
230 25 14
231 24 14
231 24 14
232 23 14
232 23 14
233 22 14
234 21 14
234 21 14
235 20 14
236 19 14
236 19 14
237 18 14
238 17 14
238 17 14
239 16 14
239 15 14
240 15 14
241 14 14
241 14 14
242 13 14
243 12 14
243 12 14
244 11 14
245 10 14
245 10 14
246 9 14
247 8 14
247 8 14
248 7 14
248 7 14
249 6 14
250 5 14
250 5 14
251 4 14
252 3 14
252 3 14
253 2 14
254 1 14
254 1 14
255 0 14
0 255 15
0 255 15
1 254 15
1 254 15
2 253 15
3 252 15
3 252 15
4 251 15
5 250 15
5 250 15
6 249 15
7 248 15
7 248 15
8 247 15
8 247 15
9 246 15
10 245 15
10 245 15
11 244 15
12 243 15
12 243 15
13 242 15
14 241 15
14 241 15
15 240 15
15 239 15
16 239 15
17 238 15
17 238 15
18 237 15
19 236 15
19 236 15
20 235 15
21 234 15
21 234 15
22 233 15
23 232 15
23 232 15
24 231 15
24 231 15
25 230 15
26 229 15
26 229 15
27 228 15
28 227 15
28 227 15
29 226 15
30 225 15
30 225 15
31 224 15
31 223 15
32 223 15
33 222 15
33 222 15
34 221 15
35 220 15
35 220 15
36 219 15
37 218 15
37 218 15
38 217 15
39 216 15
39 216 15
40 215 15
40 215 15
41 214 15
42 213 15
42 213 15
43 212 15
44 211 15
44 211 15
45 210 15
46 209 15
46 209 15
47 208 15
47 207 15
48 207 15
49 206 15
49 206 15
50 205 15
51 204 15
51 204 15
52 203 15
53 202 15
53 202 15
54 201 15
55 200 15
55 200 15
56 199 15
56 199 15
57 198 15
58 197 15
58 197 15
59 196 15
60 195 15
60 195 15
61 194 15
62 193 15
62 193 15
63 192 15
63 191 15
64 191 15
65 190 15
65 190 15
66 189 15
67 188 15
67 188 15
68 187 15
69 186 15
69 186 15
70 185 15
71 184 15
71 184 15
72 183 15
72 183 15
73 182 15
74 181 15
74 181 15
75 180 15
76 179 15
76 179 15
77 178 15
78 177 15
78 177 15
79 176 15
79 175 15
80 175 15
81 174 15
81 174 15
82 173 15
83 172 15
83 172 15
84 171 15
85 170 15
85 170 15
86 169 15
87 168 15
87 168 15
88 167 15
88 167 15
89 166 15
90 165 15
90 165 15
91 164 15
92 163 15
92 163 15
93 162 15
94 161 15
94 161 15
95 160 15
95 159 15
96 159 15
97 158 15
97 158 15
98 157 15
99 156 15
99 156 15
100 155 15
101 154 15
101 154 15
102 153 15
103 152 15
103 152 15
104 151 15
104 151 15
105 150 15
106 149 15
106 149 15
107 148 15
108 147 15
108 147 15
109 146 15
110 145 15
110 145 15
111 144 15
111 143 15
112 143 15
113 142 15
113 142 15
114 141 15
115 140 15
115 140 15
116 139 15
117 138 15
117 138 15
118 137 15
119 136 15
119 136 15
120 135 15
120 135 15
121 134 15
122 133 15
122 133 15
123 132 15
124 131 15
124 131 15
125 130 15
126 129 15
126 129 15
127 128 15
127 127 15
128 127 15
129 126 15
129 126 15
130 125 15
131 124 15
131 124 15
132 123 15
133 122 15
133 122 15
134 121 15
135 120 15
135 120 15
136 119 15
136 119 15
137 118 15
138 117 15
138 117 15
139 116 15
140 115 15
140 115 15
141 114 15
142 113 15
142 113 15
143 112 15
143 111 15
144 111 15
145 110 15
145 110 15
146 109 15
147 108 15
147 108 15
148 107 15
149 106 15
149 106 15
150 105 15
151 104 15
151 104 15
152 103 15
152 103 15
153 102 15
154 101 15
154 101 15
155 100 15
156 99 15
156 99 15
157 98 15
158 97 15
158 97 15
159 96 15
159 95 15
160 95 15
161 94 15
161 94 15
162 93 15
163 92 15
163 92 15
164 91 15
165 90 15
165 90 15
166 89 15
167 88 15
167 88 15
168 87 15
168 87 15
169 86 15
170 85 15
170 85 15
171 84 15
172 83 15
172 83 15
173 82 15
174 81 15
174 81 15
175 80 15
175 79 15
176 79 15
177 78 15
177 78 15
178 77 15
179 76 15
179 76 15
180 75 15
181 74 15
181 74 15
182 73 15
183 72 15
183 72 15
184 71 15
184 71 15
185 70 15
186 69 15
186 69 15
187 68 15
188 67 15
188 67 15
189 66 15
190 65 15
190 65 15
191 64 15
191 63 15
192 63 15
193 62 15
193 62 15
194 61 15
195 60 15
195 60 15
196 59 15
197 58 15
197 58 15
198 57 15
199 56 15
199 56 15
200 55 15
200 55 15
201 54 15
202 53 15
202 53 15
203 52 15
204 51 15
204 51 15
205 50 15
206 49 15
206 49 15
207 48 15
207 47 15
208 47 15
209 46 15
209 46 15
210 45 15
211 44 15
211 44 15
212 43 15
213 42 15
213 42 15
214 41 15
215 40 15
215 40 15
216 39 15
216 39 15
217 38 15
218 37 15
218 37 15
219 36 15
220 35 15
220 35 15
221 34 15
222 33 15
222 33 15
223 32 15
223 31 15
224 31 15
225 30 15
225 30 15
226 29 15
227 28 15
227 28 15
228 27 15
229 26 15
229 26 15
230 25 15
231 24 15
231 24 15
232 23 15
232 23 15
233 22 15
234 21 15
234 21 15
235 20 15
236 19 15
236 19 15
237 18 15
238 17 15
238 17 15
239 16 15
239 15 15
240 15 15
241 14 15
241 14 15
242 13 15
243 12 15
243 12 15
244 11 15
245 10 15
245 10 15
246 9 15
247 8 15
247 8 15
248 7 15
248 7 15
249 6 15
250 5 15
250 5 15
251 4 15
252 3 15
252 3 15
253 2 15
254 1 15
254 1 15
255 0 15
0 255 17
0 255 17
1 254 17
1 254 17
2 253 17
3 252 17
3 252 17
4 251 17
5 250 17
5 250 17
6 249 17
7 248 17
7 248 17
8 247 17
8 247 17
9 246 17
10 245 17
10 245 17
11 244 17
12 243 17
12 243 17
13 242 17
14 241 17
14 241 17
15 240 17
15 239 17
16 239 17
17 238 17
17 238 17
18 237 17
19 236 17
19 236 17
20 235 17
21 234 17
21 234 17
22 233 17
23 232 17
23 232 17
24 231 17
24 231 17
25 230 17
26 229 17
26 229 17
27 228 17
28 227 17
28 227 17
29 226 17
30 225 17
30 225 17
31 224 17
31 223 17
32 223 17
33 222 17
33 222 17
34 221 17
35 220 17
35 220 17
36 219 17
37 218 17
37 218 17
38 217 17
39 216 17
39 216 17
40 215 17
40 215 17
41 214 17
42 213 17
42 213 17
43 212 17
44 211 17
44 211 17
45 210 17
46 209 17
46 209 17
47 208 17
47 207 17
48 207 17
49 206 17
49 206 17
50 205 17
51 204 17
51 204 17
52 203 17
53 202 17
53 202 17
54 201 17
55 200 17
55 200 17
56 199 17
56 199 17
57 198 17
58 197 17
58 197 17
59 196 17
60 195 17
60 195 17
61 194 17
62 193 17
62 193 17
63 192 17
63 191 17
64 191 17
65 190 17
65 190 17
66 189 17
67 188 17
67 188 17
68 187 17
69 186 17
69 186 17
70 185 17
71 184 17
71 184 17
72 183 17
72 183 17
73 182 17
74 181 17
74 181 17
75 180 17
76 179 17
76 179 17
77 178 17
78 177 17
78 177 17
79 176 17
79 175 17
80 175 17
81 174 17
81 174 17
82 173 17
83 172 17
83 172 17
84 171 17
85 170 17
85 170 17
86 169 17
87 168 17
87 168 17
88 167 17
88 167 17
89 166 17
90 165 17
90 165 17
91 164 17
92 163 17
92 163 17
93 162 17
94 161 17
94 161 17
95 160 17
95 159 17
96 159 17
97 158 17
97 158 17
98 157 17
99 156 17
99 156 17
100 155 17
101 154 17
101 154 17
102 153 17
103 152 17
103 152 17
104 151 17
104 151 17
105 150 17
106 149 17
106 149 17
107 148 17
108 147 17
108 147 17
109 146 17
110 145 17
110 145 17
111 144 17
111 143 17
112 143 17
113 142 17
113 142 17
114 141 17
115 140 17
115 140 17
116 139 17
117 138 17
117 138 17
118 137 17
119 136 17
119 136 17
120 135 17
120 135 17
121 134 17
122 133 17
122 133 17
123 132 17
124 131 17
124 131 17
125 130 17
126 129 17
126 129 17
127 128 17
127 127 17
128 127 17
129 126 17
129 126 17
130 125 17
131 124 17
131 124 17
132 123 17
133 122 17
133 122 17
134 121 17
135 120 17
135 120 17
136 119 17
136 119 17
137 118 17
138 117 17
138 117 17
139 116 17
140 115 17
140 115 17
141 114 17
142 113 17
142 113 17
143 112 17
143 111 17
144 111 17
145 110 17
145 110 17
146 109 17
147 108 17
147 108 17
148 107 17
149 106 17
149 106 17
150 105 17
151 104 17
151 104 17
152 103 17
152 103 17
153 102 17
154 101 17
154 101 17
155 100 17
156 99 17
156 99 17
157 98 17
158 97 17
158 97 17
159 96 17
159 95 17
160 95 17
161 94 17
161 94 17
162 93 17
163 92 17
163 92 17
164 91 17
165 90 17
165 90 17
166 89 17
167 88 17
167 88 17
168 87 17
168 87 17
169 86 17
170 85 17
170 85 17
171 84 17
172 83 17
172 83 17
173 82 17
174 81 17
174 81 17
175 80 17
175 79 17
176 79 17
177 78 17
177 78 17
178 77 17
179 76 17
179 76 17
180 75 17
181 74 17
181 74 17
182 73 17
183 72 17
183 72 17
184 71 17
184 71 17
185 70 17
186 69 17
186 69 17
187 68 17
188 67 17
188 67 17
189 66 17
190 65 17
190 65 17
191 64 17
191 63 17
192 63 17
193 62 17
193 62 17
194 61 17
195 60 17
195 60 17
196 59 17
197 58 17
197 58 17
198 57 17
199 56 17
199 56 17
200 55 17
200 55 17
201 54 17
202 53 17
202 53 17
203 52 17
204 51 17
204 51 17
205 50 17
206 49 17
206 49 17
207 48 17
207 47 17
208 47 17
209 46 17
209 46 17
210 45 17
211 44 17
211 44 17
212 43 17
213 42 17
213 42 17
214 41 17
215 40 17
215 40 17
216 39 17
216 39 17
217 38 17
218 37 17
218 37 17
219 36 17
220 35 17
220 35 17
221 34 17
222 33 17
222 33 17
223 32 17
223 31 17
224 31 17
225 30 17
225 30 17
226 29 17
227 28 17
227 28 17
228 27 17
229 26 17
229 26 17
230 25 17
231 24 17
231 24 17
232 23 17
232 23 17
233 22 17
234 21 17
234 21 17
235 20 17
236 19 17
236 19 17
237 18 17
238 17 17
238 17 17
239 16 17
239 15 17
240 15 17
241 14 17
241 14 17
242 13 17
243 12 17
243 12 17
244 11 17
245 10 17
245 10 17
246 9 17
247 8 17
247 8 17
248 7 17
248 7 17
249 6 17
250 5 17
250 5 17
251 4 17
252 3 17
252 3 17
253 2 17
254 1 17
254 1 17
255 0 17
0 255 18
0 255 18
1 254 18
1 254 18
2 253 18
3 252 18
3 252 18
4 251 18
5 250 18
5 250 18
6 249 18
7 248 18
7 248 18
8 247 18
8 247 18
9 246 18
10 245 18
10 245 18
11 244 18
12 243 18
12 243 18
13 242 18
14 241 18
14 241 18
15 240 18
15 239 18
16 239 18
17 238 18
17 238 18
18 237 18
19 236 18
19 236 18
20 235 18
21 234 18
21 234 18
22 233 18
23 232 18
23 232 18
24 231 18
24 231 18
25 230 18
26 229 18
26 229 18
27 228 18
28 227 18
28 227 18
29 226 18
30 225 18
30 225 18
31 224 18
31 223 18
32 223 18
33 222 18
33 222 18
34 221 18
35 220 18
35 220 18
36 219 18
37 218 18
37 218 18
38 217 18
39 216 18
39 216 18
40 215 18
40 215 18
41 214 18
42 213 18
42 213 18
43 212 18
44 211 18
44 211 18
45 210 18
46 209 18
46 209 18
47 208 18
47 207 18
48 207 18
49 206 18
49 206 18
50 205 18
51 204 18
51 204 18
52 203 18
53 202 18
53 202 18
54 201 18
55 200 18
55 200 18
56 199 18
56 199 18
57 198 18
58 197 18
58 197 18
59 196 18
60 195 18
60 195 18
61 194 18
62 193 18
62 193 18
63 192 18
63 191 18
64 191 18
65 190 18
65 190 18
66 189 18
67 188 18
67 188 18
68 187 18
69 186 18
69 186 18
70 185 18
71 184 18
71 184 18
72 183 18
72 183 18
73 182 18
74 181 18
74 181 18
75 180 18
76 179 18
76 179 18
77 178 18
78 177 18
78 177 18
79 176 18
79 175 18
80 175 18
81 174 18
81 174 18
82 173 18
83 172 18
83 172 18
84 171 18
85 170 18
85 170 18
86 169 18
87 168 18
87 168 18
88 167 18
88 167 18
89 166 18
90 165 18
90 165 18
91 164 18
92 163 18
92 163 18
93 162 18
94 161 18
94 161 18
95 160 18
95 159 18
96 159 18
97 158 18
97 158 18
98 157 18
99 156 18
99 156 18
100 155 18
101 154 18
101 154 18
102 153 18
103 152 18
103 152 18
104 151 18
104 151 18
105 150 18
106 149 18
106 149 18
107 148 18
108 147 18
108 147 18
109 146 18
110 145 18
110 145 18
111 144 18
111 143 18
112 143 18
113 142 18
113 142 18
114 141 18
115 140 18
115 140 18
116 139 18
117 138 18
117 138 18
118 137 18
119 136 18
119 136 18
120 135 18
120 135 18
121 134 18
122 133 18
122 133 18
123 132 18
124 131 18
124 131 18
125 130 18
126 129 18
126 129 18
127 128 18
127 127 18
128 127 18
129 126 18
129 126 18
130 125 18
131 124 18
131 124 18
132 123 18
133 122 18
133 122 18
134 121 18
135 120 18
135 120 18
136 119 18
136 119 18
137 118 18
138 117 18
138 117 18
139 116 18
140 115 18
140 115 18
141 114 18
142 113 18
142 113 18
143 112 18
143 111 18
144 111 18
145 110 18
145 110 18
146 109 18
147 108 18
147 108 18
148 107 18
149 106 18
149 106 18
150 105 18
151 104 18
151 104 18
152 103 18
152 103 18
153 102 18
154 101 18
154 101 18
155 100 18
156 99 18
156 99 18
157 98 18
158 97 18
158 97 18
159 96 18
159 95 18
160 95 18
161 94 18
161 94 18
162 93 18
163 92 18
163 92 18
164 91 18
165 90 18
165 90 18
166 89 18
167 88 18
167 88 18
168 87 18
168 87 18
169 86 18
170 85 18
170 85 18
171 84 18
172 83 18
172 83 18
173 82 18
174 81 18
174 81 18
175 80 18
175 79 18
176 79 18
177 78 18
177 78 18
178 77 18
179 76 18
179 76 18
180 75 18
181 74 18
181 74 18
182 73 18
183 72 18
183 72 18
184 71 18
184 71 18
185 70 18
186 69 18
186 69 18
187 68 18
188 67 18
188 67 18
189 66 18
190 65 18
190 65 18
191 64 18
191 63 18
192 63 18
193 62 18
193 62 18
194 61 18
195 60 18
195 60 18
196 59 18
197 58 18
197 58 18
198 57 18
199 56 18
199 56 18
200 55 18
200 55 18
201 54 18
202 53 18
202 53 18
203 52 18
204 51 18
204 51 18
205 50 18
206 49 18
206 49 18
207 48 18
207 47 18
208 47 18
209 46 18
209 46 18
210 45 18
211 44 18
211 44 18
212 43 18
213 42 18
213 42 18
214 41 18
215 40 18
215 40 18
216 39 18
216 39 18
217 38 18
218 37 18
218 37 18
219 36 18
220 35 18
220 35 18
221 34 18
222 33 18
222 33 18
223 32 18
223 31 18
224 31 18
225 30 18
225 30 18
226 29 18
227 28 18
227 28 18
228 27 18
229 26 18
229 26 18
230 25 18
231 24 18
231 24 18
232 23 18
232 23 18
233 22 18
234 21 18
234 21 18
235 20 18
236 19 18
236 19 18
237 18 18
238 17 18
238 17 18
239 16 18
239 15 18
240 15 18
241 14 18
241 14 18
242 13 18
243 12 18
243 12 18
244 11 18
245 10 18
245 10 18
246 9 18
247 8 18
247 8 18
248 7 18
248 7 18
249 6 18
250 5 18
250 5 18
251 4 18
252 3 18
252 3 18
253 2 18
254 1 18
254 1 18
255 0 18
0 255 19
0 255 19
1 254 19
1 254 19
2 253 19
3 252 19
3 252 19
4 251 19
5 250 19
5 250 19
6 249 19
7 248 19
7 248 19
8 247 19
8 247 19
9 246 19
10 245 19
10 245 19
11 244 19
12 243 19
12 243 19
13 242 19
14 241 19
14 241 19
15 240 19
15 239 19
16 239 19
17 238 19
17 238 19
18 237 19
19 236 19
19 236 19
20 235 19
21 234 19
21 234 19
22 233 19
23 232 19
23 232 19
24 231 19
24 231 19
25 230 19
26 229 19
26 229 19
27 228 19
28 227 19
28 227 19
29 226 19
30 225 19
30 225 19
31 224 19
31 223 19
32 223 19
33 222 19
33 222 19
34 221 19
35 220 19
35 220 19
36 219 19
37 218 19
37 218 19
38 217 19
39 216 19
39 216 19
40 215 19
40 215 19
41 214 19
42 213 19
42 213 19
43 212 19
44 211 19
44 211 19
45 210 19
46 209 19
46 209 19
47 208 19
47 207 19
48 207 19
49 206 19
49 206 19
50 205 19
51 204 19
51 204 19
52 203 19
53 202 19
53 202 19
54 201 19
55 200 19
55 200 19
56 199 19
56 199 19
57 198 19
58 197 19
58 197 19
59 196 19
60 195 19
60 195 19
61 194 19
62 193 19
62 193 19
63 192 19
63 191 19
64 191 19
65 190 19
65 190 19
66 189 19
67 188 19
67 188 19
68 187 19
69 186 19
69 186 19
70 185 19
71 184 19
71 184 19
72 183 19
72 183 19
73 182 19
74 181 19
74 181 19
75 180 19
76 179 19
76 179 19
77 178 19
78 177 19
78 177 19
79 176 19
79 175 19
80 175 19
81 174 19
81 174 19
82 173 19
83 172 19
83 172 19
84 171 19
85 170 19
85 170 19
86 169 19
87 168 19
87 168 19
88 167 19
88 167 19
89 166 19
90 165 19
90 165 19
91 164 19
92 163 19
92 163 19
93 162 19
94 161 19
94 161 19
95 160 19
95 159 19
96 159 19
97 158 19
97 158 19
98 157 19
99 156 19
99 156 19
100 155 19
101 154 19
101 154 19
102 153 19
103 152 19
103 152 19
104 151 19
104 151 19
105 150 19
106 149 19
106 149 19
107 148 19
108 147 19
108 147 19
109 146 19
110 145 19
110 145 19
111 144 19
111 143 19
112 143 19
113 142 19
113 142 19
114 141 19
115 140 19
115 140 19
116 139 19
117 138 19
117 138 19
118 137 19
119 136 19
119 136 19
120 135 19
120 135 19
121 134 19
122 133 19
122 133 19
123 132 19
124 131 19
124 131 19
125 130 19
126 129 19
126 129 19
127 128 19
127 127 19
128 127 19
129 126 19
129 126 19
130 125 19
131 124 19
131 124 19
132 123 19
133 122 19
133 122 19
134 121 19
135 120 19
135 120 19
136 119 19
136 119 19
137 118 19
138 117 19
138 117 19
139 116 19
140 115 19
140 115 19
141 114 19
142 113 19
142 113 19
143 112 19
143 111 19
144 111 19
145 110 19
145 110 19
146 109 19
147 108 19
147 108 19
148 107 19
149 106 19
149 106 19
150 105 19
151 104 19
151 104 19
152 103 19
152 103 19
153 102 19
154 101 19
154 101 19
155 100 19
156 99 19
156 99 19
157 98 19
158 97 19
158 97 19
159 96 19
159 95 19
160 95 19
161 94 19
161 94 19
162 93 19
163 92 19
163 92 19
164 91 19
165 90 19
165 90 19
166 89 19
167 88 19
167 88 19
168 87 19
168 87 19
169 86 19
170 85 19
170 85 19
171 84 19
172 83 19
172 83 19
173 82 19
174 81 19
174 81 19
175 80 19
175 79 19
176 79 19
177 78 19
177 78 19
178 77 19
179 76 19
179 76 19
180 75 19
181 74 19
181 74 19
182 73 19
183 72 19
183 72 19
184 71 19
184 71 19
185 70 19
186 69 19
186 69 19
187 68 19
188 67 19
188 67 19
189 66 19
190 65 19
190 65 19
191 64 19
191 63 19
192 63 19
193 62 19
193 62 19
194 61 19
195 60 19
195 60 19
196 59 19
197 58 19
197 58 19
198 57 19
199 56 19
199 56 19
200 55 19
200 55 19
201 54 19
202 53 19
202 53 19
203 52 19
204 51 19
204 51 19
205 50 19
206 49 19
206 49 19
207 48 19
207 47 19
208 47 19
209 46 19
209 46 19
210 45 19
211 44 19
211 44 19
212 43 19
213 42 19
213 42 19
214 41 19
215 40 19
215 40 19
216 39 19
216 39 19
217 38 19
218 37 19
218 37 19
219 36 19
220 35 19
220 35 19
221 34 19
222 33 19
222 33 19
223 32 19
223 31 19
224 31 19
225 30 19
225 30 19
226 29 19
227 28 19
227 28 19
228 27 19
229 26 19
229 26 19
230 25 19
231 24 19
231 24 19
232 23 19
232 23 19
233 22 19
234 21 19
234 21 19
235 20 19
236 19 19
236 19 19
237 18 19
238 17 19
238 17 19
239 16 19
239 15 19
240 15 19
241 14 19
241 14 19
242 13 19
243 12 19
243 12 19
244 11 19
245 10 19
245 10 19
246 9 19
247 8 19
247 8 19
248 7 19
248 7 19
249 6 19
250 5 19
250 5 19
251 4 19
252 3 19
252 3 19
253 2 19
254 1 19
254 1 19
255 0 19
0 255 20
0 255 20
1 254 20
1 254 20
2 253 20
3 252 20
3 252 20
4 251 20
5 250 20
5 250 20
6 249 20
7 248 20
7 248 20
8 247 20
8 247 20
9 246 20
10 245 20
10 245 20
11 244 20
12 243 20
12 243 20
13 242 20
14 241 20
14 241 20
15 240 20
15 239 20
16 239 20
17 238 20
17 238 20
18 237 20
19 236 20
19 236 20
20 235 20
21 234 20
21 234 20
22 233 20
23 232 20
23 232 20
24 231 20
24 231 20
25 230 20
26 229 20
26 229 20
27 228 20
28 227 20
28 227 20
29 226 20
30 225 20
30 225 20
31 224 20
31 223 20
32 223 20
33 222 20
33 222 20
34 221 20
35 220 20
35 220 20
36 219 20
37 218 20
37 218 20
38 217 20
39 216 20
39 216 20
40 215 20
40 215 20
41 214 20
42 213 20
42 213 20
43 212 20
44 211 20
44 211 20
45 210 20
46 209 20
46 209 20
47 208 20
47 207 20
48 207 20
49 206 20
49 206 20
50 205 20
51 204 20
51 204 20
52 203 20
53 202 20
53 202 20
54 201 20
55 200 20
55 200 20
56 199 20
56 199 20
57 198 20
58 197 20
58 197 20
59 196 20
60 195 20
60 195 20
61 194 20
62 193 20
62 193 20
63 192 20
63 191 20
64 191 20
65 190 20
65 190 20
66 189 20
67 188 20
67 188 20
68 187 20
69 186 20
69 186 20
70 185 20
71 184 20
71 184 20
72 183 20
72 183 20
73 182 20
74 181 20
74 181 20
75 180 20
76 179 20
76 179 20
77 178 20
78 177 20
78 177 20
79 176 20
79 175 20
80 175 20
81 174 20
81 174 20
82 173 20
83 172 20
83 172 20
84 171 20
85 170 20
85 170 20
86 169 20
87 168 20
87 168 20
88 167 20
88 167 20
89 166 20
90 165 20
90 165 20
91 164 20
92 163 20
92 163 20
93 162 20
94 161 20
94 161 20
95 160 20
95 159 20
96 159 20
97 158 20
97 158 20
98 157 20
99 156 20
99 156 20
100 155 20
101 154 20
101 154 20
102 153 20
103 152 20
103 152 20
104 151 20
104 151 20
105 150 20
106 149 20
106 149 20
107 148 20
108 147 20
108 147 20
109 146 20
110 145 20
110 145 20
111 144 20
111 143 20
112 143 20
113 142 20
113 142 20
114 141 20
115 140 20
115 140 20
116 139 20
117 138 20
117 138 20
118 137 20
119 136 20
119 136 20
120 135 20
120 135 20
121 134 20
122 133 20
122 133 20
123 132 20
124 131 20
124 131 20
125 130 20
126 129 20
126 129 20
127 128 20
127 127 20
128 127 20
129 126 20
129 126 20
130 125 20
131 124 20
131 124 20
132 123 20
133 122 20
133 122 20
134 121 20
135 120 20
135 120 20
136 119 20
136 119 20
137 118 20
138 117 20
138 117 20
139 116 20
140 115 20
140 115 20
141 114 20
142 113 20
142 113 20
143 112 20
143 111 20
144 111 20
145 110 20
145 110 20
146 109 20
147 108 20
147 108 20
148 107 20
149 106 20
149 106 20
150 105 20
151 104 20
151 104 20
152 103 20
152 103 20
153 102 20
154 101 20
154 101 20
155 100 20
156 99 20
156 99 20
157 98 20
158 97 20
158 97 20
159 96 20
159 95 20
160 95 20
161 94 20
161 94 20
162 93 20
163 92 20
163 92 20
164 91 20
165 90 20
165 90 20
166 89 20
167 88 20
167 88 20
168 87 20
168 87 20
169 86 20
170 85 20
170 85 20
171 84 20
172 83 20
172 83 20
173 82 20
174 81 20
174 81 20
175 80 20
175 79 20
176 79 20
177 78 20
177 78 20
178 77 20
179 76 20
179 76 20
180 75 20
181 74 20
181 74 20
182 73 20
183 72 20
183 72 20
184 71 20
184 71 20
185 70 20
186 69 20
186 69 20
187 68 20
188 67 20
188 67 20
189 66 20
190 65 20
190 65 20
191 64 20
191 63 20
192 63 20
193 62 20
193 62 20
194 61 20
195 60 20
195 60 20
196 59 20
197 58 20
197 58 20
198 57 20
199 56 20
199 56 20
200 55 20
200 55 20
201 54 20
202 53 20
202 53 20
203 52 20
204 51 20
204 51 20
205 50 20
206 49 20
206 49 20
207 48 20
207 47 20
208 47 20
209 46 20
209 46 20
210 45 20
211 44 20
211 44 20
212 43 20
213 42 20
213 42 20
214 41 20
215 40 20
215 40 20
216 39 20
216 39 20
217 38 20
218 37 20
218 37 20
219 36 20
220 35 20
220 35 20
221 34 20
222 33 20
222 33 20
223 32 20
223 31 20
224 31 20
225 30 20
225 30 20
226 29 20
227 28 20
227 28 20
228 27 20
229 26 20
229 26 20
230 25 20
231 24 20
231 24 20
232 23 20
232 23 20
233 22 20
234 21 20
234 21 20
235 20 20
236 19 20
236 19 20
237 18 20
238 17 20
238 17 20
239 16 20
239 15 20
240 15 20
241 14 20
241 14 20
242 13 20
243 12 20
243 12 20
244 11 20
245 10 20
245 10 20
246 9 20
247 8 20
247 8 20
248 7 20
248 7 20
249 6 20
250 5 20
250 5 20
251 4 20
252 3 20
252 3 20
253 2 20
254 1 20
254 1 20
255 0 20
0 255 21
0 255 21
1 254 21
1 254 21
2 253 21
3 252 21
3 252 21
4 251 21
5 250 21
5 250 21
6 249 21
7 248 21
7 248 21
8 247 21
8 247 21
9 246 21
10 245 21
10 245 21
11 244 21
12 243 21
12 243 21
13 242 21
14 241 21
14 241 21
15 240 21
15 239 21
16 239 21
17 238 21
17 238 21
18 237 21
19 236 21
19 236 21
20 235 21
21 234 21
21 234 21
22 233 21
23 232 21
23 232 21
24 231 21
24 231 21
25 230 21
26 229 21
26 229 21
27 228 21
28 227 21
28 227 21
29 226 21
30 225 21
30 225 21
31 224 21
31 223 21
32 223 21
33 222 21
33 222 21
34 221 21
35 220 21
35 220 21
36 219 21
37 218 21
37 218 21
38 217 21
39 216 21
39 216 21
40 215 21
40 215 21
41 214 21
42 213 21
42 213 21
43 212 21
44 211 21
44 211 21
45 210 21
46 209 21
46 209 21
47 208 21
47 207 21
48 207 21
49 206 21
49 206 21
50 205 21
51 204 21
51 204 21
52 203 21
53 202 21
53 202 21
54 201 21
55 200 21
55 200 21
56 199 21
56 199 21
57 198 21
58 197 21
58 197 21
59 196 21
60 195 21
60 195 21
61 194 21
62 193 21
62 193 21
63 192 21
63 191 21
64 191 21
65 190 21
65 190 21
66 189 21
67 188 21
67 188 21
68 187 21
69 186 21
69 186 21
70 185 21
71 184 21
71 184 21
72 183 21
72 183 21
73 182 21
74 181 21
74 181 21
75 180 21
76 179 21
76 179 21
77 178 21
78 177 21
78 177 21
79 176 21
79 175 21
80 175 21
81 174 21
81 174 21
82 173 21
83 172 21
83 172 21
84 171 21
85 170 21
85 170 21
86 169 21
87 168 21
87 168 21
88 167 21
88 167 21
89 166 21
90 165 21
90 165 21
91 164 21
92 163 21
92 163 21
93 162 21
94 161 21
94 161 21
95 160 21
95 159 21
96 159 21
97 158 21
97 158 21
98 157 21
99 156 21
99 156 21
100 155 21
101 154 21
101 154 21
102 153 21
103 152 21
103 152 21
104 151 21
104 151 21
105 150 21
106 149 21
106 149 21
107 148 21
108 147 21
108 147 21
109 146 21
110 145 21
110 145 21
111 144 21
111 143 21
112 143 21
113 142 21
113 142 21
114 141 21
115 140 21
115 140 21
116 139 21
117 138 21
117 138 21
118 137 21
119 136 21
119 136 21
120 135 21
120 135 21
121 134 21
122 133 21
122 133 21
123 132 21
124 131 21
124 131 21
125 130 21
126 129 21
126 129 21
127 128 21
127 127 21
128 127 21
129 126 21
129 126 21
130 125 21
131 124 21
131 124 21
132 123 21
133 122 21
133 122 21
134 121 21
135 120 21
135 120 21
136 119 21
136 119 21
137 118 21
138 117 21
138 117 21
139 116 21
140 115 21
140 115 21
141 114 21
142 113 21
142 113 21
143 112 21
143 111 21
144 111 21
145 110 21
145 110 21
146 109 21
147 108 21
147 108 21
148 107 21
149 106 21
149 106 21
150 105 21
151 104 21
151 104 21
152 103 21
152 103 21
153 102 21
154 101 21
154 101 21
155 100 21
156 99 21
156 99 21
157 98 21
158 97 21
158 97 21
159 96 21
159 95 21
160 95 21
161 94 21
161 94 21
162 93 21
163 92 21
163 92 21
164 91 21
165 90 21
165 90 21
166 89 21
167 88 21
167 88 21
168 87 21
168 87 21
169 86 21
170 85 21
170 85 21
171 84 21
172 83 21
172 83 21
173 82 21
174 81 21
174 81 21
175 80 21
175 79 21
176 79 21
177 78 21
177 78 21
178 77 21
179 76 21
179 76 21
180 75 21
181 74 21
181 74 21
182 73 21
183 72 21
183 72 21
184 71 21
184 71 21
185 70 21
186 69 21
186 69 21
187 68 21
188 67 21
188 67 21
189 66 21
190 65 21
190 65 21
191 64 21
191 63 21
192 63 21
193 62 21
193 62 21
194 61 21
195 60 21
195 60 21
196 59 21
197 58 21
197 58 21
198 57 21
199 56 21
199 56 21
200 55 21
200 55 21
201 54 21
202 53 21
202 53 21
203 52 21
204 51 21
204 51 21
205 50 21
206 49 21
206 49 21
207 48 21
207 47 21
208 47 21
209 46 21
209 46 21
210 45 21
211 44 21
211 44 21
212 43 21
213 42 21
213 42 21
214 41 21
215 40 21
215 40 21
216 39 21
216 39 21
217 38 21
218 37 21
218 37 21
219 36 21
220 35 21
220 35 21
221 34 21
222 33 21
222 33 21
223 32 21
223 31 21
224 31 21
225 30 21
225 30 21
226 29 21
227 28 21
227 28 21
228 27 21
229 26 21
229 26 21
230 25 21
231 24 21
231 24 21
232 23 21
232 23 21
233 22 21
234 21 21
234 21 21
235 20 21
236 19 21
236 19 21
237 18 21
238 17 21
238 17 21
239 16 21
239 15 21
240 15 21
241 14 21
241 14 21
242 13 21
243 12 21
243 12 21
244 11 21
245 10 21
245 10 21
246 9 21
247 8 21
247 8 21
248 7 21
248 7 21
249 6 21
250 5 21
250 5 21
251 4 21
252 3 21
252 3 21
253 2 21
254 1 21
254 1 21
255 0 21
0 255 22
0 255 22
1 254 22
1 254 22
2 253 22
3 252 22
3 252 22
4 251 22
5 250 22
5 250 22
6 249 22
7 248 22
7 248 22
8 247 22
8 247 22
9 246 22
10 245 22
10 245 22
11 244 22
12 243 22
12 243 22
13 242 22
14 241 22
14 241 22
15 240 22
15 239 22
16 239 22
17 238 22
17 238 22
18 237 22
19 236 22
19 236 22
20 235 22
21 234 22
21 234 22
22 233 22
23 232 22
23 232 22
24 231 22
24 231 22
25 230 22
26 229 22
26 229 22
27 228 22
28 227 22
28 227 22
29 226 22
30 225 22
30 225 22
31 224 22
31 223 22
32 223 22
33 222 22
33 222 22
34 221 22
35 220 22
35 220 22
36 219 22
37 218 22
37 218 22
38 217 22
39 216 22
39 216 22
40 215 22
40 215 22
41 214 22
42 213 22
42 213 22
43 212 22
44 211 22
44 211 22
45 210 22
46 209 22
46 209 22
47 208 22
47 207 22
48 207 22
49 206 22
49 206 22
50 205 22
51 204 22
51 204 22
52 203 22
53 202 22
53 202 22
54 201 22
55 200 22
55 200 22
56 199 22
56 199 22
57 198 22
58 197 22
58 197 22
59 196 22
60 195 22
60 195 22
61 194 22
62 193 22
62 193 22
63 192 22
63 191 22
64 191 22
65 190 22
65 190 22
66 189 22
67 188 22
67 188 22
68 187 22
69 186 22
69 186 22
70 185 22
71 184 22
71 184 22
72 183 22
72 183 22
73 182 22
74 181 22
74 181 22
75 180 22
76 179 22
76 179 22
77 178 22
78 177 22
78 177 22
79 176 22
79 175 22
80 175 22
81 174 22
81 174 22
82 173 22
83 172 22
83 172 22
84 171 22
85 170 22
85 170 22
86 169 22
87 168 22
87 168 22
88 167 22
88 167 22
89 166 22
90 165 22
90 165 22
91 164 22
92 163 22
92 163 22
93 162 22
94 161 22
94 161 22
95 160 22
95 159 22
96 159 22
97 158 22
97 158 22
98 157 22
99 156 22
99 156 22
100 155 22
101 154 22
101 154 22
102 153 22
103 152 22
103 152 22
104 151 22
104 151 22
105 150 22
106 149 22
106 149 22
107 148 22
108 147 22
108 147 22
109 146 22
110 145 22
110 145 22
111 144 22
111 143 22
112 143 22
113 142 22
113 142 22
114 141 22
115 140 22
115 140 22
116 139 22
117 138 22
117 138 22
118 137 22
119 136 22
119 136 22
120 135 22
120 135 22
121 134 22
122 133 22
122 133 22
123 132 22
124 131 22
124 131 22
125 130 22
126 129 22
126 129 22
127 128 22
127 127 22
128 127 22
129 126 22
129 126 22
130 125 22
131 124 22
131 124 22
132 123 22
133 122 22
133 122 22
134 121 22
135 120 22
135 120 22
136 119 22
136 119 22
137 118 22
138 117 22
138 117 22
139 116 22
140 115 22
140 115 22
141 114 22
142 113 22
142 113 22
143 112 22
143 111 22
144 111 22
145 110 22
145 110 22
146 109 22
147 108 22
147 108 22
148 107 22
149 106 22
149 106 22
150 105 22
151 104 22
151 104 22
152 103 22
152 103 22
153 102 22
154 101 22
154 101 22
155 100 22
156 99 22
156 99 22
157 98 22
158 97 22
158 97 22
159 96 22
159 95 22
160 95 22
161 94 22
161 94 22
162 93 22
163 92 22
163 92 22
164 91 22
165 90 22
165 90 22
166 89 22
167 88 22
167 88 22
168 87 22
168 87 22
169 86 22
170 85 22
170 85 22
171 84 22
172 83 22
172 83 22
173 82 22
174 81 22
174 81 22
175 80 22
175 79 22
176 79 22
177 78 22
177 78 22
178 77 22
179 76 22
179 76 22
180 75 22
181 74 22
181 74 22
182 73 22
183 72 22
183 72 22
184 71 22
184 71 22
185 70 22
186 69 22
186 69 22
187 68 22
188 67 22
188 67 22
189 66 22
190 65 22
190 65 22
191 64 22
191 63 22
192 63 22
193 62 22
193 62 22
194 61 22
195 60 22
195 60 22
196 59 22
197 58 22
197 58 22
198 57 22
199 56 22
199 56 22
200 55 22
200 55 22
201 54 22
202 53 22
202 53 22
203 52 22
204 51 22
204 51 22
205 50 22
206 49 22
206 49 22
207 48 22
207 47 22
208 47 22
209 46 22
209 46 22
210 45 22
211 44 22
211 44 22
212 43 22
213 42 22
213 42 22
214 41 22
215 40 22
215 40 22
216 39 22
216 39 22
217 38 22
218 37 22
218 37 22
219 36 22
220 35 22
220 35 22
221 34 22
222 33 22
222 33 22
223 32 22
223 31 22
224 31 22
225 30 22
225 30 22
226 29 22
227 28 22
227 28 22
228 27 22
229 26 22
229 26 22
230 25 22
231 24 22
231 24 22
232 23 22
232 23 22
233 22 22
234 21 22
234 21 22
235 20 22
236 19 22
236 19 22
237 18 22
238 17 22
238 17 22
239 16 22
239 15 22
240 15 22
241 14 22
241 14 22
242 13 22
243 12 22
243 12 22
244 11 22
245 10 22
245 10 22
246 9 22
247 8 22
247 8 22
248 7 22
248 7 22
249 6 22
250 5 22
250 5 22
251 4 22
252 3 22
252 3 22
253 2 22
254 1 22
254 1 22
255 0 22
0 255 23
0 255 23
1 254 23
1 254 23
2 253 23
3 252 23
3 252 23
4 251 23
5 250 23
5 250 23
6 249 23
7 248 23
7 248 23
8 247 23
8 247 23
9 246 23
10 245 23
10 245 23
11 244 23
12 243 23
12 243 23
13 242 23
14 241 23
14 241 23
15 240 23
15 239 23
16 239 23
17 238 23
17 238 23
18 237 23
19 236 23
19 236 23
20 235 23
21 234 23
21 234 23
22 233 23
23 232 23
23 232 23
24 231 23
24 231 23
25 230 23
26 229 23
26 229 23
27 228 23
28 227 23
28 227 23
29 226 23
30 225 23
30 225 23
31 224 23
31 223 23
32 223 23
33 222 23
33 222 23
34 221 23
35 220 23
35 220 23
36 219 23
37 218 23
37 218 23
38 217 23
39 216 23
39 216 23
40 215 23
40 215 23
41 214 23
42 213 23
42 213 23
43 212 23
44 211 23
44 211 23
45 210 23
46 209 23
46 209 23
47 208 23
47 207 23
48 207 23
49 206 23
49 206 23
50 205 23
51 204 23
51 204 23
52 203 23
53 202 23
53 202 23
54 201 23
55 200 23
55 200 23
56 199 23
56 199 23
57 198 23
58 197 23
58 197 23
59 196 23
60 195 23
60 195 23
61 194 23
62 193 23
62 193 23
63 192 23
63 191 23
64 191 23
65 190 23
65 190 23
66 189 23
67 188 23
67 188 23
68 187 23
69 186 23
69 186 23
70 185 23
71 184 23
71 184 23
72 183 23
72 183 23
73 182 23
74 181 23
74 181 23
75 180 23
76 179 23
76 179 23
77 178 23
78 177 23
78 177 23
79 176 23
79 175 23
80 175 23
81 174 23
81 174 23
82 173 23
83 172 23
83 172 23
84 171 23
85 170 23
85 170 23
86 169 23
87 168 23
87 168 23
88 167 23
88 167 23
89 166 23
90 165 23
90 165 23
91 164 23
92 163 23
92 163 23
93 162 23
94 161 23
94 161 23
95 160 23
95 159 23
96 159 23
97 158 23
97 158 23
98 157 23
99 156 23
99 156 23
100 155 23
101 154 23
101 154 23
102 153 23
103 152 23
103 152 23
104 151 23
104 151 23
105 150 23
106 149 23
106 149 23
107 148 23
108 147 23
108 147 23
109 146 23
110 145 23
110 145 23
111 144 23
111 143 23
112 143 23
113 142 23
113 142 23
114 141 23
115 140 23
115 140 23
116 139 23
117 138 23
117 138 23
118 137 23
119 136 23
119 136 23
120 135 23
120 135 23
121 134 23
122 133 23
122 133 23
123 132 23
124 131 23
124 131 23
125 130 23
126 129 23
126 129 23
127 128 23
127 127 23
128 127 23
129 126 23
129 126 23
130 125 23
131 124 23
131 124 23
132 123 23
133 122 23
133 122 23
134 121 23
135 120 23
135 120 23
136 119 23
136 119 23
137 118 23
138 117 23
138 117 23
139 116 23
140 115 23
140 115 23
141 114 23
142 113 23
142 113 23
143 112 23
143 111 23
144 111 23
145 110 23
145 110 23
146 109 23
147 108 23
147 108 23
148 107 23
149 106 23
149 106 23
150 105 23
151 104 23
151 104 23
152 103 23
152 103 23
153 102 23
154 101 23
154 101 23
155 100 23
156 99 23
156 99 23
157 98 23
158 97 23
158 97 23
159 96 23
159 95 23
160 95 23
161 94 23
161 94 23
162 93 23
163 92 23
163 92 23
164 91 23
165 90 23
165 90 23
166 89 23
167 88 23
167 88 23
168 87 23
168 87 23
169 86 23
170 85 23
170 85 23
171 84 23
172 83 23
172 83 23
173 82 23
174 81 23
174 81 23
175 80 23
175 79 23
176 79 23
177 78 23
177 78 23
178 77 23
179 76 23
179 76 23
180 75 23
181 74 23
181 74 23
182 73 23
183 72 23
183 72 23
184 71 23
184 71 23
185 70 23
186 69 23
186 69 23
187 68 23
188 67 23
188 67 23
189 66 23
190 65 23
190 65 23
191 64 23
191 63 23
192 63 23
193 62 23
193 62 23
194 61 23
195 60 23
195 60 23
196 59 23
197 58 23
197 58 23
198 57 23
199 56 23
199 56 23
200 55 23
200 55 23
201 54 23
202 53 23
202 53 23
203 52 23
204 51 23
204 51 23
205 50 23
206 49 23
206 49 23
207 48 23
207 47 23
208 47 23
209 46 23
209 46 23
210 45 23
211 44 23
211 44 23
212 43 23
213 42 23
213 42 23
214 41 23
215 40 23
215 40 23
216 39 23
216 39 23
217 38 23
218 37 23
218 37 23
219 36 23
220 35 23
220 35 23
221 34 23
222 33 23
222 33 23
223 32 23
223 31 23
224 31 23
225 30 23
225 30 23
226 29 23
227 28 23
227 28 23
228 27 23
229 26 23
229 26 23
230 25 23
231 24 23
231 24 23
232 23 23
232 23 23
233 22 23
234 21 23
234 21 23
235 20 23
236 19 23
236 19 23
237 18 23
238 17 23
238 17 23
239 16 23
239 15 23
240 15 23
241 14 23
241 14 23
242 13 23
243 12 23
243 12 23
244 11 23
245 10 23
245 10 23
246 9 23
247 8 23
247 8 23
248 7 23
248 7 23
249 6 23
250 5 23
250 5 23
251 4 23
252 3 23
252 3 23
253 2 23
254 1 23
254 1 23
255 0 23
0 255 25
0 255 25
1 254 25
1 254 25
2 253 25
3 252 25
3 252 25
4 251 25
5 250 25
5 250 25
6 249 25
7 248 25
7 248 25
8 247 25
8 247 25
9 246 25
10 245 25
10 245 25
11 244 25
12 243 25
12 243 25
13 242 25
14 241 25
14 241 25
15 240 25
15 239 25
16 239 25
17 238 25
17 238 25
18 237 25
19 236 25
19 236 25
20 235 25
21 234 25
21 234 25
22 233 25
23 232 25
23 232 25
24 231 25
24 231 25
25 230 25
26 229 25
26 229 25
27 228 25
28 227 25
28 227 25
29 226 25
30 225 25
30 225 25
31 224 25
31 223 25
32 223 25
33 222 25
33 222 25
34 221 25
35 220 25
35 220 25
36 219 25
37 218 25
37 218 25
38 217 25
39 216 25
39 216 25
40 215 25
40 215 25
41 214 25
42 213 25
42 213 25
43 212 25
44 211 25
44 211 25
45 210 25
46 209 25
46 209 25
47 208 25
47 207 25
48 207 25
49 206 25
49 206 25
50 205 25
51 204 25
51 204 25
52 203 25
53 202 25
53 202 25
54 201 25
55 200 25
55 200 25
56 199 25
56 199 25
57 198 25
58 197 25
58 197 25
59 196 25
60 195 25
60 195 25
61 194 25
62 193 25
62 193 25
63 192 25
63 191 25
64 191 25
65 190 25
65 190 25
66 189 25
67 188 25
67 188 25
68 187 25
69 186 25
69 186 25
70 185 25
71 184 25
71 184 25
72 183 25
72 183 25
73 182 25
74 181 25
74 181 25
75 180 25
76 179 25
76 179 25
77 178 25
78 177 25
78 177 25
79 176 25
79 175 25
80 175 25
81 174 25
81 174 25
82 173 25
83 172 25
83 172 25
84 171 25
85 170 25
85 170 25
86 169 25
87 168 25
87 168 25
88 167 25
88 167 25
89 166 25
90 165 25
90 165 25
91 164 25
92 163 25
92 163 25
93 162 25
94 161 25
94 161 25
95 160 25
95 159 25
96 159 25
97 158 25
97 158 25
98 157 25
99 156 25
99 156 25
100 155 25
101 154 25
101 154 25
102 153 25
103 152 25
103 152 25
104 151 25
104 151 25
105 150 25
106 149 25
106 149 25
107 148 25
108 147 25
108 147 25
109 146 25
110 145 25
110 145 25
111 144 25
111 143 25
112 143 25
113 142 25
113 142 25
114 141 25
115 140 25
115 140 25
116 139 25
117 138 25
117 138 25
118 137 25
119 136 25
119 136 25
120 135 25
120 135 25
121 134 25
122 133 25
122 133 25
123 132 25
124 131 25
124 131 25
125 130 25
126 129 25
126 129 25
127 128 25
127 127 25
128 127 25
129 126 25
129 126 25
130 125 25
131 124 25
131 124 25
132 123 25
133 122 25
133 122 25
134 121 25
135 120 25
135 120 25
136 119 25
136 119 25
137 118 25
138 117 25
138 117 25
139 116 25
140 115 25
140 115 25
141 114 25
142 113 25
142 113 25
143 112 25
143 111 25
144 111 25
145 110 25
145 110 25
146 109 25
147 108 25
147 108 25
148 107 25
149 106 25
149 106 25
150 105 25
151 104 25
151 104 25
152 103 25
152 103 25
153 102 25
154 101 25
154 101 25
155 100 25
156 99 25
156 99 25
157 98 25
158 97 25
158 97 25
159 96 25
159 95 25
160 95 25
161 94 25
161 94 25
162 93 25
163 92 25
163 92 25
164 91 25
165 90 25
165 90 25
166 89 25
167 88 25
167 88 25
168 87 25
168 87 25
169 86 25
170 85 25
170 85 25
171 84 25
172 83 25
172 83 25
173 82 25
174 81 25
174 81 25
175 80 25
175 79 25
176 79 25
177 78 25
177 78 25
178 77 25
179 76 25
179 76 25
180 75 25
181 74 25
181 74 25
182 73 25
183 72 25
183 72 25
184 71 25
184 71 25
185 70 25
186 69 25
186 69 25
187 68 25
188 67 25
188 67 25
189 66 25
190 65 25
190 65 25
191 64 25
191 63 25
192 63 25
193 62 25
193 62 25
194 61 25
195 60 25
195 60 25
196 59 25
197 58 25
197 58 25
198 57 25
199 56 25
199 56 25
200 55 25
200 55 25
201 54 25
202 53 25
202 53 25
203 52 25
204 51 25
204 51 25
205 50 25
206 49 25
206 49 25
207 48 25
207 47 25
208 47 25
209 46 25
209 46 25
210 45 25
211 44 25
211 44 25
212 43 25
213 42 25
213 42 25
214 41 25
215 40 25
215 40 25
216 39 25
216 39 25
217 38 25
218 37 25
218 37 25
219 36 25
220 35 25
220 35 25
221 34 25
222 33 25
222 33 25
223 32 25
223 31 25
224 31 25
225 30 25
225 30 25
226 29 25
227 28 25
227 28 25
228 27 25
229 26 25
229 26 25
230 25 25
231 24 25
231 24 25
232 23 25
232 23 25
233 22 25
234 21 25
234 21 25
235 20 25
236 19 25
236 19 25
237 18 25
238 17 25
238 17 25
239 16 25
239 15 25
240 15 25
241 14 25
241 14 25
242 13 25
243 12 25
243 12 25
244 11 25
245 10 25
245 10 25
246 9 25
247 8 25
247 8 25
248 7 25
248 7 25
249 6 25
250 5 25
250 5 25
251 4 25
252 3 25
252 3 25
253 2 25
254 1 25
254 1 25
255 0 25
0 255 26
0 255 26
1 254 26
1 254 26
2 253 26
3 252 26
3 252 26
4 251 26
5 250 26
5 250 26
6 249 26
7 248 26
7 248 26
8 247 26
8 247 26
9 246 26
10 245 26
10 245 26
11 244 26
12 243 26
12 243 26
13 242 26
14 241 26
14 241 26
15 240 26
15 239 26
16 239 26
17 238 26
17 238 26
18 237 26
19 236 26
19 236 26
20 235 26
21 234 26
21 234 26
22 233 26
23 232 26
23 232 26
24 231 26
24 231 26
25 230 26
26 229 26
26 229 26
27 228 26
28 227 26
28 227 26
29 226 26
30 225 26
30 225 26
31 224 26
31 223 26
32 223 26
33 222 26
33 222 26
34 221 26
35 220 26
35 220 26
36 219 26
37 218 26
37 218 26
38 217 26
39 216 26
39 216 26
40 215 26
40 215 26
41 214 26
42 213 26
42 213 26
43 212 26
44 211 26
44 211 26
45 210 26
46 209 26
46 209 26
47 208 26
47 207 26
48 207 26
49 206 26
49 206 26
50 205 26
51 204 26
51 204 26
52 203 26
53 202 26
53 202 26
54 201 26
55 200 26
55 200 26
56 199 26
56 199 26
57 198 26
58 197 26
58 197 26
59 196 26
60 195 26
60 195 26
61 194 26
62 193 26
62 193 26
63 192 26
63 191 26
64 191 26
65 190 26
65 190 26
66 189 26
67 188 26
67 188 26
68 187 26
69 186 26
69 186 26
70 185 26
71 184 26
71 184 26
72 183 26
72 183 26
73 182 26
74 181 26
74 181 26
75 180 26
76 179 26
76 179 26
77 178 26
78 177 26
78 177 26
79 176 26
79 175 26
80 175 26
81 174 26
81 174 26
82 173 26
83 172 26
83 172 26
84 171 26
85 170 26
85 170 26
86 169 26
87 168 26
87 168 26
88 167 26
88 167 26
89 166 26
90 165 26
90 165 26
91 164 26
92 163 26
92 163 26
93 162 26
94 161 26
94 161 26
95 160 26
95 159 26
96 159 26
97 158 26
97 158 26
98 157 26
99 156 26
99 156 26
100 155 26
101 154 26
101 154 26
102 153 26
103 152 26
103 152 26
104 151 26
104 151 26
105 150 26
106 149 26
106 149 26
107 148 26
108 147 26
108 147 26
109 146 26
110 145 26
110 145 26
111 144 26
111 143 26
112 143 26
113 142 26
113 142 26
114 141 26
115 140 26
115 140 26
116 139 26
117 138 26
117 138 26
118 137 26
119 136 26
119 136 26
120 135 26
120 135 26
121 134 26
122 133 26
122 133 26
123 132 26
124 131 26
124 131 26
125 130 26
126 129 26
126 129 26
127 128 26
127 127 26
128 127 26
129 126 26
129 126 26
130 125 26
131 124 26
131 124 26
132 123 26
133 122 26
133 122 26
134 121 26
135 120 26
135 120 26
136 119 26
136 119 26
137 118 26
138 117 26
138 117 26
139 116 26
140 115 26
140 115 26
141 114 26
142 113 26
142 113 26
143 112 26
143 111 26
144 111 26
145 110 26
145 110 26
146 109 26
147 108 26
147 108 26
148 107 26
149 106 26
149 106 26
150 105 26
151 104 26
151 104 26
152 103 26
152 103 26
153 102 26
154 101 26
154 101 26
155 100 26
156 99 26
156 99 26
157 98 26
158 97 26
158 97 26
159 96 26
159 95 26
160 95 26
161 94 26
161 94 26
162 93 26
163 92 26
163 92 26
164 91 26
165 90 26
165 90 26
166 89 26
167 88 26
167 88 26
168 87 26
168 87 26
169 86 26
170 85 26
170 85 26
171 84 26
172 83 26
172 83 26
173 82 26
174 81 26
174 81 26
175 80 26
175 79 26
176 79 26
177 78 26
177 78 26
178 77 26
179 76 26
179 76 26
180 75 26
181 74 26
181 74 26
182 73 26
183 72 26
183 72 26
184 71 26
184 71 26
185 70 26
186 69 26
186 69 26
187 68 26
188 67 26
188 67 26
189 66 26
190 65 26
190 65 26
191 64 26
191 63 26
192 63 26
193 62 26
193 62 26
194 61 26
195 60 26
195 60 26
196 59 26
197 58 26
197 58 26
198 57 26
199 56 26
199 56 26
200 55 26
200 55 26
201 54 26
202 53 26
202 53 26
203 52 26
204 51 26
204 51 26
205 50 26
206 49 26
206 49 26
207 48 26
207 47 26
208 47 26
209 46 26
209 46 26
210 45 26
211 44 26
211 44 26
212 43 26
213 42 26
213 42 26
214 41 26
215 40 26
215 40 26
216 39 26
216 39 26
217 38 26
218 37 26
218 37 26
219 36 26
220 35 26
220 35 26
221 34 26
222 33 26
222 33 26
223 32 26
223 31 26
224 31 26
225 30 26
225 30 26
226 29 26
227 28 26
227 28 26
228 27 26
229 26 26
229 26 26
230 25 26
231 24 26
231 24 26
232 23 26
232 23 26
233 22 26
234 21 26
234 21 26
235 20 26
236 19 26
236 19 26
237 18 26
238 17 26
238 17 26
239 16 26
239 15 26
240 15 26
241 14 26
241 14 26
242 13 26
243 12 26
243 12 26
244 11 26
245 10 26
245 10 26
246 9 26
247 8 26
247 8 26
248 7 26
248 7 26
249 6 26
250 5 26
250 5 26
251 4 26
252 3 26
252 3 26
253 2 26
254 1 26
254 1 26
255 0 26
0 255 27
0 255 27
1 254 27
1 254 27
2 253 27
3 252 27
3 252 27
4 251 27
5 250 27
5 250 27
6 249 27
7 248 27
7 248 27
8 247 27
8 247 27
9 246 27
10 245 27
10 245 27
11 244 27
12 243 27
12 243 27
13 242 27
14 241 27
14 241 27
15 240 27
15 239 27
16 239 27
17 238 27
17 238 27
18 237 27
19 236 27
19 236 27
20 235 27
21 234 27
21 234 27
22 233 27
23 232 27
23 232 27
24 231 27
24 231 27
25 230 27
26 229 27
26 229 27
27 228 27
28 227 27
28 227 27
29 226 27
30 225 27
30 225 27
31 224 27
31 223 27
32 223 27
33 222 27
33 222 27
34 221 27
35 220 27
35 220 27
36 219 27
37 218 27
37 218 27
38 217 27
39 216 27
39 216 27
40 215 27
40 215 27
41 214 27
42 213 27
42 213 27
43 212 27
44 211 27
44 211 27
45 210 27
46 209 27
46 209 27
47 208 27
47 207 27
48 207 27
49 206 27
49 206 27
50 205 27
51 204 27
51 204 27
52 203 27
53 202 27
53 202 27
54 201 27
55 200 27
55 200 27
56 199 27
56 199 27
57 198 27
58 197 27
58 197 27
59 196 27
60 195 27
60 195 27
61 194 27
62 193 27
62 193 27
63 192 27
63 191 27
64 191 27
65 190 27
65 190 27
66 189 27
67 188 27
67 188 27
68 187 27
69 186 27
69 186 27
70 185 27
71 184 27
71 184 27
72 183 27
72 183 27
73 182 27
74 181 27
74 181 27
75 180 27
76 179 27
76 179 27
77 178 27
78 177 27
78 177 27
79 176 27
79 175 27
80 175 27
81 174 27
81 174 27
82 173 27
83 172 27
83 172 27
84 171 27
85 170 27
85 170 27
86 169 27
87 168 27
87 168 27
88 167 27
88 167 27
89 166 27
90 165 27
90 165 27
91 164 27
92 163 27
92 163 27
93 162 27
94 161 27
94 161 27
95 160 27
95 159 27
96 159 27
97 158 27
97 158 27
98 157 27
99 156 27
99 156 27
100 155 27
101 154 27
101 154 27
102 153 27
103 152 27
103 152 27
104 151 27
104 151 27
105 150 27
106 149 27
106 149 27
107 148 27
108 147 27
108 147 27
109 146 27
110 145 27
110 145 27
111 144 27
111 143 27
112 143 27
113 142 27
113 142 27
114 141 27
115 140 27
115 140 27
116 139 27
117 138 27
117 138 27
118 137 27
119 136 27
119 136 27
120 135 27
120 135 27
121 134 27
122 133 27
122 133 27
123 132 27
124 131 27
124 131 27
125 130 27
126 129 27
126 129 27
127 128 27
127 127 27
128 127 27
129 126 27
129 126 27
130 125 27
131 124 27
131 124 27
132 123 27
133 122 27
133 122 27
134 121 27
135 120 27
135 120 27
136 119 27
136 119 27
137 118 27
138 117 27
138 117 27
139 116 27
140 115 27
140 115 27
141 114 27
142 113 27
142 113 27
143 112 27
143 111 27
144 111 27
145 110 27
145 110 27
146 109 27
147 108 27
147 108 27
148 107 27
149 106 27
149 106 27
150 105 27
151 104 27
151 104 27
152 103 27
152 103 27
153 102 27
154 101 27
154 101 27
155 100 27
156 99 27
156 99 27
157 98 27
158 97 27
158 97 27
159 96 27
159 95 27
160 95 27
161 94 27
161 94 27
162 93 27
163 92 27
163 92 27
164 91 27
165 90 27
165 90 27
166 89 27
167 88 27
167 88 27
168 87 27
168 87 27
169 86 27
170 85 27
170 85 27
171 84 27
172 83 27
172 83 27
173 82 27
174 81 27
174 81 27
175 80 27
175 79 27
176 79 27
177 78 27
177 78 27
178 77 27
179 76 27
179 76 27
180 75 27
181 74 27
181 74 27
182 73 27
183 72 27
183 72 27
184 71 27
184 71 27
185 70 27
186 69 27
186 69 27
187 68 27
188 67 27
188 67 27
189 66 27
190 65 27
190 65 27
191 64 27
191 63 27
192 63 27
193 62 27
193 62 27
194 61 27
195 60 27
195 60 27
196 59 27
197 58 27
197 58 27
198 57 27
199 56 27
199 56 27
200 55 27
200 55 27
201 54 27
202 53 27
202 53 27
203 52 27
204 51 27
204 51 27
205 50 27
206 49 27
206 49 27
207 48 27
207 47 27
208 47 27
209 46 27
209 46 27
210 45 27
211 44 27
211 44 27
212 43 27
213 42 27
213 42 27
214 41 27
215 40 27
215 40 27
216 39 27
216 39 27
217 38 27
218 37 27
218 37 27
219 36 27
220 35 27
220 35 27
221 34 27
222 33 27
222 33 27
223 32 27
223 31 27
224 31 27
225 30 27
225 30 27
226 29 27
227 28 27
227 28 27
228 27 27
229 26 27
229 26 27
230 25 27
231 24 27
231 24 27
232 23 27
232 23 27
233 22 27
234 21 27
234 21 27
235 20 27
236 19 27
236 19 27
237 18 27
238 17 27
238 17 27
239 16 27
239 15 27
240 15 27
241 14 27
241 14 27
242 13 27
243 12 27
243 12 27
244 11 27
245 10 27
245 10 27
246 9 27
247 8 27
247 8 27
248 7 27
248 7 27
249 6 27
250 5 27
250 5 27
251 4 27
252 3 27
252 3 27
253 2 27
254 1 27
254 1 27
255 0 27
0 255 28
0 255 28
1 254 28
1 254 28
2 253 28
3 252 28
3 252 28
4 251 28
5 250 28
5 250 28
6 249 28
7 248 28
7 248 28
8 247 28
8 247 28
9 246 28
10 245 28
10 245 28
11 244 28
12 243 28
12 243 28
13 242 28
14 241 28
14 241 28
15 240 28
15 239 28
16 239 28
17 238 28
17 238 28
18 237 28
19 236 28
19 236 28
20 235 28
21 234 28
21 234 28
22 233 28
23 232 28
23 232 28
24 231 28
24 231 28
25 230 28
26 229 28
26 229 28
27 228 28
28 227 28
28 227 28
29 226 28
30 225 28
30 225 28
31 224 28
31 223 28
32 223 28
33 222 28
33 222 28
34 221 28
35 220 28
35 220 28
36 219 28
37 218 28
37 218 28
38 217 28
39 216 28
39 216 28
40 215 28
40 215 28
41 214 28
42 213 28
42 213 28
43 212 28
44 211 28
44 211 28
45 210 28
46 209 28
46 209 28
47 208 28
47 207 28
48 207 28
49 206 28
49 206 28
50 205 28
51 204 28
51 204 28
52 203 28
53 202 28
53 202 28
54 201 28
55 200 28
55 200 28
56 199 28
56 199 28
57 198 28
58 197 28
58 197 28
59 196 28
60 195 28
60 195 28
61 194 28
62 193 28
62 193 28
63 192 28
63 191 28
64 191 28
65 190 28
65 190 28
66 189 28
67 188 28
67 188 28
68 187 28
69 186 28
69 186 28
70 185 28
71 184 28
71 184 28
72 183 28
72 183 28
73 182 28
74 181 28
74 181 28
75 180 28
76 179 28
76 179 28
77 178 28
78 177 28
78 177 28
79 176 28
79 175 28
80 175 28
81 174 28
81 174 28
82 173 28
83 172 28
83 172 28
84 171 28
85 170 28
85 170 28
86 169 28
87 168 28
87 168 28
88 167 28
88 167 28
89 166 28
90 165 28
90 165 28
91 164 28
92 163 28
92 163 28
93 162 28
94 161 28
94 161 28
95 160 28
95 159 28
96 159 28
97 158 28
97 158 28
98 157 28
99 156 28
99 156 28
100 155 28
101 154 28
101 154 28
102 153 28
103 152 28
103 152 28
104 151 28
104 151 28
105 150 28
106 149 28
106 149 28
107 148 28
108 147 28
108 147 28
109 146 28
110 145 28
110 145 28
111 144 28
111 143 28
112 143 28
113 142 28
113 142 28
114 141 28
115 140 28
115 140 28
116 139 28
117 138 28
117 138 28
118 137 28
119 136 28
119 136 28
120 135 28
120 135 28
121 134 28
122 133 28
122 133 28
123 132 28
124 131 28
124 131 28
125 130 28
126 129 28
126 129 28
127 128 28
127 127 28
128 127 28
129 126 28
129 126 28
130 125 28
131 124 28
131 124 28
132 123 28
133 122 28
133 122 28
134 121 28
135 120 28
135 120 28
136 119 28
136 119 28
137 118 28
138 117 28
138 117 28
139 116 28
140 115 28
140 115 28
141 114 28
142 113 28
142 113 28
143 112 28
143 111 28
144 111 28
145 110 28
145 110 28
146 109 28
147 108 28
147 108 28
148 107 28
149 106 28
149 106 28
150 105 28
151 104 28
151 104 28
152 103 28
152 103 28
153 102 28
154 101 28
154 101 28
155 100 28
156 99 28
156 99 28
157 98 28
158 97 28
158 97 28
159 96 28
159 95 28
160 95 28
161 94 28
161 94 28
162 93 28
163 92 28
163 92 28
164 91 28
165 90 28
165 90 28
166 89 28
167 88 28
167 88 28
168 87 28
168 87 28
169 86 28
170 85 28
170 85 28
171 84 28
172 83 28
172 83 28
173 82 28
174 81 28
174 81 28
175 80 28
175 79 28
176 79 28
177 78 28
177 78 28
178 77 28
179 76 28
179 76 28
180 75 28
181 74 28
181 74 28
182 73 28
183 72 28
183 72 28
184 71 28
184 71 28
185 70 28
186 69 28
186 69 28
187 68 28
188 67 28
188 67 28
189 66 28
190 65 28
190 65 28
191 64 28
191 63 28
192 63 28
193 62 28
193 62 28
194 61 28
195 60 28
195 60 28
196 59 28
197 58 28
197 58 28
198 57 28
199 56 28
199 56 28
200 55 28
200 55 28
201 54 28
202 53 28
202 53 28
203 52 28
204 51 28
204 51 28
205 50 28
206 49 28
206 49 28
207 48 28
207 47 28
208 47 28
209 46 28
209 46 28
210 45 28
211 44 28
211 44 28
212 43 28
213 42 28
213 42 28
214 41 28
215 40 28
215 40 28
216 39 28
216 39 28
217 38 28
218 37 28
218 37 28
219 36 28
220 35 28
220 35 28
221 34 28
222 33 28
222 33 28
223 32 28
223 31 28
224 31 28
225 30 28
225 30 28
226 29 28
227 28 28
227 28 28
228 27 28
229 26 28
229 26 28
230 25 28
231 24 28
231 24 28
232 23 28
232 23 28
233 22 28
234 21 28
234 21 28
235 20 28
236 19 28
236 19 28
237 18 28
238 17 28
238 17 28
239 16 28
239 15 28
240 15 28
241 14 28
241 14 28
242 13 28
243 12 28
243 12 28
244 11 28
245 10 28
245 10 28
246 9 28
247 8 28
247 8 28
248 7 28
248 7 28
249 6 28
250 5 28
250 5 28
251 4 28
252 3 28
252 3 28
253 2 28
254 1 28
254 1 28
255 0 28
0 255 29
0 255 29
1 254 29
1 254 29
2 253 29
3 252 29
3 252 29
4 251 29
5 250 29
5 250 29
6 249 29
7 248 29
7 248 29
8 247 29
8 247 29
9 246 29
10 245 29
10 245 29
11 244 29
12 243 29
12 243 29
13 242 29
14 241 29
14 241 29
15 240 29
15 239 29
16 239 29
17 238 29
17 238 29
18 237 29
19 236 29
19 236 29
20 235 29
21 234 29
21 234 29
22 233 29
23 232 29
23 232 29
24 231 29
24 231 29
25 230 29
26 229 29
26 229 29
27 228 29
28 227 29
28 227 29
29 226 29
30 225 29
30 225 29
31 224 29
31 223 29
32 223 29
33 222 29
33 222 29
34 221 29
35 220 29
35 220 29
36 219 29
37 218 29
37 218 29
38 217 29
39 216 29
39 216 29
40 215 29
40 215 29
41 214 29
42 213 29
42 213 29
43 212 29
44 211 29
44 211 29
45 210 29
46 209 29
46 209 29
47 208 29
47 207 29
48 207 29
49 206 29
49 206 29
50 205 29
51 204 29
51 204 29
52 203 29
53 202 29
53 202 29
54 201 29
55 200 29
55 200 29
56 199 29
56 199 29
57 198 29
58 197 29
58 197 29
59 196 29
60 195 29
60 195 29
61 194 29
62 193 29
62 193 29
63 192 29
63 191 29
64 191 29
65 190 29
65 190 29
66 189 29
67 188 29
67 188 29
68 187 29
69 186 29
69 186 29
70 185 29
71 184 29
71 184 29
72 183 29
72 183 29
73 182 29
74 181 29
74 181 29
75 180 29
76 179 29
76 179 29
77 178 29
78 177 29
78 177 29
79 176 29
79 175 29
80 175 29
81 174 29
81 174 29
82 173 29
83 172 29
83 172 29
84 171 29
85 170 29
85 170 29
86 169 29
87 168 29
87 168 29
88 167 29
88 167 29
89 166 29
90 165 29
90 165 29
91 164 29
92 163 29
92 163 29
93 162 29
94 161 29
94 161 29
95 160 29
95 159 29
96 159 29
97 158 29
97 158 29
98 157 29
99 156 29
99 156 29
100 155 29
101 154 29
101 154 29
102 153 29
103 152 29
103 152 29
104 151 29
104 151 29
105 150 29
106 149 29
106 149 29
107 148 29
108 147 29
108 147 29
109 146 29
110 145 29
110 145 29
111 144 29
111 143 29
112 143 29
113 142 29
113 142 29
114 141 29
115 140 29
115 140 29
116 139 29
117 138 29
117 138 29
118 137 29
119 136 29
119 136 29
120 135 29
120 135 29
121 134 29
122 133 29
122 133 29
123 132 29
124 131 29
124 131 29
125 130 29
126 129 29
126 129 29
127 128 29
127 127 29
128 127 29
129 126 29
129 126 29
130 125 29
131 124 29
131 124 29
132 123 29
133 122 29
133 122 29
134 121 29
135 120 29
135 120 29
136 119 29
136 119 29
137 118 29
138 117 29
138 117 29
139 116 29
140 115 29
140 115 29
141 114 29
142 113 29
142 113 29
143 112 29
143 111 29
144 111 29
145 110 29
145 110 29
146 109 29
147 108 29
147 108 29
148 107 29
149 106 29
149 106 29
150 105 29
151 104 29
151 104 29
152 103 29
152 103 29
153 102 29
154 101 29
154 101 29
155 100 29
156 99 29
156 99 29
157 98 29
158 97 29
158 97 29
159 96 29
159 95 29
160 95 29
161 94 29
161 94 29
162 93 29
163 92 29
163 92 29
164 91 29
165 90 29
165 90 29
166 89 29
167 88 29
167 88 29
168 87 29
168 87 29
169 86 29
170 85 29
170 85 29
171 84 29
172 83 29
172 83 29
173 82 29
174 81 29
174 81 29
175 80 29
175 79 29
176 79 29
177 78 29
177 78 29
178 77 29
179 76 29
179 76 29
180 75 29
181 74 29
181 74 29
182 73 29
183 72 29
183 72 29
184 71 29
184 71 29
185 70 29
186 69 29
186 69 29
187 68 29
188 67 29
188 67 29
189 66 29
190 65 29
190 65 29
191 64 29
191 63 29
192 63 29
193 62 29
193 62 29
194 61 29
195 60 29
195 60 29
196 59 29
197 58 29
197 58 29
198 57 29
199 56 29
199 56 29
200 55 29
200 55 29
201 54 29
202 53 29
202 53 29
203 52 29
204 51 29
204 51 29
205 50 29
206 49 29
206 49 29
207 48 29
207 47 29
208 47 29
209 46 29
209 46 29
210 45 29
211 44 29
211 44 29
212 43 29
213 42 29
213 42 29
214 41 29
215 40 29
215 40 29
216 39 29
216 39 29
217 38 29
218 37 29
218 37 29
219 36 29
220 35 29
220 35 29
221 34 29
222 33 29
222 33 29
223 32 29
223 31 29
224 31 29
225 30 29
225 30 29
226 29 29
227 28 29
227 28 29
228 27 29
229 26 29
229 26 29
230 25 29
231 24 29
231 24 29
232 23 29
232 23 29
233 22 29
234 21 29
234 21 29
235 20 29
236 19 29
236 19 29
237 18 29
238 17 29
238 17 29
239 16 29
239 15 29
240 15 29
241 14 29
241 14 29
242 13 29
243 12 29
243 12 29
244 11 29
245 10 29
245 10 29
246 9 29
247 8 29
247 8 29
248 7 29
248 7 29
249 6 29
250 5 29
250 5 29
251 4 29
252 3 29
252 3 29
253 2 29
254 1 29
254 1 29
255 0 29
0 255 30
0 255 30
1 254 30
1 254 30
2 253 30
3 252 30
3 252 30
4 251 30
5 250 30
5 250 30
6 249 30
7 248 30
7 248 30
8 247 30
8 247 30
9 246 30
10 245 30
10 245 30
11 244 30
12 243 30
12 243 30
13 242 30
14 241 30
14 241 30
15 240 30
15 239 30
16 239 30
17 238 30
17 238 30
18 237 30
19 236 30
19 236 30
20 235 30
21 234 30
21 234 30
22 233 30
23 232 30
23 232 30
24 231 30
24 231 30
25 230 30
26 229 30
26 229 30
27 228 30
28 227 30
28 227 30
29 226 30
30 225 30
30 225 30
31 224 30
31 223 30
32 223 30
33 222 30
33 222 30
34 221 30
35 220 30
35 220 30
36 219 30
37 218 30
37 218 30
38 217 30
39 216 30
39 216 30
40 215 30
40 215 30
41 214 30
42 213 30
42 213 30
43 212 30
44 211 30
44 211 30
45 210 30
46 209 30
46 209 30
47 208 30
47 207 30
48 207 30
49 206 30
49 206 30
50 205 30
51 204 30
51 204 30
52 203 30
53 202 30
53 202 30
54 201 30
55 200 30
55 200 30
56 199 30
56 199 30
57 198 30
58 197 30
58 197 30
59 196 30
60 195 30
60 195 30
61 194 30
62 193 30
62 193 30
63 192 30
63 191 30
64 191 30
65 190 30
65 190 30
66 189 30
67 188 30
67 188 30
68 187 30
69 186 30
69 186 30
70 185 30
71 184 30
71 184 30
72 183 30
72 183 30
73 182 30
74 181 30
74 181 30
75 180 30
76 179 30
76 179 30
77 178 30
78 177 30
78 177 30
79 176 30
79 175 30
80 175 30
81 174 30
81 174 30
82 173 30
83 172 30
83 172 30
84 171 30
85 170 30
85 170 30
86 169 30
87 168 30
87 168 30
88 167 30
88 167 30
89 166 30
90 165 30
90 165 30
91 164 30
92 163 30
92 163 30
93 162 30
94 161 30
94 161 30
95 160 30
95 159 30
96 159 30
97 158 30
97 158 30
98 157 30
99 156 30
99 156 30
100 155 30
101 154 30
101 154 30
102 153 30
103 152 30
103 152 30
104 151 30
104 151 30
105 150 30
106 149 30
106 149 30
107 148 30
108 147 30
108 147 30
109 146 30
110 145 30
110 145 30
111 144 30
111 143 30
112 143 30
113 142 30
113 142 30
114 141 30
115 140 30
115 140 30
116 139 30
117 138 30
117 138 30
118 137 30
119 136 30
119 136 30
120 135 30
120 135 30
121 134 30
122 133 30
122 133 30
123 132 30
124 131 30
124 131 30
125 130 30
126 129 30
126 129 30
127 128 30
127 127 30
128 127 30
129 126 30
129 126 30
130 125 30
131 124 30
131 124 30
132 123 30
133 122 30
133 122 30
134 121 30
135 120 30
135 120 30
136 119 30
136 119 30
137 118 30
138 117 30
138 117 30
139 116 30
140 115 30
140 115 30
141 114 30
142 113 30
142 113 30
143 112 30
143 111 30
144 111 30
145 110 30
145 110 30
146 109 30
147 108 30
147 108 30
148 107 30
149 106 30
149 106 30
150 105 30
151 104 30
151 104 30
152 103 30
152 103 30
153 102 30
154 101 30
154 101 30
155 100 30
156 99 30
156 99 30
157 98 30
158 97 30
158 97 30
159 96 30
159 95 30
160 95 30
161 94 30
161 94 30
162 93 30
163 92 30
163 92 30
164 91 30
165 90 30
165 90 30
166 89 30
167 88 30
167 88 30
168 87 30
168 87 30
169 86 30
170 85 30
170 85 30
171 84 30
172 83 30
172 83 30
173 82 30
174 81 30
174 81 30
175 80 30
175 79 30
176 79 30
177 78 30
177 78 30
178 77 30
179 76 30
179 76 30
180 75 30
181 74 30
181 74 30
182 73 30
183 72 30
183 72 30
184 71 30
184 71 30
185 70 30
186 69 30
186 69 30
187 68 30
188 67 30
188 67 30
189 66 30
190 65 30
190 65 30
191 64 30
191 63 30
192 63 30
193 62 30
193 62 30
194 61 30
195 60 30
195 60 30
196 59 30
197 58 30
197 58 30
198 57 30
199 56 30
199 56 30
200 55 30
200 55 30
201 54 30
202 53 30
202 53 30
203 52 30
204 51 30
204 51 30
205 50 30
206 49 30
206 49 30
207 48 30
207 47 30
208 47 30
209 46 30
209 46 30
210 45 30
211 44 30
211 44 30
212 43 30
213 42 30
213 42 30
214 41 30
215 40 30
215 40 30
216 39 30
216 39 30
217 38 30
218 37 30
218 37 30
219 36 30
220 35 30
220 35 30
221 34 30
222 33 30
222 33 30
223 32 30
223 31 30
224 31 30
225 30 30
225 30 30
226 29 30
227 28 30
227 28 30
228 27 30
229 26 30
229 26 30
230 25 30
231 24 30
231 24 30
232 23 30
232 23 30
233 22 30
234 21 30
234 21 30
235 20 30
236 19 30
236 19 30
237 18 30
238 17 30
238 17 30
239 16 30
239 15 30
240 15 30
241 14 30
241 14 30
242 13 30
243 12 30
243 12 30
244 11 30
245 10 30
245 10 30
246 9 30
247 8 30
247 8 30
248 7 30
248 7 30
249 6 30
250 5 30
250 5 30
251 4 30
252 3 30
252 3 30
253 2 30
254 1 30
254 1 30
255 0 30
0 255 31
0 255 31
1 254 31
1 254 31
2 253 31
3 252 31
3 252 31
4 251 31
5 250 31
5 250 31
6 249 31
7 248 31
7 248 31
8 247 31
8 247 31
9 246 31
10 245 31
10 245 31
11 244 31
12 243 31
12 243 31
13 242 31
14 241 31
14 241 31
15 240 31
15 239 31
16 239 31
17 238 31
17 238 31
18 237 31
19 236 31
19 236 31
20 235 31
21 234 31
21 234 31
22 233 31
23 232 31
23 232 31
24 231 31
24 231 31
25 230 31
26 229 31
26 229 31
27 228 31
28 227 31
28 227 31
29 226 31
30 225 31
30 225 31
31 224 31
31 223 31
32 223 31
33 222 31
33 222 31
34 221 31
35 220 31
35 220 31
36 219 31
37 218 31
37 218 31
38 217 31
39 216 31
39 216 31
40 215 31
40 215 31
41 214 31
42 213 31
42 213 31
43 212 31
44 211 31
44 211 31
45 210 31
46 209 31
46 209 31
47 208 31
47 207 31
48 207 31
49 206 31
49 206 31
50 205 31
51 204 31
51 204 31
52 203 31
53 202 31
53 202 31
54 201 31
55 200 31
55 200 31
56 199 31
56 199 31
57 198 31
58 197 31
58 197 31
59 196 31
60 195 31
60 195 31
61 194 31
62 193 31
62 193 31
63 192 31
63 191 31
64 191 31
65 190 31
65 190 31
66 189 31
67 188 31
67 188 31
68 187 31
69 186 31
69 186 31
70 185 31
71 184 31
71 184 31
72 183 31
72 183 31
73 182 31
74 181 31
74 181 31
75 180 31
76 179 31
76 179 31
77 178 31
78 177 31
78 177 31
79 176 31
79 175 31
80 175 31
81 174 31
81 174 31
82 173 31
83 172 31
83 172 31
84 171 31
85 170 31
85 170 31
86 169 31
87 168 31
87 168 31
88 167 31
88 167 31
89 166 31
90 165 31
90 165 31
91 164 31
92 163 31
92 163 31
93 162 31
94 161 31
94 161 31
95 160 31
95 159 31
96 159 31
97 158 31
97 158 31
98 157 31
99 156 31
99 156 31
100 155 31
101 154 31
101 154 31
102 153 31
103 152 31
103 152 31
104 151 31
104 151 31
105 150 31
106 149 31
106 149 31
107 148 31
108 147 31
108 147 31
109 146 31
110 145 31
110 145 31
111 144 31
111 143 31
112 143 31
113 142 31
113 142 31
114 141 31
115 140 31
115 140 31
116 139 31
117 138 31
117 138 31
118 137 31
119 136 31
119 136 31
120 135 31
120 135 31
121 134 31
122 133 31
122 133 31
123 132 31
124 131 31
124 131 31
125 130 31
126 129 31
126 129 31
127 128 31
127 127 31
128 127 31
129 126 31
129 126 31
130 125 31
131 124 31
131 124 31
132 123 31
133 122 31
133 122 31
134 121 31
135 120 31
135 120 31
136 119 31
136 119 31
137 118 31
138 117 31
138 117 31
139 116 31
140 115 31
140 115 31
141 114 31
142 113 31
142 113 31
143 112 31
143 111 31
144 111 31
145 110 31
145 110 31
146 109 31
147 108 31
147 108 31
148 107 31
149 106 31
149 106 31
150 105 31
151 104 31
151 104 31
152 103 31
152 103 31
153 102 31
154 101 31
154 101 31
155 100 31
156 99 31
156 99 31
157 98 31
158 97 31
158 97 31
159 96 31
159 95 31
160 95 31
161 94 31
161 94 31
162 93 31
163 92 31
163 92 31
164 91 31
165 90 31
165 90 31
166 89 31
167 88 31
167 88 31
168 87 31
168 87 31
169 86 31
170 85 31
170 85 31
171 84 31
172 83 31
172 83 31
173 82 31
174 81 31
174 81 31
175 80 31
175 79 31
176 79 31
177 78 31
177 78 31
178 77 31
179 76 31
179 76 31
180 75 31
181 74 31
181 74 31
182 73 31
183 72 31
183 72 31
184 71 31
184 71 31
185 70 31
186 69 31
186 69 31
187 68 31
188 67 31
188 67 31
189 66 31
190 65 31
190 65 31
191 64 31
191 63 31
192 63 31
193 62 31
193 62 31
194 61 31
195 60 31
195 60 31
196 59 31
197 58 31
197 58 31
198 57 31
199 56 31
199 56 31
200 55 31
200 55 31
201 54 31
202 53 31
202 53 31
203 52 31
204 51 31
204 51 31
205 50 31
206 49 31
206 49 31
207 48 31
207 47 31
208 47 31
209 46 31
209 46 31
210 45 31
211 44 31
211 44 31
212 43 31
213 42 31
213 42 31
214 41 31
215 40 31
215 40 31
216 39 31
216 39 31
217 38 31
218 37 31
218 37 31
219 36 31
220 35 31
220 35 31
221 34 31
222 33 31
222 33 31
223 32 31
223 31 31
224 31 31
225 30 31
225 30 31
226 29 31
227 28 31
227 28 31
228 27 31
229 26 31
229 26 31
230 25 31
231 24 31
231 24 31
232 23 31
232 23 31
233 22 31
234 21 31
234 21 31
235 20 31
236 19 31
236 19 31
237 18 31
238 17 31
238 17 31
239 16 31
239 15 31
240 15 31
241 14 31
241 14 31
242 13 31
243 12 31
243 12 31
244 11 31
245 10 31
245 10 31
246 9 31
247 8 31
247 8 31
248 7 31
248 7 31
249 6 31
250 5 31
250 5 31
251 4 31
252 3 31
252 3 31
253 2 31
254 1 31
254 1 31
255 0 31
0 255 32
0 255 32
1 254 32
1 254 32
2 253 32
3 252 32
3 252 32
4 251 32
5 250 32
5 250 32
6 249 32
7 248 32
7 248 32
8 247 32
8 247 32
9 246 32
10 245 32
10 245 32
11 244 32
12 243 32
12 243 32
13 242 32
14 241 32
14 241 32
15 240 32
15 239 32
16 239 32
17 238 32
17 238 32
18 237 32
19 236 32
19 236 32
20 235 32
21 234 32
21 234 32
22 233 32
23 232 32
23 232 32
24 231 32
24 231 32
25 230 32
26 229 32
26 229 32
27 228 32
28 227 32
28 227 32
29 226 32
30 225 32
30 225 32
31 224 32
31 223 32
32 223 32
33 222 32
33 222 32
34 221 32
35 220 32
35 220 32
36 219 32
37 218 32
37 218 32
38 217 32
39 216 32
39 216 32
40 215 32
40 215 32
41 214 32
42 213 32
42 213 32
43 212 32
44 211 32
44 211 32
45 210 32
46 209 32
46 209 32
47 208 32
47 207 32
48 207 32
49 206 32
49 206 32
50 205 32
51 204 32
51 204 32
52 203 32
53 202 32
53 202 32
54 201 32
55 200 32
55 200 32
56 199 32
56 199 32
57 198 32
58 197 32
58 197 32
59 196 32
60 195 32
60 195 32
61 194 32
62 193 32
62 193 32
63 192 32
63 191 32
64 191 32
65 190 32
65 190 32
66 189 32
67 188 32
67 188 32
68 187 32
69 186 32
69 186 32
70 185 32
71 184 32
71 184 32
72 183 32
72 183 32
73 182 32
74 181 32
74 181 32
75 180 32
76 179 32
76 179 32
77 178 32
78 177 32
78 177 32
79 176 32
79 175 32
80 175 32
81 174 32
81 174 32
82 173 32
83 172 32
83 172 32
84 171 32
85 170 32
85 170 32
86 169 32
87 168 32
87 168 32
88 167 32
88 167 32
89 166 32
90 165 32
90 165 32
91 164 32
92 163 32
92 163 32
93 162 32
94 161 32
94 161 32
95 160 32
95 159 32
96 159 32
97 158 32
97 158 32
98 157 32
99 156 32
99 156 32
100 155 32
101 154 32
101 154 32
102 153 32
103 152 32
103 152 32
104 151 32
104 151 32
105 150 32
106 149 32
106 149 32
107 148 32
108 147 32
108 147 32
109 146 32
110 145 32
110 145 32
111 144 32
111 143 32
112 143 32
113 142 32
113 142 32
114 141 32
115 140 32
115 140 32
116 139 32
117 138 32
117 138 32
118 137 32
119 136 32
119 136 32
120 135 32
120 135 32
121 134 32
122 133 32
122 133 32
123 132 32
124 131 32
124 131 32
125 130 32
126 129 32
126 129 32
127 128 32
127 127 32
128 127 32
129 126 32
129 126 32
130 125 32
131 124 32
131 124 32
132 123 32
133 122 32
133 122 32
134 121 32
135 120 32
135 120 32
136 119 32
136 119 32
137 118 32
138 117 32
138 117 32
139 116 32
140 115 32
140 115 32
141 114 32
142 113 32
142 113 32
143 112 32
143 111 32
144 111 32
145 110 32
145 110 32
146 109 32
147 108 32
147 108 32
148 107 32
149 106 32
149 106 32
150 105 32
151 104 32
151 104 32
152 103 32
152 103 32
153 102 32
154 101 32
154 101 32
155 100 32
156 99 32
156 99 32
157 98 32
158 97 32
158 97 32
159 96 32
159 95 32
160 95 32
161 94 32
161 94 32
162 93 32
163 92 32
163 92 32
164 91 32
165 90 32
165 90 32
166 89 32
167 88 32
167 88 32
168 87 32
168 87 32
169 86 32
170 85 32
170 85 32
171 84 32
172 83 32
172 83 32
173 82 32
174 81 32
174 81 32
175 80 32
175 79 32
176 79 32
177 78 32
177 78 32
178 77 32
179 76 32
179 76 32
180 75 32
181 74 32
181 74 32
182 73 32
183 72 32
183 72 32
184 71 32
184 71 32
185 70 32
186 69 32
186 69 32
187 68 32
188 67 32
188 67 32
189 66 32
190 65 32
190 65 32
191 64 32
191 63 32
192 63 32
193 62 32
193 62 32
194 61 32
195 60 32
195 60 32
196 59 32
197 58 32
197 58 32
198 57 32
199 56 32
199 56 32
200 55 32
200 55 32
201 54 32
202 53 32
202 53 32
203 52 32
204 51 32
204 51 32
205 50 32
206 49 32
206 49 32
207 48 32
207 47 32
208 47 32
209 46 32
209 46 32
210 45 32
211 44 32
211 44 32
212 43 32
213 42 32
213 42 32
214 41 32
215 40 32
215 40 32
216 39 32
216 39 32
217 38 32
218 37 32
218 37 32
219 36 32
220 35 32
220 35 32
221 34 32
222 33 32
222 33 32
223 32 32
223 31 32
224 31 32
225 30 32
225 30 32
226 29 32
227 28 32
227 28 32
228 27 32
229 26 32
229 26 32
230 25 32
231 24 32
231 24 32
232 23 32
232 23 32
233 22 32
234 21 32
234 21 32
235 20 32
236 19 32
236 19 32
237 18 32
238 17 32
238 17 32
239 16 32
239 15 32
240 15 32
241 14 32
241 14 32
242 13 32
243 12 32
243 12 32
244 11 32
245 10 32
245 10 32
246 9 32
247 8 32
247 8 32
248 7 32
248 7 32
249 6 32
250 5 32
250 5 32
251 4 32
252 3 32
252 3 32
253 2 32
254 1 32
254 1 32
255 0 32
0 255 34
0 255 34
1 254 34
1 254 34
2 253 34
3 252 34
3 252 34
4 251 34
5 250 34
5 250 34
6 249 34
7 248 34
7 248 34
8 247 34
8 247 34
9 246 34
10 245 34
10 245 34
11 244 34
12 243 34
12 243 34
13 242 34
14 241 34
14 241 34
15 240 34
15 239 34
16 239 34
17 238 34
17 238 34
18 237 34
19 236 34
19 236 34
20 235 34
21 234 34
21 234 34
22 233 34
23 232 34
23 232 34
24 231 34
24 231 34
25 230 34
26 229 34
26 229 34
27 228 34
28 227 34
28 227 34
29 226 34
30 225 34
30 225 34
31 224 34
31 223 34
32 223 34
33 222 34
33 222 34
34 221 34
35 220 34
35 220 34
36 219 34
37 218 34
37 218 34
38 217 34
39 216 34
39 216 34
40 215 34
40 215 34
41 214 34
42 213 34
42 213 34
43 212 34
44 211 34
44 211 34
45 210 34
46 209 34
46 209 34
47 208 34
47 207 34
48 207 34
49 206 34
49 206 34
50 205 34
51 204 34
51 204 34
52 203 34
53 202 34
53 202 34
54 201 34
55 200 34
55 200 34
56 199 34
56 199 34
57 198 34
58 197 34
58 197 34
59 196 34
60 195 34
60 195 34
61 194 34
62 193 34
62 193 34
63 192 34
63 191 34
64 191 34
65 190 34
65 190 34
66 189 34
67 188 34
67 188 34
68 187 34
69 186 34
69 186 34
70 185 34
71 184 34
71 184 34
72 183 34
72 183 34
73 182 34
74 181 34
74 181 34
75 180 34
76 179 34
76 179 34
77 178 34
78 177 34
78 177 34
79 176 34
79 175 34
80 175 34
81 174 34
81 174 34
82 173 34
83 172 34
83 172 34
84 171 34
85 170 34
85 170 34
86 169 34
87 168 34
87 168 34
88 167 34
88 167 34
89 166 34
90 165 34
90 165 34
91 164 34
92 163 34
92 163 34
93 162 34
94 161 34
94 161 34
95 160 34
95 159 34
96 159 34
97 158 34
97 158 34
98 157 34
99 156 34
99 156 34
100 155 34
101 154 34
101 154 34
102 153 34
103 152 34
103 152 34
104 151 34
104 151 34
105 150 34
106 149 34
106 149 34
107 148 34
108 147 34
108 147 34
109 146 34
110 145 34
110 145 34
111 144 34
111 143 34
112 143 34
113 142 34
113 142 34
114 141 34
115 140 34
115 140 34
116 139 34
117 138 34
117 138 34
118 137 34
119 136 34
119 136 34
120 135 34
120 135 34
121 134 34
122 133 34
122 133 34
123 132 34
124 131 34
124 131 34
125 130 34
126 129 34
126 129 34
127 128 34
127 127 34
128 127 34
129 126 34
129 126 34
130 125 34
131 124 34
131 124 34
132 123 34
133 122 34
133 122 34
134 121 34
135 120 34
135 120 34
136 119 34
136 119 34
137 118 34
138 117 34
138 117 34
139 116 34
140 115 34
140 115 34
141 114 34
142 113 34
142 113 34
143 112 34
143 111 34
144 111 34
145 110 34
145 110 34
146 109 34
147 108 34
147 108 34
148 107 34
149 106 34
149 106 34
150 105 34
151 104 34
151 104 34
152 103 34
152 103 34
153 102 34
154 101 34
154 101 34
155 100 34
156 99 34
156 99 34
157 98 34
158 97 34
158 97 34
159 96 34
159 95 34
160 95 34
161 94 34
161 94 34
162 93 34
163 92 34
163 92 34
164 91 34
165 90 34
165 90 34
166 89 34
167 88 34
167 88 34
168 87 34
168 87 34
169 86 34
170 85 34
170 85 34
171 84 34
172 83 34
172 83 34
173 82 34
174 81 34
174 81 34
175 80 34
175 79 34
176 79 34
177 78 34
177 78 34
178 77 34
179 76 34
179 76 34
180 75 34
181 74 34
181 74 34
182 73 34
183 72 34
183 72 34
184 71 34
184 71 34
185 70 34
186 69 34
186 69 34
187 68 34
188 67 34
188 67 34
189 66 34
190 65 34
190 65 34
191 64 34
191 63 34
192 63 34
193 62 34
193 62 34
194 61 34
195 60 34
195 60 34
196 59 34
197 58 34
197 58 34
198 57 34
199 56 34
199 56 34
200 55 34
200 55 34
201 54 34
202 53 34
202 53 34
203 52 34
204 51 34
204 51 34
205 50 34
206 49 34
206 49 34
207 48 34
207 47 34
208 47 34
209 46 34
209 46 34
210 45 34
211 44 34
211 44 34
212 43 34
213 42 34
213 42 34
214 41 34
215 40 34
215 40 34
216 39 34
216 39 34
217 38 34
218 37 34
218 37 34
219 36 34
220 35 34
220 35 34
221 34 34
222 33 34
222 33 34
223 32 34
223 31 34
224 31 34
225 30 34
225 30 34
226 29 34
227 28 34
227 28 34
228 27 34
229 26 34
229 26 34
230 25 34
231 24 34
231 24 34
232 23 34
232 23 34
233 22 34
234 21 34
234 21 34
235 20 34
236 19 34
236 19 34
237 18 34
238 17 34
238 17 34
239 16 34
239 15 34
240 15 34
241 14 34
241 14 34
242 13 34
243 12 34
243 12 34
244 11 34
245 10 34
245 10 34
246 9 34
247 8 34
247 8 34
248 7 34
248 7 34
249 6 34
250 5 34
250 5 34
251 4 34
252 3 34
252 3 34
253 2 34
254 1 34
254 1 34
255 0 34
0 255 35
0 255 35
1 254 35
1 254 35
2 253 35
3 252 35
3 252 35
4 251 35
5 250 35
5 250 35
6 249 35
7 248 35
7 248 35
8 247 35
8 247 35
9 246 35
10 245 35
10 245 35
11 244 35
12 243 35
12 243 35
13 242 35
14 241 35
14 241 35
15 240 35
15 239 35
16 239 35
17 238 35
17 238 35
18 237 35
19 236 35
19 236 35
20 235 35
21 234 35
21 234 35
22 233 35
23 232 35
23 232 35
24 231 35
24 231 35
25 230 35
26 229 35
26 229 35
27 228 35
28 227 35
28 227 35
29 226 35
30 225 35
30 225 35
31 224 35
31 223 35
32 223 35
33 222 35
33 222 35
34 221 35
35 220 35
35 220 35
36 219 35
37 218 35
37 218 35
38 217 35
39 216 35
39 216 35
40 215 35
40 215 35
41 214 35
42 213 35
42 213 35
43 212 35
44 211 35
44 211 35
45 210 35
46 209 35
46 209 35
47 208 35
47 207 35
48 207 35
49 206 35
49 206 35
50 205 35
51 204 35
51 204 35
52 203 35
53 202 35
53 202 35
54 201 35
55 200 35
55 200 35
56 199 35
56 199 35
57 198 35
58 197 35
58 197 35
59 196 35
60 195 35
60 195 35
61 194 35
62 193 35
62 193 35
63 192 35
63 191 35
64 191 35
65 190 35
65 190 35
66 189 35
67 188 35
67 188 35
68 187 35
69 186 35
69 186 35
70 185 35
71 184 35
71 184 35
72 183 35
72 183 35
73 182 35
74 181 35
74 181 35
75 180 35
76 179 35
76 179 35
77 178 35
78 177 35
78 177 35
79 176 35
79 175 35
80 175 35
81 174 35
81 174 35
82 173 35
83 172 35
83 172 35
84 171 35
85 170 35
85 170 35
86 169 35
87 168 35
87 168 35
88 167 35
88 167 35
89 166 35
90 165 35
90 165 35
91 164 35
92 163 35
92 163 35
93 162 35
94 161 35
94 161 35
95 160 35
95 159 35
96 159 35
97 158 35
97 158 35
98 157 35
99 156 35
99 156 35
100 155 35
101 154 35
101 154 35
102 153 35
103 152 35
103 152 35
104 151 35
104 151 35
105 150 35
106 149 35
106 149 35
107 148 35
108 147 35
108 147 35
109 146 35
110 145 35
110 145 35
111 144 35
111 143 35
112 143 35
113 142 35
113 142 35
114 141 35
115 140 35
115 140 35
116 139 35
117 138 35
117 138 35
118 137 35
119 136 35
119 136 35
120 135 35
120 135 35
121 134 35
122 133 35
122 133 35
123 132 35
124 131 35
124 131 35
125 130 35
126 129 35
126 129 35
127 128 35
127 127 35
128 127 35
129 126 35
129 126 35
130 125 35
131 124 35
131 124 35
132 123 35
133 122 35
133 122 35
134 121 35
135 120 35
135 120 35
136 119 35
136 119 35
137 118 35
138 117 35
138 117 35
139 116 35
140 115 35
140 115 35
141 114 35
142 113 35
142 113 35
143 112 35
143 111 35
144 111 35
145 110 35
145 110 35
146 109 35
147 108 35
147 108 35
148 107 35
149 106 35
149 106 35
150 105 35
151 104 35
151 104 35
152 103 35
152 103 35
153 102 35
154 101 35
154 101 35
155 100 35
156 99 35
156 99 35
157 98 35
158 97 35
158 97 35
159 96 35
159 95 35
160 95 35
161 94 35
161 94 35
162 93 35
163 92 35
163 92 35
164 91 35
165 90 35
165 90 35
166 89 35
167 88 35
167 88 35
168 87 35
168 87 35
169 86 35
170 85 35
170 85 35
171 84 35
172 83 35
172 83 35
173 82 35
174 81 35
174 81 35
175 80 35
175 79 35
176 79 35
177 78 35
177 78 35
178 77 35
179 76 35
179 76 35
180 75 35
181 74 35
181 74 35
182 73 35
183 72 35
183 72 35
184 71 35
184 71 35
185 70 35
186 69 35
186 69 35
187 68 35
188 67 35
188 67 35
189 66 35
190 65 35
190 65 35
191 64 35
191 63 35
192 63 35
193 62 35
193 62 35
194 61 35
195 60 35
195 60 35
196 59 35
197 58 35
197 58 35
198 57 35
199 56 35
199 56 35
200 55 35
200 55 35
201 54 35
202 53 35
202 53 35
203 52 35
204 51 35
204 51 35
205 50 35
206 49 35
206 49 35
207 48 35
207 47 35
208 47 35
209 46 35
209 46 35
210 45 35
211 44 35
211 44 35
212 43 35
213 42 35
213 42 35
214 41 35
215 40 35
215 40 35
216 39 35
216 39 35
217 38 35
218 37 35
218 37 35
219 36 35
220 35 35
220 35 35
221 34 35
222 33 35
222 33 35
223 32 35
223 31 35
224 31 35
225 30 35
225 30 35
226 29 35
227 28 35
227 28 35
228 27 35
229 26 35
229 26 35
230 25 35
231 24 35
231 24 35
232 23 35
232 23 35
233 22 35
234 21 35
234 21 35
235 20 35
236 19 35
236 19 35
237 18 35
238 17 35
238 17 35
239 16 35
239 15 35
240 15 35
241 14 35
241 14 35
242 13 35
243 12 35
243 12 35
244 11 35
245 10 35
245 10 35
246 9 35
247 8 35
247 8 35
248 7 35
248 7 35
249 6 35
250 5 35
250 5 35
251 4 35
252 3 35
252 3 35
253 2 35
254 1 35
254 1 35
255 0 35
0 255 36
0 255 36
1 254 36
1 254 36
2 253 36
3 252 36
3 252 36
4 251 36
5 250 36
5 250 36
6 249 36
7 248 36
7 248 36
8 247 36
8 247 36
9 246 36
10 245 36
10 245 36
11 244 36
12 243 36
12 243 36
13 242 36
14 241 36
14 241 36
15 240 36
15 239 36
16 239 36
17 238 36
17 238 36
18 237 36
19 236 36
19 236 36
20 235 36
21 234 36
21 234 36
22 233 36
23 232 36
23 232 36
24 231 36
24 231 36
25 230 36
26 229 36
26 229 36
27 228 36
28 227 36
28 227 36
29 226 36
30 225 36
30 225 36
31 224 36
31 223 36
32 223 36
33 222 36
33 222 36
34 221 36
35 220 36
35 220 36
36 219 36
37 218 36
37 218 36
38 217 36
39 216 36
39 216 36
40 215 36
40 215 36
41 214 36
42 213 36
42 213 36
43 212 36
44 211 36
44 211 36
45 210 36
46 209 36
46 209 36
47 208 36
47 207 36
48 207 36
49 206 36
49 206 36
50 205 36
51 204 36
51 204 36
52 203 36
53 202 36
53 202 36
54 201 36
55 200 36
55 200 36
56 199 36
56 199 36
57 198 36
58 197 36
58 197 36
59 196 36
60 195 36
60 195 36
61 194 36
62 193 36
62 193 36
63 192 36
63 191 36
64 191 36
65 190 36
65 190 36
66 189 36
67 188 36
67 188 36
68 187 36
69 186 36
69 186 36
70 185 36
71 184 36
71 184 36
72 183 36
72 183 36
73 182 36
74 181 36
74 181 36
75 180 36
76 179 36
76 179 36
77 178 36
78 177 36
78 177 36
79 176 36
79 175 36
80 175 36
81 174 36
81 174 36
82 173 36
83 172 36
83 172 36
84 171 36
85 170 36
85 170 36
86 169 36
87 168 36
87 168 36
88 167 36
88 167 36
89 166 36
90 165 36
90 165 36
91 164 36
92 163 36
92 163 36
93 162 36
94 161 36
94 161 36
95 160 36
95 159 36
96 159 36
97 158 36
97 158 36
98 157 36
99 156 36
99 156 36
100 155 36
101 154 36
101 154 36
102 153 36
103 152 36
103 152 36
104 151 36
104 151 36
105 150 36
106 149 36
106 149 36
107 148 36
108 147 36
108 147 36
109 146 36
110 145 36
110 145 36
111 144 36
111 143 36
112 143 36
113 142 36
113 142 36
114 141 36
115 140 36
115 140 36
116 139 36
117 138 36
117 138 36
118 137 36
119 136 36
119 136 36
120 135 36
120 135 36
121 134 36
122 133 36
122 133 36
123 132 36
124 131 36
124 131 36
125 130 36
126 129 36
126 129 36
127 128 36
127 127 36
128 127 36
129 126 36
129 126 36
130 125 36
131 124 36
131 124 36
132 123 36
133 122 36
133 122 36
134 121 36
135 120 36
135 120 36
136 119 36
136 119 36
137 118 36
138 117 36
138 117 36
139 116 36
140 115 36
140 115 36
141 114 36
142 113 36
142 113 36
143 112 36
143 111 36
144 111 36
145 110 36
145 110 36
146 109 36
147 108 36
147 108 36
148 107 36
149 106 36
149 106 36
150 105 36
151 104 36
151 104 36
152 103 36
152 103 36
153 102 36
154 101 36
154 101 36
155 100 36
156 99 36
156 99 36
157 98 36
158 97 36
158 97 36
159 96 36
159 95 36
160 95 36
161 94 36
161 94 36
162 93 36
163 92 36
163 92 36
164 91 36
165 90 36
165 90 36
166 89 36
167 88 36
167 88 36
168 87 36
168 87 36
169 86 36
170 85 36
170 85 36
171 84 36
172 83 36
172 83 36
173 82 36
174 81 36
174 81 36
175 80 36
175 79 36
176 79 36
177 78 36
177 78 36
178 77 36
179 76 36
179 76 36
180 75 36
181 74 36
181 74 36
182 73 36
183 72 36
183 72 36
184 71 36
184 71 36
185 70 36
186 69 36
186 69 36
187 68 36
188 67 36
188 67 36
189 66 36
190 65 36
190 65 36
191 64 36
191 63 36
192 63 36
193 62 36
193 62 36
194 61 36
195 60 36
195 60 36
196 59 36
197 58 36
197 58 36
198 57 36
199 56 36
199 56 36
200 55 36
200 55 36
201 54 36
202 53 36
202 53 36
203 52 36
204 51 36
204 51 36
205 50 36
206 49 36
206 49 36
207 48 36
207 47 36
208 47 36
209 46 36
209 46 36
210 45 36
211 44 36
211 44 36
212 43 36
213 42 36
213 42 36
214 41 36
215 40 36
215 40 36
216 39 36
216 39 36
217 38 36
218 37 36
218 37 36
219 36 36
220 35 36
220 35 36
221 34 36
222 33 36
222 33 36
223 32 36
223 31 36
224 31 36
225 30 36
225 30 36
226 29 36
227 28 36
227 28 36
228 27 36
229 26 36
229 26 36
230 25 36
231 24 36
231 24 36
232 23 36
232 23 36
233 22 36
234 21 36
234 21 36
235 20 36
236 19 36
236 19 36
237 18 36
238 17 36
238 17 36
239 16 36
239 15 36
240 15 36
241 14 36
241 14 36
242 13 36
243 12 36
243 12 36
244 11 36
245 10 36
245 10 36
246 9 36
247 8 36
247 8 36
248 7 36
248 7 36
249 6 36
250 5 36
250 5 36
251 4 36
252 3 36
252 3 36
253 2 36
254 1 36
254 1 36
255 0 36
0 255 37
0 255 37
1 254 37
1 254 37
2 253 37
3 252 37
3 252 37
4 251 37
5 250 37
5 250 37
6 249 37
7 248 37
7 248 37
8 247 37
8 247 37
9 246 37
10 245 37
10 245 37
11 244 37
12 243 37
12 243 37
13 242 37
14 241 37
14 241 37
15 240 37
15 239 37
16 239 37
17 238 37
17 238 37
18 237 37
19 236 37
19 236 37
20 235 37
21 234 37
21 234 37
22 233 37
23 232 37
23 232 37
24 231 37
24 231 37
25 230 37
26 229 37
26 229 37
27 228 37
28 227 37
28 227 37
29 226 37
30 225 37
30 225 37
31 224 37
31 223 37
32 223 37
33 222 37
33 222 37
34 221 37
35 220 37
35 220 37
36 219 37
37 218 37
37 218 37
38 217 37
39 216 37
39 216 37
40 215 37
40 215 37
41 214 37
42 213 37
42 213 37
43 212 37
44 211 37
44 211 37
45 210 37
46 209 37
46 209 37
47 208 37
47 207 37
48 207 37
49 206 37
49 206 37
50 205 37
51 204 37
51 204 37
52 203 37
53 202 37
53 202 37
54 201 37
55 200 37
55 200 37
56 199 37
56 199 37
57 198 37
58 197 37
58 197 37
59 196 37
60 195 37
60 195 37
61 194 37
62 193 37
62 193 37
63 192 37
63 191 37
64 191 37
65 190 37
65 190 37
66 189 37
67 188 37
67 188 37
68 187 37
69 186 37
69 186 37
70 185 37
71 184 37
71 184 37
72 183 37
72 183 37
73 182 37
74 181 37
74 181 37
75 180 37
76 179 37
76 179 37
77 178 37
78 177 37
78 177 37
79 176 37
79 175 37
80 175 37
81 174 37
81 174 37
82 173 37
83 172 37
83 172 37
84 171 37
85 170 37
85 170 37
86 169 37
87 168 37
87 168 37
88 167 37
88 167 37
89 166 37
90 165 37
90 165 37
91 164 37
92 163 37
92 163 37
93 162 37
94 161 37
94 161 37
95 160 37
95 159 37
96 159 37
97 158 37
97 158 37
98 157 37
99 156 37
99 156 37
100 155 37
101 154 37
101 154 37
102 153 37
103 152 37
103 152 37
104 151 37
104 151 37
105 150 37
106 149 37
106 149 37
107 148 37
108 147 37
108 147 37
109 146 37
110 145 37
110 145 37
111 144 37
111 143 37
112 143 37
113 142 37
113 142 37
114 141 37
115 140 37
115 140 37
116 139 37
117 138 37
117 138 37
118 137 37
119 136 37
119 136 37
120 135 37
120 135 37
121 134 37
122 133 37
122 133 37
123 132 37
124 131 37
124 131 37
125 130 37
126 129 37
126 129 37
127 128 37
127 127 37
128 127 37
129 126 37
129 126 37
130 125 37
131 124 37
131 124 37
132 123 37
133 122 37
133 122 37
134 121 37
135 120 37
135 120 37
136 119 37
136 119 37
137 118 37
138 117 37
138 117 37
139 116 37
140 115 37
140 115 37
141 114 37
142 113 37
142 113 37
143 112 37
143 111 37
144 111 37
145 110 37
145 110 37
146 109 37
147 108 37
147 108 37
148 107 37
149 106 37
149 106 37
150 105 37
151 104 37
151 104 37
152 103 37
152 103 37
153 102 37
154 101 37
154 101 37
155 100 37
156 99 37
156 99 37
157 98 37
158 97 37
158 97 37
159 96 37
159 95 37
160 95 37
161 94 37
161 94 37
162 93 37
163 92 37
163 92 37
164 91 37
165 90 37
165 90 37
166 89 37
167 88 37
167 88 37
168 87 37
168 87 37
169 86 37
170 85 37
170 85 37
171 84 37
172 83 37
172 83 37
173 82 37
174 81 37
174 81 37
175 80 37
175 79 37
176 79 37
177 78 37
177 78 37
178 77 37
179 76 37
179 76 37
180 75 37
181 74 37
181 74 37
182 73 37
183 72 37
183 72 37
184 71 37
184 71 37
185 70 37
186 69 37
186 69 37
187 68 37
188 67 37
188 67 37
189 66 37
190 65 37
190 65 37
191 64 37
191 63 37
192 63 37
193 62 37
193 62 37
194 61 37
195 60 37
195 60 37
196 59 37
197 58 37
197 58 37
198 57 37
199 56 37
199 56 37
200 55 37
200 55 37
201 54 37
202 53 37
202 53 37
203 52 37
204 51 37
204 51 37
205 50 37
206 49 37
206 49 37
207 48 37
207 47 37
208 47 37
209 46 37
209 46 37
210 45 37
211 44 37
211 44 37
212 43 37
213 42 37
213 42 37
214 41 37
215 40 37
215 40 37
216 39 37
216 39 37
217 38 37
218 37 37
218 37 37
219 36 37
220 35 37
220 35 37
221 34 37
222 33 37
222 33 37
223 32 37
223 31 37
224 31 37
225 30 37
225 30 37
226 29 37
227 28 37
227 28 37
228 27 37
229 26 37
229 26 37
230 25 37
231 24 37
231 24 37
232 23 37
232 23 37
233 22 37
234 21 37
234 21 37
235 20 37
236 19 37
236 19 37
237 18 37
238 17 37
238 17 37
239 16 37
239 15 37
240 15 37
241 14 37
241 14 37
242 13 37
243 12 37
243 12 37
244 11 37
245 10 37
245 10 37
246 9 37
247 8 37
247 8 37
248 7 37
248 7 37
249 6 37
250 5 37
250 5 37
251 4 37
252 3 37
252 3 37
253 2 37
254 1 37
254 1 37
255 0 37
0 255 38
0 255 38
1 254 38
1 254 38
2 253 38
3 252 38
3 252 38
4 251 38
5 250 38
5 250 38
6 249 38
7 248 38
7 248 38
8 247 38
8 247 38
9 246 38
10 245 38
10 245 38
11 244 38
12 243 38
12 243 38
13 242 38
14 241 38
14 241 38
15 240 38
15 239 38
16 239 38
17 238 38
17 238 38
18 237 38
19 236 38
19 236 38
20 235 38
21 234 38
21 234 38
22 233 38
23 232 38
23 232 38
24 231 38
24 231 38
25 230 38
26 229 38
26 229 38
27 228 38
28 227 38
28 227 38
29 226 38
30 225 38
30 225 38
31 224 38
31 223 38
32 223 38
33 222 38
33 222 38
34 221 38
35 220 38
35 220 38
36 219 38
37 218 38
37 218 38
38 217 38
39 216 38
39 216 38
40 215 38
40 215 38
41 214 38
42 213 38
42 213 38
43 212 38
44 211 38
44 211 38
45 210 38
46 209 38
46 209 38
47 208 38
47 207 38
48 207 38
49 206 38
49 206 38
50 205 38
51 204 38
51 204 38
52 203 38
53 202 38
53 202 38
54 201 38
55 200 38
55 200 38
56 199 38
56 199 38
57 198 38
58 197 38
58 197 38
59 196 38
60 195 38
60 195 38
61 194 38
62 193 38
62 193 38
63 192 38
63 191 38
64 191 38
65 190 38
65 190 38
66 189 38
67 188 38
67 188 38
68 187 38
69 186 38
69 186 38
70 185 38
71 184 38
71 184 38
72 183 38
72 183 38
73 182 38
74 181 38
74 181 38
75 180 38
76 179 38
76 179 38
77 178 38
78 177 38
78 177 38
79 176 38
79 175 38
80 175 38
81 174 38
81 174 38
82 173 38
83 172 38
83 172 38
84 171 38
85 170 38
85 170 38
86 169 38
87 168 38
87 168 38
88 167 38
88 167 38
89 166 38
90 165 38
90 165 38
91 164 38
92 163 38
92 163 38
93 162 38
94 161 38
94 161 38
95 160 38
95 159 38
96 159 38
97 158 38
97 158 38
98 157 38
99 156 38
99 156 38
100 155 38
101 154 38
101 154 38
102 153 38
103 152 38
103 152 38
104 151 38
104 151 38
105 150 38
106 149 38
106 149 38
107 148 38
108 147 38
108 147 38
109 146 38
110 145 38
110 145 38
111 144 38
111 143 38
112 143 38
113 142 38
113 142 38
114 141 38
115 140 38
115 140 38
116 139 38
117 138 38
117 138 38
118 137 38
119 136 38
119 136 38
120 135 38
120 135 38
121 134 38
122 133 38
122 133 38
123 132 38
124 131 38
124 131 38
125 130 38
126 129 38
126 129 38
127 128 38
127 127 38
128 127 38
129 126 38
129 126 38
130 125 38
131 124 38
131 124 38
132 123 38
133 122 38
133 122 38
134 121 38
135 120 38
135 120 38
136 119 38
136 119 38
137 118 38
138 117 38
138 117 38
139 116 38
140 115 38
140 115 38
141 114 38
142 113 38
142 113 38
143 112 38
143 111 38
144 111 38
145 110 38
145 110 38
146 109 38
147 108 38
147 108 38
148 107 38
149 106 38
149 106 38
150 105 38
151 104 38
151 104 38
152 103 38
152 103 38
153 102 38
154 101 38
154 101 38
155 100 38
156 99 38
156 99 38
157 98 38
158 97 38
158 97 38
159 96 38
159 95 38
160 95 38
161 94 38
161 94 38
162 93 38
163 92 38
163 92 38
164 91 38
165 90 38
165 90 38
166 89 38
167 88 38
167 88 38
168 87 38
168 87 38
169 86 38
170 85 38
170 85 38
171 84 38
172 83 38
172 83 38
173 82 38
174 81 38
174 81 38
175 80 38
175 79 38
176 79 38
177 78 38
177 78 38
178 77 38
179 76 38
179 76 38
180 75 38
181 74 38
181 74 38
182 73 38
183 72 38
183 72 38
184 71 38
184 71 38
185 70 38
186 69 38
186 69 38
187 68 38
188 67 38
188 67 38
189 66 38
190 65 38
190 65 38
191 64 38
191 63 38
192 63 38
193 62 38
193 62 38
194 61 38
195 60 38
195 60 38
196 59 38
197 58 38
197 58 38
198 57 38
199 56 38
199 56 38
200 55 38
200 55 38
201 54 38
202 53 38
202 53 38
203 52 38
204 51 38
204 51 38
205 50 38
206 49 38
206 49 38
207 48 38
207 47 38
208 47 38
209 46 38
209 46 38
210 45 38
211 44 38
211 44 38
212 43 38
213 42 38
213 42 38
214 41 38
215 40 38
215 40 38
216 39 38
216 39 38
217 38 38
218 37 38
218 37 38
219 36 38
220 35 38
220 35 38
221 34 38
222 33 38
222 33 38
223 32 38
223 31 38
224 31 38
225 30 38
225 30 38
226 29 38
227 28 38
227 28 38
228 27 38
229 26 38
229 26 38
230 25 38
231 24 38
231 24 38
232 23 38
232 23 38
233 22 38
234 21 38
234 21 38
235 20 38
236 19 38
236 19 38
237 18 38
238 17 38
238 17 38
239 16 38
239 15 38
240 15 38
241 14 38
241 14 38
242 13 38
243 12 38
243 12 38
244 11 38
245 10 38
245 10 38
246 9 38
247 8 38
247 8 38
248 7 38
248 7 38
249 6 38
250 5 38
250 5 38
251 4 38
252 3 38
252 3 38
253 2 38
254 1 38
254 1 38
255 0 38
0 255 39
0 255 39
1 254 39
1 254 39
2 253 39
3 252 39
3 252 39
4 251 39
5 250 39
5 250 39
6 249 39
7 248 39
7 248 39
8 247 39
8 247 39
9 246 39
10 245 39
10 245 39
11 244 39
12 243 39
12 243 39
13 242 39
14 241 39
14 241 39
15 240 39
15 239 39
16 239 39
17 238 39
17 238 39
18 237 39
19 236 39
19 236 39
20 235 39
21 234 39
21 234 39
22 233 39
23 232 39
23 232 39
24 231 39
24 231 39
25 230 39
26 229 39
26 229 39
27 228 39
28 227 39
28 227 39
29 226 39
30 225 39
30 225 39
31 224 39
31 223 39
32 223 39
33 222 39
33 222 39
34 221 39
35 220 39
35 220 39
36 219 39
37 218 39
37 218 39
38 217 39
39 216 39
39 216 39
40 215 39
40 215 39
41 214 39
42 213 39
42 213 39
43 212 39
44 211 39
44 211 39
45 210 39
46 209 39
46 209 39
47 208 39
47 207 39
48 207 39
49 206 39
49 206 39
50 205 39
51 204 39
51 204 39
52 203 39
53 202 39
53 202 39
54 201 39
55 200 39
55 200 39
56 199 39
56 199 39
57 198 39
58 197 39
58 197 39
59 196 39
60 195 39
60 195 39
61 194 39
62 193 39
62 193 39
63 192 39
63 191 39
64 191 39
65 190 39
65 190 39
66 189 39
67 188 39
67 188 39
68 187 39
69 186 39
69 186 39
70 185 39
71 184 39
71 184 39
72 183 39
72 183 39
73 182 39
74 181 39
74 181 39
75 180 39
76 179 39
76 179 39
77 178 39
78 177 39
78 177 39
79 176 39
79 175 39
80 175 39
81 174 39
81 174 39
82 173 39
83 172 39
83 172 39
84 171 39
85 170 39
85 170 39
86 169 39
87 168 39
87 168 39
88 167 39
88 167 39
89 166 39
90 165 39
90 165 39
91 164 39
92 163 39
92 163 39
93 162 39
94 161 39
94 161 39
95 160 39
95 159 39
96 159 39
97 158 39
97 158 39
98 157 39
99 156 39
99 156 39
100 155 39
101 154 39
101 154 39
102 153 39
103 152 39
103 152 39
104 151 39
104 151 39
105 150 39
106 149 39
106 149 39
107 148 39
108 147 39
108 147 39
109 146 39
110 145 39
110 145 39
111 144 39
111 143 39
112 143 39
113 142 39
113 142 39
114 141 39
115 140 39
115 140 39
116 139 39
117 138 39
117 138 39
118 137 39
119 136 39
119 136 39
120 135 39
120 135 39
121 134 39
122 133 39
122 133 39
123 132 39
124 131 39
124 131 39
125 130 39
126 129 39
126 129 39
127 128 39
127 127 39
128 127 39
129 126 39
129 126 39
130 125 39
131 124 39
131 124 39
132 123 39
133 122 39
133 122 39
134 121 39
135 120 39
135 120 39
136 119 39
136 119 39
137 118 39
138 117 39
138 117 39
139 116 39
140 115 39
140 115 39
141 114 39
142 113 39
142 113 39
143 112 39
143 111 39
144 111 39
145 110 39
145 110 39
146 109 39
147 108 39
147 108 39
148 107 39
149 106 39
149 106 39
150 105 39
151 104 39
151 104 39
152 103 39
152 103 39
153 102 39
154 101 39
154 101 39
155 100 39
156 99 39
156 99 39
157 98 39
158 97 39
158 97 39
159 96 39
159 95 39
160 95 39
161 94 39
161 94 39
162 93 39
163 92 39
163 92 39
164 91 39
165 90 39
165 90 39
166 89 39
167 88 39
167 88 39
168 87 39
168 87 39
169 86 39
170 85 39
170 85 39
171 84 39
172 83 39
172 83 39
173 82 39
174 81 39
174 81 39
175 80 39
175 79 39
176 79 39
177 78 39
177 78 39
178 77 39
179 76 39
179 76 39
180 75 39
181 74 39
181 74 39
182 73 39
183 72 39
183 72 39
184 71 39
184 71 39
185 70 39
186 69 39
186 69 39
187 68 39
188 67 39
188 67 39
189 66 39
190 65 39
190 65 39
191 64 39
191 63 39
192 63 39
193 62 39
193 62 39
194 61 39
195 60 39
195 60 39
196 59 39
197 58 39
197 58 39
198 57 39
199 56 39
199 56 39
200 55 39
200 55 39
201 54 39
202 53 39
202 53 39
203 52 39
204 51 39
204 51 39
205 50 39
206 49 39
206 49 39
207 48 39
207 47 39
208 47 39
209 46 39
209 46 39
210 45 39
211 44 39
211 44 39
212 43 39
213 42 39
213 42 39
214 41 39
215 40 39
215 40 39
216 39 39
216 39 39
217 38 39
218 37 39
218 37 39
219 36 39
220 35 39
220 35 39
221 34 39
222 33 39
222 33 39
223 32 39
223 31 39
224 31 39
225 30 39
225 30 39
226 29 39
227 28 39
227 28 39
228 27 39
229 26 39
229 26 39
230 25 39
231 24 39
231 24 39
232 23 39
232 23 39
233 22 39
234 21 39
234 21 39
235 20 39
236 19 39
236 19 39
237 18 39
238 17 39
238 17 39
239 16 39
239 15 39
240 15 39
241 14 39
241 14 39
242 13 39
243 12 39
243 12 39
244 11 39
245 10 39
245 10 39
246 9 39
247 8 39
247 8 39
248 7 39
248 7 39
249 6 39
250 5 39
250 5 39
251 4 39
252 3 39
252 3 39
253 2 39
254 1 39
254 1 39
255 0 39
0 255 40
0 255 40
1 254 40
1 254 40
2 253 40
3 252 40
3 252 40
4 251 40
5 250 40
5 250 40
6 249 40
7 248 40
7 248 40
8 247 40
8 247 40
9 246 40
10 245 40
10 245 40
11 244 40
12 243 40
12 243 40
13 242 40
14 241 40
14 241 40
15 240 40
15 239 40
16 239 40
17 238 40
17 238 40
18 237 40
19 236 40
19 236 40
20 235 40
21 234 40
21 234 40
22 233 40
23 232 40
23 232 40
24 231 40
24 231 40
25 230 40
26 229 40
26 229 40
27 228 40
28 227 40
28 227 40
29 226 40
30 225 40
30 225 40
31 224 40
31 223 40
32 223 40
33 222 40
33 222 40
34 221 40
35 220 40
35 220 40
36 219 40
37 218 40
37 218 40
38 217 40
39 216 40
39 216 40
40 215 40
40 215 40
41 214 40
42 213 40
42 213 40
43 212 40
44 211 40
44 211 40
45 210 40
46 209 40
46 209 40
47 208 40
47 207 40
48 207 40
49 206 40
49 206 40
50 205 40
51 204 40
51 204 40
52 203 40
53 202 40
53 202 40
54 201 40
55 200 40
55 200 40
56 199 40
56 199 40
57 198 40
58 197 40
58 197 40
59 196 40
60 195 40
60 195 40
61 194 40
62 193 40
62 193 40
63 192 40
63 191 40
64 191 40
65 190 40
65 190 40
66 189 40
67 188 40
67 188 40
68 187 40
69 186 40
69 186 40
70 185 40
71 184 40
71 184 40
72 183 40
72 183 40
73 182 40
74 181 40
74 181 40
75 180 40
76 179 40
76 179 40
77 178 40
78 177 40
78 177 40
79 176 40
79 175 40
80 175 40
81 174 40
81 174 40
82 173 40
83 172 40
83 172 40
84 171 40
85 170 40
85 170 40
86 169 40
87 168 40
87 168 40
88 167 40
88 167 40
89 166 40
90 165 40
90 165 40
91 164 40
92 163 40
92 163 40
93 162 40
94 161 40
94 161 40
95 160 40
95 159 40
96 159 40
97 158 40
97 158 40
98 157 40
99 156 40
99 156 40
100 155 40
101 154 40
101 154 40
102 153 40
103 152 40
103 152 40
104 151 40
104 151 40
105 150 40
106 149 40
106 149 40
107 148 40
108 147 40
108 147 40
109 146 40
110 145 40
110 145 40
111 144 40
111 143 40
112 143 40
113 142 40
113 142 40
114 141 40
115 140 40
115 140 40
116 139 40
117 138 40
117 138 40
118 137 40
119 136 40
119 136 40
120 135 40
120 135 40
121 134 40
122 133 40
122 133 40
123 132 40
124 131 40
124 131 40
125 130 40
126 129 40
126 129 40
127 128 40
127 127 40
128 127 40
129 126 40
129 126 40
130 125 40
131 124 40
131 124 40
132 123 40
133 122 40
133 122 40
134 121 40
135 120 40
135 120 40
136 119 40
136 119 40
137 118 40
138 117 40
138 117 40
139 116 40
140 115 40
140 115 40
141 114 40
142 113 40
142 113 40
143 112 40
143 111 40
144 111 40
145 110 40
145 110 40
146 109 40
147 108 40
147 108 40
148 107 40
149 106 40
149 106 40
150 105 40
151 104 40
151 104 40
152 103 40
152 103 40
153 102 40
154 101 40
154 101 40
155 100 40
156 99 40
156 99 40
157 98 40
158 97 40
158 97 40
159 96 40
159 95 40
160 95 40
161 94 40
161 94 40
162 93 40
163 92 40
163 92 40
164 91 40
165 90 40
165 90 40
166 89 40
167 88 40
167 88 40
168 87 40
168 87 40
169 86 40
170 85 40
170 85 40
171 84 40
172 83 40
172 83 40
173 82 40
174 81 40
174 81 40
175 80 40
175 79 40
176 79 40
177 78 40
177 78 40
178 77 40
179 76 40
179 76 40
180 75 40
181 74 40
181 74 40
182 73 40
183 72 40
183 72 40
184 71 40
184 71 40
185 70 40
186 69 40
186 69 40
187 68 40
188 67 40
188 67 40
189 66 40
190 65 40
190 65 40
191 64 40
191 63 40
192 63 40
193 62 40
193 62 40
194 61 40
195 60 40
195 60 40
196 59 40
197 58 40
197 58 40
198 57 40
199 56 40
199 56 40
200 55 40
200 55 40
201 54 40
202 53 40
202 53 40
203 52 40
204 51 40
204 51 40
205 50 40
206 49 40
206 49 40
207 48 40
207 47 40
208 47 40
209 46 40
209 46 40
210 45 40
211 44 40
211 44 40
212 43 40
213 42 40
213 42 40
214 41 40
215 40 40
215 40 40
216 39 40
216 39 40
217 38 40
218 37 40
218 37 40
219 36 40
220 35 40
220 35 40
221 34 40
222 33 40
222 33 40
223 32 40
223 31 40
224 31 40
225 30 40
225 30 40
226 29 40
227 28 40
227 28 40
228 27 40
229 26 40
229 26 40
230 25 40
231 24 40
231 24 40
232 23 40
232 23 40
233 22 40
234 21 40
234 21 40
235 20 40
236 19 40
236 19 40
237 18 40
238 17 40
238 17 40
239 16 40
239 15 40
240 15 40
241 14 40
241 14 40
242 13 40
243 12 40
243 12 40
244 11 40
245 10 40
245 10 40
246 9 40
247 8 40
247 8 40
248 7 40
248 7 40
249 6 40
250 5 40
250 5 40
251 4 40
252 3 40
252 3 40
253 2 40
254 1 40
254 1 40
255 0 40
0 255 42
0 255 42
1 254 42
1 254 42
2 253 42
3 252 42
3 252 42
4 251 42
5 250 42
5 250 42
6 249 42
7 248 42
7 248 42
8 247 42
8 247 42
9 246 42
10 245 42
10 245 42
11 244 42
12 243 42
12 243 42
13 242 42
14 241 42
14 241 42
15 240 42
15 239 42
16 239 42
17 238 42
17 238 42
18 237 42
19 236 42
19 236 42
20 235 42
21 234 42
21 234 42
22 233 42
23 232 42
23 232 42
24 231 42
24 231 42
25 230 42
26 229 42
26 229 42
27 228 42
28 227 42
28 227 42
29 226 42
30 225 42
30 225 42
31 224 42
31 223 42
32 223 42
33 222 42
33 222 42
34 221 42
35 220 42
35 220 42
36 219 42
37 218 42
37 218 42
38 217 42
39 216 42
39 216 42
40 215 42
40 215 42
41 214 42
42 213 42
42 213 42
43 212 42
44 211 42
44 211 42
45 210 42
46 209 42
46 209 42
47 208 42
47 207 42
48 207 42
49 206 42
49 206 42
50 205 42
51 204 42
51 204 42
52 203 42
53 202 42
53 202 42
54 201 42
55 200 42
55 200 42
56 199 42
56 199 42
57 198 42
58 197 42
58 197 42
59 196 42
60 195 42
60 195 42
61 194 42
62 193 42
62 193 42
63 192 42
63 191 42
64 191 42
65 190 42
65 190 42
66 189 42
67 188 42
67 188 42
68 187 42
69 186 42
69 186 42
70 185 42
71 184 42
71 184 42
72 183 42
72 183 42
73 182 42
74 181 42
74 181 42
75 180 42
76 179 42
76 179 42
77 178 42
78 177 42
78 177 42
79 176 42
79 175 42
80 175 42
81 174 42
81 174 42
82 173 42
83 172 42
83 172 42
84 171 42
85 170 42
85 170 42
86 169 42
87 168 42
87 168 42
88 167 42
88 167 42
89 166 42
90 165 42
90 165 42
91 164 42
92 163 42
92 163 42
93 162 42
94 161 42
94 161 42
95 160 42
95 159 42
96 159 42
97 158 42
97 158 42
98 157 42
99 156 42
99 156 42
100 155 42
101 154 42
101 154 42
102 153 42
103 152 42
103 152 42
104 151 42
104 151 42
105 150 42
106 149 42
106 149 42
107 148 42
108 147 42
108 147 42
109 146 42
110 145 42
110 145 42
111 144 42
111 143 42
112 143 42
113 142 42
113 142 42
114 141 42
115 140 42
115 140 42
116 139 42
117 138 42
117 138 42
118 137 42
119 136 42
119 136 42
120 135 42
120 135 42
121 134 42
122 133 42
122 133 42
123 132 42
124 131 42
124 131 42
125 130 42
126 129 42
126 129 42
127 128 42
127 127 42
128 127 42
129 126 42
129 126 42
130 125 42
131 124 42
131 124 42
132 123 42
133 122 42
133 122 42
134 121 42
135 120 42
135 120 42
136 119 42
136 119 42
137 118 42
138 117 42
138 117 42
139 116 42
140 115 42
140 115 42
141 114 42
142 113 42
142 113 42
143 112 42
143 111 42
144 111 42
145 110 42
145 110 42
146 109 42
147 108 42
147 108 42
148 107 42
149 106 42
149 106 42
150 105 42
151 104 42
151 104 42
152 103 42
152 103 42
153 102 42
154 101 42
154 101 42
155 100 42
156 99 42
156 99 42
157 98 42
158 97 42
158 97 42
159 96 42
159 95 42
160 95 42
161 94 42
161 94 42
162 93 42
163 92 42
163 92 42
164 91 42
165 90 42
165 90 42
166 89 42
167 88 42
167 88 42
168 87 42
168 87 42
169 86 42
170 85 42
170 85 42
171 84 42
172 83 42
172 83 42
173 82 42
174 81 42
174 81 42
175 80 42
175 79 42
176 79 42
177 78 42
177 78 42
178 77 42
179 76 42
179 76 42
180 75 42
181 74 42
181 74 42
182 73 42
183 72 42
183 72 42
184 71 42
184 71 42
185 70 42
186 69 42
186 69 42
187 68 42
188 67 42
188 67 42
189 66 42
190 65 42
190 65 42
191 64 42
191 63 42
192 63 42
193 62 42
193 62 42
194 61 42
195 60 42
195 60 42
196 59 42
197 58 42
197 58 42
198 57 42
199 56 42
199 56 42
200 55 42
200 55 42
201 54 42
202 53 42
202 53 42
203 52 42
204 51 42
204 51 42
205 50 42
206 49 42
206 49 42
207 48 42
207 47 42
208 47 42
209 46 42
209 46 42
210 45 42
211 44 42
211 44 42
212 43 42
213 42 42
213 42 42
214 41 42
215 40 42
215 40 42
216 39 42
216 39 42
217 38 42
218 37 42
218 37 42
219 36 42
220 35 42
220 35 42
221 34 42
222 33 42
222 33 42
223 32 42
223 31 42
224 31 42
225 30 42
225 30 42
226 29 42
227 28 42
227 28 42
228 27 42
229 26 42
229 26 42
230 25 42
231 24 42
231 24 42
232 23 42
232 23 42
233 22 42
234 21 42
234 21 42
235 20 42
236 19 42
236 19 42
237 18 42
238 17 42
238 17 42
239 16 42
239 15 42
240 15 42
241 14 42
241 14 42
242 13 42
243 12 42
243 12 42
244 11 42
245 10 42
245 10 42
246 9 42
247 8 42
247 8 42
248 7 42
248 7 42
249 6 42
250 5 42
250 5 42
251 4 42
252 3 42
252 3 42
253 2 42
254 1 42
254 1 42
255 0 42
0 255 43
0 255 43
1 254 43
1 254 43
2 253 43
3 252 43
3 252 43
4 251 43
5 250 43
5 250 43
6 249 43
7 248 43
7 248 43
8 247 43
8 247 43
9 246 43
10 245 43
10 245 43
11 244 43
12 243 43
12 243 43
13 242 43
14 241 43
14 241 43
15 240 43
15 239 43
16 239 43
17 238 43
17 238 43
18 237 43
19 236 43
19 236 43
20 235 43
21 234 43
21 234 43
22 233 43
23 232 43
23 232 43
24 231 43
24 231 43
25 230 43
26 229 43
26 229 43
27 228 43
28 227 43
28 227 43
29 226 43
30 225 43
30 225 43
31 224 43
31 223 43
32 223 43
33 222 43
33 222 43
34 221 43
35 220 43
35 220 43
36 219 43
37 218 43
37 218 43
38 217 43
39 216 43
39 216 43
40 215 43
40 215 43
41 214 43
42 213 43
42 213 43
43 212 43
44 211 43
44 211 43
45 210 43
46 209 43
46 209 43
47 208 43
47 207 43
48 207 43
49 206 43
49 206 43
50 205 43
51 204 43
51 204 43
52 203 43
53 202 43
53 202 43
54 201 43
55 200 43
55 200 43
56 199 43
56 199 43
57 198 43
58 197 43
58 197 43
59 196 43
60 195 43
60 195 43
61 194 43
62 193 43
62 193 43
63 192 43
63 191 43
64 191 43
65 190 43
65 190 43
66 189 43
67 188 43
67 188 43
68 187 43
69 186 43
69 186 43
70 185 43
71 184 43
71 184 43
72 183 43
72 183 43
73 182 43
74 181 43
74 181 43
75 180 43
76 179 43
76 179 43
77 178 43
78 177 43
78 177 43
79 176 43
79 175 43
80 175 43
81 174 43
81 174 43
82 173 43
83 172 43
83 172 43
84 171 43
85 170 43
85 170 43
86 169 43
87 168 43
87 168 43
88 167 43
88 167 43
89 166 43
90 165 43
90 165 43
91 164 43
92 163 43
92 163 43
93 162 43
94 161 43
94 161 43
95 160 43
95 159 43
96 159 43
97 158 43
97 158 43
98 157 43
99 156 43
99 156 43
100 155 43
101 154 43
101 154 43
102 153 43
103 152 43
103 152 43
104 151 43
104 151 43
105 150 43
106 149 43
106 149 43
107 148 43
108 147 43
108 147 43
109 146 43
110 145 43
110 145 43
111 144 43
111 143 43
112 143 43
113 142 43
113 142 43
114 141 43
115 140 43
115 140 43
116 139 43
117 138 43
117 138 43
118 137 43
119 136 43
119 136 43
120 135 43
120 135 43
121 134 43
122 133 43
122 133 43
123 132 43
124 131 43
124 131 43
125 130 43
126 129 43
126 129 43
127 128 43
127 127 43
128 127 43
129 126 43
129 126 43
130 125 43
131 124 43
131 124 43
132 123 43
133 122 43
133 122 43
134 121 43
135 120 43
135 120 43
136 119 43
136 119 43
137 118 43
138 117 43
138 117 43
139 116 43
140 115 43
140 115 43
141 114 43
142 113 43
142 113 43
143 112 43
143 111 43
144 111 43
145 110 43
145 110 43
146 109 43
147 108 43
147 108 43
148 107 43
149 106 43
149 106 43
150 105 43
151 104 43
151 104 43
152 103 43
152 103 43
153 102 43
154 101 43
154 101 43
155 100 43
156 99 43
156 99 43
157 98 43
158 97 43
158 97 43
159 96 43
159 95 43
160 95 43
161 94 43
161 94 43
162 93 43
163 92 43
163 92 43
164 91 43
165 90 43
165 90 43
166 89 43
167 88 43
167 88 43
168 87 43
168 87 43
169 86 43
170 85 43
170 85 43
171 84 43
172 83 43
172 83 43
173 82 43
174 81 43
174 81 43
175 80 43
175 79 43
176 79 43
177 78 43
177 78 43
178 77 43
179 76 43
179 76 43
180 75 43
181 74 43
181 74 43
182 73 43
183 72 43
183 72 43
184 71 43
184 71 43
185 70 43
186 69 43
186 69 43
187 68 43
188 67 43
188 67 43
189 66 43
190 65 43
190 65 43
191 64 43
191 63 43
192 63 43
193 62 43
193 62 43
194 61 43
195 60 43
195 60 43
196 59 43
197 58 43
197 58 43
198 57 43
199 56 43
199 56 43
200 55 43
200 55 43
201 54 43
202 53 43
202 53 43
203 52 43
204 51 43
204 51 43
205 50 43
206 49 43
206 49 43
207 48 43
207 47 43
208 47 43
209 46 43
209 46 43
210 45 43
211 44 43
211 44 43
212 43 43
213 42 43
213 42 43
214 41 43
215 40 43
215 40 43
216 39 43
216 39 43
217 38 43
218 37 43
218 37 43
219 36 43
220 35 43
220 35 43
221 34 43
222 33 43
222 33 43
223 32 43
223 31 43
224 31 43
225 30 43
225 30 43
226 29 43
227 28 43
227 28 43
228 27 43
229 26 43
229 26 43
230 25 43
231 24 43
231 24 43
232 23 43
232 23 43
233 22 43
234 21 43
234 21 43
235 20 43
236 19 43
236 19 43
237 18 43
238 17 43
238 17 43
239 16 43
239 15 43
240 15 43
241 14 43
241 14 43
242 13 43
243 12 43
243 12 43
244 11 43
245 10 43
245 10 43
246 9 43
247 8 43
247 8 43
248 7 43
248 7 43
249 6 43
250 5 43
250 5 43
251 4 43
252 3 43
252 3 43
253 2 43
254 1 43
254 1 43
255 0 43
0 255 44
0 255 44
1 254 44
1 254 44
2 253 44
3 252 44
3 252 44
4 251 44
5 250 44
5 250 44
6 249 44
7 248 44
7 248 44
8 247 44
8 247 44
9 246 44
10 245 44
10 245 44
11 244 44
12 243 44
12 243 44
13 242 44
14 241 44
14 241 44
15 240 44
15 239 44
16 239 44
17 238 44
17 238 44
18 237 44
19 236 44
19 236 44
20 235 44
21 234 44
21 234 44
22 233 44
23 232 44
23 232 44
24 231 44
24 231 44
25 230 44
26 229 44
26 229 44
27 228 44
28 227 44
28 227 44
29 226 44
30 225 44
30 225 44
31 224 44
31 223 44
32 223 44
33 222 44
33 222 44
34 221 44
35 220 44
35 220 44
36 219 44
37 218 44
37 218 44
38 217 44
39 216 44
39 216 44
40 215 44
40 215 44
41 214 44
42 213 44
42 213 44
43 212 44
44 211 44
44 211 44
45 210 44
46 209 44
46 209 44
47 208 44
47 207 44
48 207 44
49 206 44
49 206 44
50 205 44
51 204 44
51 204 44
52 203 44
53 202 44
53 202 44
54 201 44
55 200 44
55 200 44
56 199 44
56 199 44
57 198 44
58 197 44
58 197 44
59 196 44
60 195 44
60 195 44
61 194 44
62 193 44
62 193 44
63 192 44
63 191 44
64 191 44
65 190 44
65 190 44
66 189 44
67 188 44
67 188 44
68 187 44
69 186 44
69 186 44
70 185 44
71 184 44
71 184 44
72 183 44
72 183 44
73 182 44
74 181 44
74 181 44
75 180 44
76 179 44
76 179 44
77 178 44
78 177 44
78 177 44
79 176 44
79 175 44
80 175 44
81 174 44
81 174 44
82 173 44
83 172 44
83 172 44
84 171 44
85 170 44
85 170 44
86 169 44
87 168 44
87 168 44
88 167 44
88 167 44
89 166 44
90 165 44
90 165 44
91 164 44
92 163 44
92 163 44
93 162 44
94 161 44
94 161 44
95 160 44
95 159 44
96 159 44
97 158 44
97 158 44
98 157 44
99 156 44
99 156 44
100 155 44
101 154 44
101 154 44
102 153 44
103 152 44
103 152 44
104 151 44
104 151 44
105 150 44
106 149 44
106 149 44
107 148 44
108 147 44
108 147 44
109 146 44
110 145 44
110 145 44
111 144 44
111 143 44
112 143 44
113 142 44
113 142 44
114 141 44
115 140 44
115 140 44
116 139 44
117 138 44
117 138 44
118 137 44
119 136 44
119 136 44
120 135 44
120 135 44
121 134 44
122 133 44
122 133 44
123 132 44
124 131 44
124 131 44
125 130 44
126 129 44
126 129 44
127 128 44
127 127 44
128 127 44
129 126 44
129 126 44
130 125 44
131 124 44
131 124 44
132 123 44
133 122 44
133 122 44
134 121 44
135 120 44
135 120 44
136 119 44
136 119 44
137 118 44
138 117 44
138 117 44
139 116 44
140 115 44
140 115 44
141 114 44
142 113 44
142 113 44
143 112 44
143 111 44
144 111 44
145 110 44
145 110 44
146 109 44
147 108 44
147 108 44
148 107 44
149 106 44
149 106 44
150 105 44
151 104 44
151 104 44
152 103 44
152 103 44
153 102 44
154 101 44
154 101 44
155 100 44
156 99 44
156 99 44
157 98 44
158 97 44
158 97 44
159 96 44
159 95 44
160 95 44
161 94 44
161 94 44
162 93 44
163 92 44
163 92 44
164 91 44
165 90 44
165 90 44
166 89 44
167 88 44
167 88 44
168 87 44
168 87 44
169 86 44
170 85 44
170 85 44
171 84 44
172 83 44
172 83 44
173 82 44
174 81 44
174 81 44
175 80 44
175 79 44
176 79 44
177 78 44
177 78 44
178 77 44
179 76 44
179 76 44
180 75 44
181 74 44
181 74 44
182 73 44
183 72 44
183 72 44
184 71 44
184 71 44
185 70 44
186 69 44
186 69 44
187 68 44
188 67 44
188 67 44
189 66 44
190 65 44
190 65 44
191 64 44
191 63 44
192 63 44
193 62 44
193 62 44
194 61 44
195 60 44
195 60 44
196 59 44
197 58 44
197 58 44
198 57 44
199 56 44
199 56 44
200 55 44
200 55 44
201 54 44
202 53 44
202 53 44
203 52 44
204 51 44
204 51 44
205 50 44
206 49 44
206 49 44
207 48 44
207 47 44
208 47 44
209 46 44
209 46 44
210 45 44
211 44 44
211 44 44
212 43 44
213 42 44
213 42 44
214 41 44
215 40 44
215 40 44
216 39 44
216 39 44
217 38 44
218 37 44
218 37 44
219 36 44
220 35 44
220 35 44
221 34 44
222 33 44
222 33 44
223 32 44
223 31 44
224 31 44
225 30 44
225 30 44
226 29 44
227 28 44
227 28 44
228 27 44
229 26 44
229 26 44
230 25 44
231 24 44
231 24 44
232 23 44
232 23 44
233 22 44
234 21 44
234 21 44
235 20 44
236 19 44
236 19 44
237 18 44
238 17 44
238 17 44
239 16 44
239 15 44
240 15 44
241 14 44
241 14 44
242 13 44
243 12 44
243 12 44
244 11 44
245 10 44
245 10 44
246 9 44
247 8 44
247 8 44
248 7 44
248 7 44
249 6 44
250 5 44
250 5 44
251 4 44
252 3 44
252 3 44
253 2 44
254 1 44
254 1 44
255 0 44
0 255 45
0 255 45
1 254 45
1 254 45
2 253 45
3 252 45
3 252 45
4 251 45
5 250 45
5 250 45
6 249 45
7 248 45
7 248 45
8 247 45
8 247 45
9 246 45
10 245 45
10 245 45
11 244 45
12 243 45
12 243 45
13 242 45
14 241 45
14 241 45
15 240 45
15 239 45
16 239 45
17 238 45
17 238 45
18 237 45
19 236 45
19 236 45
20 235 45
21 234 45
21 234 45
22 233 45
23 232 45
23 232 45
24 231 45
24 231 45
25 230 45
26 229 45
26 229 45
27 228 45
28 227 45
28 227 45
29 226 45
30 225 45
30 225 45
31 224 45
31 223 45
32 223 45
33 222 45
33 222 45
34 221 45
35 220 45
35 220 45
36 219 45
37 218 45
37 218 45
38 217 45
39 216 45
39 216 45
40 215 45
40 215 45
41 214 45
42 213 45
42 213 45
43 212 45
44 211 45
44 211 45
45 210 45
46 209 45
46 209 45
47 208 45
47 207 45
48 207 45
49 206 45
49 206 45
50 205 45
51 204 45
51 204 45
52 203 45
53 202 45
53 202 45
54 201 45
55 200 45
55 200 45
56 199 45
56 199 45
57 198 45
58 197 45
58 197 45
59 196 45
60 195 45
60 195 45
61 194 45
62 193 45
62 193 45
63 192 45
63 191 45
64 191 45
65 190 45
65 190 45
66 189 45
67 188 45
67 188 45
68 187 45
69 186 45
69 186 45
70 185 45
71 184 45
71 184 45
72 183 45
72 183 45
73 182 45
74 181 45
74 181 45
75 180 45
76 179 45
76 179 45
77 178 45
78 177 45
78 177 45
79 176 45
79 175 45
80 175 45
81 174 45
81 174 45
82 173 45
83 172 45
83 172 45
84 171 45
85 170 45
85 170 45
86 169 45
87 168 45
87 168 45
88 167 45
88 167 45
89 166 45
90 165 45
90 165 45
91 164 45
92 163 45
92 163 45
93 162 45
94 161 45
94 161 45
95 160 45
95 159 45
96 159 45
97 158 45
97 158 45
98 157 45
99 156 45
99 156 45
100 155 45
101 154 45
101 154 45
102 153 45
103 152 45
103 152 45
104 151 45
104 151 45
105 150 45
106 149 45
106 149 45
107 148 45
108 147 45
108 147 45
109 146 45
110 145 45
110 145 45
111 144 45
111 143 45
112 143 45
113 142 45
113 142 45
114 141 45
115 140 45
115 140 45
116 139 45
117 138 45
117 138 45
118 137 45
119 136 45
119 136 45
120 135 45
120 135 45
121 134 45
122 133 45
122 133 45
123 132 45
124 131 45
124 131 45
125 130 45
126 129 45
126 129 45
127 128 45
127 127 45
128 127 45
129 126 45
129 126 45
130 125 45
131 124 45
131 124 45
132 123 45
133 122 45
133 122 45
134 121 45
135 120 45
135 120 45
136 119 45
136 119 45
137 118 45
138 117 45
138 117 45
139 116 45
140 115 45
140 115 45
141 114 45
142 113 45
142 113 45
143 112 45
143 111 45
144 111 45
145 110 45
145 110 45
146 109 45
147 108 45
147 108 45
148 107 45
149 106 45
149 106 45
150 105 45
151 104 45
151 104 45
152 103 45
152 103 45
153 102 45
154 101 45
154 101 45
155 100 45
156 99 45
156 99 45
157 98 45
158 97 45
158 97 45
159 96 45
159 95 45
160 95 45
161 94 45
161 94 45
162 93 45
163 92 45
163 92 45
164 91 45
165 90 45
165 90 45
166 89 45
167 88 45
167 88 45
168 87 45
168 87 45
169 86 45
170 85 45
170 85 45
171 84 45
172 83 45
172 83 45
173 82 45
174 81 45
174 81 45
175 80 45
175 79 45
176 79 45
177 78 45
177 78 45
178 77 45
179 76 45
179 76 45
180 75 45
181 74 45
181 74 45
182 73 45
183 72 45
183 72 45
184 71 45
184 71 45
185 70 45
186 69 45
186 69 45
187 68 45
188 67 45
188 67 45
189 66 45
190 65 45
190 65 45
191 64 45
191 63 45
192 63 45
193 62 45
193 62 45
194 61 45
195 60 45
195 60 45
196 59 45
197 58 45
197 58 45
198 57 45
199 56 45
199 56 45
200 55 45
200 55 45
201 54 45
202 53 45
202 53 45
203 52 45
204 51 45
204 51 45
205 50 45
206 49 45
206 49 45
207 48 45
207 47 45
208 47 45
209 46 45
209 46 45
210 45 45
211 44 45
211 44 45
212 43 45
213 42 45
213 42 45
214 41 45
215 40 45
215 40 45
216 39 45
216 39 45
217 38 45
218 37 45
218 37 45
219 36 45
220 35 45
220 35 45
221 34 45
222 33 45
222 33 45
223 32 45
223 31 45
224 31 45
225 30 45
225 30 45
226 29 45
227 28 45
227 28 45
228 27 45
229 26 45
229 26 45
230 25 45
231 24 45
231 24 45
232 23 45
232 23 45
233 22 45
234 21 45
234 21 45
235 20 45
236 19 45
236 19 45
237 18 45
238 17 45
238 17 45
239 16 45
239 15 45
240 15 45
241 14 45
241 14 45
242 13 45
243 12 45
243 12 45
244 11 45
245 10 45
245 10 45
246 9 45
247 8 45
247 8 45
248 7 45
248 7 45
249 6 45
250 5 45
250 5 45
251 4 45
252 3 45
252 3 45
253 2 45
254 1 45
254 1 45
255 0 45
0 255 46
0 255 46
1 254 46
1 254 46
2 253 46
3 252 46
3 252 46
4 251 46
5 250 46
5 250 46
6 249 46
7 248 46
7 248 46
8 247 46
8 247 46
9 246 46
10 245 46
10 245 46
11 244 46
12 243 46
12 243 46
13 242 46
14 241 46
14 241 46
15 240 46
15 239 46
16 239 46
17 238 46
17 238 46
18 237 46
19 236 46
19 236 46
20 235 46
21 234 46
21 234 46
22 233 46
23 232 46
23 232 46
24 231 46
24 231 46
25 230 46
26 229 46
26 229 46
27 228 46
28 227 46
28 227 46
29 226 46
30 225 46
30 225 46
31 224 46
31 223 46
32 223 46
33 222 46
33 222 46
34 221 46
35 220 46
35 220 46
36 219 46
37 218 46
37 218 46
38 217 46
39 216 46
39 216 46
40 215 46
40 215 46
41 214 46
42 213 46
42 213 46
43 212 46
44 211 46
44 211 46
45 210 46
46 209 46
46 209 46
47 208 46
47 207 46
48 207 46
49 206 46
49 206 46
50 205 46
51 204 46
51 204 46
52 203 46
53 202 46
53 202 46
54 201 46
55 200 46
55 200 46
56 199 46
56 199 46
57 198 46
58 197 46
58 197 46
59 196 46
60 195 46
60 195 46
61 194 46
62 193 46
62 193 46
63 192 46
63 191 46
64 191 46
65 190 46
65 190 46
66 189 46
67 188 46
67 188 46
68 187 46
69 186 46
69 186 46
70 185 46
71 184 46
71 184 46
72 183 46
72 183 46
73 182 46
74 181 46
74 181 46
75 180 46
76 179 46
76 179 46
77 178 46
78 177 46
78 177 46
79 176 46
79 175 46
80 175 46
81 174 46
81 174 46
82 173 46
83 172 46
83 172 46
84 171 46
85 170 46
85 170 46
86 169 46
87 168 46
87 168 46
88 167 46
88 167 46
89 166 46
90 165 46
90 165 46
91 164 46
92 163 46
92 163 46
93 162 46
94 161 46
94 161 46
95 160 46
95 159 46
96 159 46
97 158 46
97 158 46
98 157 46
99 156 46
99 156 46
100 155 46
101 154 46
101 154 46
102 153 46
103 152 46
103 152 46
104 151 46
104 151 46
105 150 46
106 149 46
106 149 46
107 148 46
108 147 46
108 147 46
109 146 46
110 145 46
110 145 46
111 144 46
111 143 46
112 143 46
113 142 46
113 142 46
114 141 46
115 140 46
115 140 46
116 139 46
117 138 46
117 138 46
118 137 46
119 136 46
119 136 46
120 135 46
120 135 46
121 134 46
122 133 46
122 133 46
123 132 46
124 131 46
124 131 46
125 130 46
126 129 46
126 129 46
127 128 46
127 127 46
128 127 46
129 126 46
129 126 46
130 125 46
131 124 46
131 124 46
132 123 46
133 122 46
133 122 46
134 121 46
135 120 46
135 120 46
136 119 46
136 119 46
137 118 46
138 117 46
138 117 46
139 116 46
140 115 46
140 115 46
141 114 46
142 113 46
142 113 46
143 112 46
143 111 46
144 111 46
145 110 46
145 110 46
146 109 46
147 108 46
147 108 46
148 107 46
149 106 46
149 106 46
150 105 46
151 104 46
151 104 46
152 103 46
152 103 46
153 102 46
154 101 46
154 101 46
155 100 46
156 99 46
156 99 46
157 98 46
158 97 46
158 97 46
159 96 46
159 95 46
160 95 46
161 94 46
161 94 46
162 93 46
163 92 46
163 92 46
164 91 46
165 90 46
165 90 46
166 89 46
167 88 46
167 88 46
168 87 46
168 87 46
169 86 46
170 85 46
170 85 46
171 84 46
172 83 46
172 83 46
173 82 46
174 81 46
174 81 46
175 80 46
175 79 46
176 79 46
177 78 46
177 78 46
178 77 46
179 76 46
179 76 46
180 75 46
181 74 46
181 74 46
182 73 46
183 72 46
183 72 46
184 71 46
184 71 46
185 70 46
186 69 46
186 69 46
187 68 46
188 67 46
188 67 46
189 66 46
190 65 46
190 65 46
191 64 46
191 63 46
192 63 46
193 62 46
193 62 46
194 61 46
195 60 46
195 60 46
196 59 46
197 58 46
197 58 46
198 57 46
199 56 46
199 56 46
200 55 46
200 55 46
201 54 46
202 53 46
202 53 46
203 52 46
204 51 46
204 51 46
205 50 46
206 49 46
206 49 46
207 48 46
207 47 46
208 47 46
209 46 46
209 46 46
210 45 46
211 44 46
211 44 46
212 43 46
213 42 46
213 42 46
214 41 46
215 40 46
215 40 46
216 39 46
216 39 46
217 38 46
218 37 46
218 37 46
219 36 46
220 35 46
220 35 46
221 34 46
222 33 46
222 33 46
223 32 46
223 31 46
224 31 46
225 30 46
225 30 46
226 29 46
227 28 46
227 28 46
228 27 46
229 26 46
229 26 46
230 25 46
231 24 46
231 24 46
232 23 46
232 23 46
233 22 46
234 21 46
234 21 46
235 20 46
236 19 46
236 19 46
237 18 46
238 17 46
238 17 46
239 16 46
239 15 46
240 15 46
241 14 46
241 14 46
242 13 46
243 12 46
243 12 46
244 11 46
245 10 46
245 10 46
246 9 46
247 8 46
247 8 46
248 7 46
248 7 46
249 6 46
250 5 46
250 5 46
251 4 46
252 3 46
252 3 46
253 2 46
254 1 46
254 1 46
255 0 46
0 255 47
0 255 47
1 254 47
1 254 47
2 253 47
3 252 47
3 252 47
4 251 47
5 250 47
5 250 47
6 249 47
7 248 47
7 248 47
8 247 47
8 247 47
9 246 47
10 245 47
10 245 47
11 244 47
12 243 47
12 243 47
13 242 47
14 241 47
14 241 47
15 240 47
15 239 47
16 239 47
17 238 47
17 238 47
18 237 47
19 236 47
19 236 47
20 235 47
21 234 47
21 234 47
22 233 47
23 232 47
23 232 47
24 231 47
24 231 47
25 230 47
26 229 47
26 229 47
27 228 47
28 227 47
28 227 47
29 226 47
30 225 47
30 225 47
31 224 47
31 223 47
32 223 47
33 222 47
33 222 47
34 221 47
35 220 47
35 220 47
36 219 47
37 218 47
37 218 47
38 217 47
39 216 47
39 216 47
40 215 47
40 215 47
41 214 47
42 213 47
42 213 47
43 212 47
44 211 47
44 211 47
45 210 47
46 209 47
46 209 47
47 208 47
47 207 47
48 207 47
49 206 47
49 206 47
50 205 47
51 204 47
51 204 47
52 203 47
53 202 47
53 202 47
54 201 47
55 200 47
55 200 47
56 199 47
56 199 47
57 198 47
58 197 47
58 197 47
59 196 47
60 195 47
60 195 47
61 194 47
62 193 47
62 193 47
63 192 47
63 191 47
64 191 47
65 190 47
65 190 47
66 189 47
67 188 47
67 188 47
68 187 47
69 186 47
69 186 47
70 185 47
71 184 47
71 184 47
72 183 47
72 183 47
73 182 47
74 181 47
74 181 47
75 180 47
76 179 47
76 179 47
77 178 47
78 177 47
78 177 47
79 176 47
79 175 47
80 175 47
81 174 47
81 174 47
82 173 47
83 172 47
83 172 47
84 171 47
85 170 47
85 170 47
86 169 47
87 168 47
87 168 47
88 167 47
88 167 47
89 166 47
90 165 47
90 165 47
91 164 47
92 163 47
92 163 47
93 162 47
94 161 47
94 161 47
95 160 47
95 159 47
96 159 47
97 158 47
97 158 47
98 157 47
99 156 47
99 156 47
100 155 47
101 154 47
101 154 47
102 153 47
103 152 47
103 152 47
104 151 47
104 151 47
105 150 47
106 149 47
106 149 47
107 148 47
108 147 47
108 147 47
109 146 47
110 145 47
110 145 47
111 144 47
111 143 47
112 143 47
113 142 47
113 142 47
114 141 47
115 140 47
115 140 47
116 139 47
117 138 47
117 138 47
118 137 47
119 136 47
119 136 47
120 135 47
120 135 47
121 134 47
122 133 47
122 133 47
123 132 47
124 131 47
124 131 47
125 130 47
126 129 47
126 129 47
127 128 47
127 127 47
128 127 47
129 126 47
129 126 47
130 125 47
131 124 47
131 124 47
132 123 47
133 122 47
133 122 47
134 121 47
135 120 47
135 120 47
136 119 47
136 119 47
137 118 47
138 117 47
138 117 47
139 116 47
140 115 47
140 115 47
141 114 47
142 113 47
142 113 47
143 112 47
143 111 47
144 111 47
145 110 47
145 110 47
146 109 47
147 108 47
147 108 47
148 107 47
149 106 47
149 106 47
150 105 47
151 104 47
151 104 47
152 103 47
152 103 47
153 102 47
154 101 47
154 101 47
155 100 47
156 99 47
156 99 47
157 98 47
158 97 47
158 97 47
159 96 47
159 95 47
160 95 47
161 94 47
161 94 47
162 93 47
163 92 47
163 92 47
164 91 47
165 90 47
165 90 47
166 89 47
167 88 47
167 88 47
168 87 47
168 87 47
169 86 47
170 85 47
170 85 47
171 84 47
172 83 47
172 83 47
173 82 47
174 81 47
174 81 47
175 80 47
175 79 47
176 79 47
177 78 47
177 78 47
178 77 47
179 76 47
179 76 47
180 75 47
181 74 47
181 74 47
182 73 47
183 72 47
183 72 47
184 71 47
184 71 47
185 70 47
186 69 47
186 69 47
187 68 47
188 67 47
188 67 47
189 66 47
190 65 47
190 65 47
191 64 47
191 63 47
192 63 47
193 62 47
193 62 47
194 61 47
195 60 47
195 60 47
196 59 47
197 58 47
197 58 47
198 57 47
199 56 47
199 56 47
200 55 47
200 55 47
201 54 47
202 53 47
202 53 47
203 52 47
204 51 47
204 51 47
205 50 47
206 49 47
206 49 47
207 48 47
207 47 47
208 47 47
209 46 47
209 46 47
210 45 47
211 44 47
211 44 47
212 43 47
213 42 47
213 42 47
214 41 47
215 40 47
215 40 47
216 39 47
216 39 47
217 38 47
218 37 47
218 37 47
219 36 47
220 35 47
220 35 47
221 34 47
222 33 47
222 33 47
223 32 47
223 31 47
224 31 47
225 30 47
225 30 47
226 29 47
227 28 47
227 28 47
228 27 47
229 26 47
229 26 47
230 25 47
231 24 47
231 24 47
232 23 47
232 23 47
233 22 47
234 21 47
234 21 47
235 20 47
236 19 47
236 19 47
237 18 47
238 17 47
238 17 47
239 16 47
239 15 47
240 15 47
241 14 47
241 14 47
242 13 47
243 12 47
243 12 47
244 11 47
245 10 47
245 10 47
246 9 47
247 8 47
247 8 47
248 7 47
248 7 47
249 6 47
250 5 47
250 5 47
251 4 47
252 3 47
252 3 47
253 2 47
254 1 47
254 1 47
255 0 47
0 255 48
0 255 48
1 254 48
1 254 48
2 253 48
3 252 48
3 252 48
4 251 48
5 250 48
5 250 48
6 249 48
7 248 48
7 248 48
8 247 48
8 247 48
9 246 48
10 245 48
10 245 48
11 244 48
12 243 48
12 243 48
13 242 48
14 241 48
14 241 48
15 240 48
15 239 48
16 239 48
17 238 48
17 238 48
18 237 48
19 236 48
19 236 48
20 235 48
21 234 48
21 234 48
22 233 48
23 232 48
23 232 48
24 231 48
24 231 48
25 230 48
26 229 48
26 229 48
27 228 48
28 227 48
28 227 48
29 226 48
30 225 48
30 225 48
31 224 48
31 223 48
32 223 48
33 222 48
33 222 48
34 221 48
35 220 48
35 220 48
36 219 48
37 218 48
37 218 48
38 217 48
39 216 48
39 216 48
40 215 48
40 215 48
41 214 48
42 213 48
42 213 48
43 212 48
44 211 48
44 211 48
45 210 48
46 209 48
46 209 48
47 208 48
47 207 48
48 207 48
49 206 48
49 206 48
50 205 48
51 204 48
51 204 48
52 203 48
53 202 48
53 202 48
54 201 48
55 200 48
55 200 48
56 199 48
56 199 48
57 198 48
58 197 48
58 197 48
59 196 48
60 195 48
60 195 48
61 194 48
62 193 48
62 193 48
63 192 48
63 191 48
64 191 48
65 190 48
65 190 48
66 189 48
67 188 48
67 188 48
68 187 48
69 186 48
69 186 48
70 185 48
71 184 48
71 184 48
72 183 48
72 183 48
73 182 48
74 181 48
74 181 48
75 180 48
76 179 48
76 179 48
77 178 48
78 177 48
78 177 48
79 176 48
79 175 48
80 175 48
81 174 48
81 174 48
82 173 48
83 172 48
83 172 48
84 171 48
85 170 48
85 170 48
86 169 48
87 168 48
87 168 48
88 167 48
88 167 48
89 166 48
90 165 48
90 165 48
91 164 48
92 163 48
92 163 48
93 162 48
94 161 48
94 161 48
95 160 48
95 159 48
96 159 48
97 158 48
97 158 48
98 157 48
99 156 48
99 156 48
100 155 48
101 154 48
101 154 48
102 153 48
103 152 48
103 152 48
104 151 48
104 151 48
105 150 48
106 149 48
106 149 48
107 148 48
108 147 48
108 147 48
109 146 48
110 145 48
110 145 48
111 144 48
111 143 48
112 143 48
113 142 48
113 142 48
114 141 48
115 140 48
115 140 48
116 139 48
117 138 48
117 138 48
118 137 48
119 136 48
119 136 48
120 135 48
120 135 48
121 134 48
122 133 48
122 133 48
123 132 48
124 131 48
124 131 48
125 130 48
126 129 48
126 129 48
127 128 48
127 127 48
128 127 48
129 126 48
129 126 48
130 125 48
131 124 48
131 124 48
132 123 48
133 122 48
133 122 48
134 121 48
135 120 48
135 120 48
136 119 48
136 119 48
137 118 48
138 117 48
138 117 48
139 116 48
140 115 48
140 115 48
141 114 48
142 113 48
142 113 48
143 112 48
143 111 48
144 111 48
145 110 48
145 110 48
146 109 48
147 108 48
147 108 48
148 107 48
149 106 48
149 106 48
150 105 48
151 104 48
151 104 48
152 103 48
152 103 48
153 102 48
154 101 48
154 101 48
155 100 48
156 99 48
156 99 48
157 98 48
158 97 48
158 97 48
159 96 48
159 95 48
160 95 48
161 94 48
161 94 48
162 93 48
163 92 48
163 92 48
164 91 48
165 90 48
165 90 48
166 89 48
167 88 48
167 88 48
168 87 48
168 87 48
169 86 48
170 85 48
170 85 48
171 84 48
172 83 48
172 83 48
173 82 48
174 81 48
174 81 48
175 80 48
175 79 48
176 79 48
177 78 48
177 78 48
178 77 48
179 76 48
179 76 48
180 75 48
181 74 48
181 74 48
182 73 48
183 72 48
183 72 48
184 71 48
184 71 48
185 70 48
186 69 48
186 69 48
187 68 48
188 67 48
188 67 48
189 66 48
190 65 48
190 65 48
191 64 48
191 63 48
192 63 48
193 62 48
193 62 48
194 61 48
195 60 48
195 60 48
196 59 48
197 58 48
197 58 48
198 57 48
199 56 48
199 56 48
200 55 48
200 55 48
201 54 48
202 53 48
202 53 48
203 52 48
204 51 48
204 51 48
205 50 48
206 49 48
206 49 48
207 48 48
207 47 48
208 47 48
209 46 48
209 46 48
210 45 48
211 44 48
211 44 48
212 43 48
213 42 48
213 42 48
214 41 48
215 40 48
215 40 48
216 39 48
216 39 48
217 38 48
218 37 48
218 37 48
219 36 48
220 35 48
220 35 48
221 34 48
222 33 48
222 33 48
223 32 48
223 31 48
224 31 48
225 30 48
225 30 48
226 29 48
227 28 48
227 28 48
228 27 48
229 26 48
229 26 48
230 25 48
231 24 48
231 24 48
232 23 48
232 23 48
233 22 48
234 21 48
234 21 48
235 20 48
236 19 48
236 19 48
237 18 48
238 17 48
238 17 48
239 16 48
239 15 48
240 15 48
241 14 48
241 14 48
242 13 48
243 12 48
243 12 48
244 11 48
245 10 48
245 10 48
246 9 48
247 8 48
247 8 48
248 7 48
248 7 48
249 6 48
250 5 48
250 5 48
251 4 48
252 3 48
252 3 48
253 2 48
254 1 48
254 1 48
255 0 48
0 255 50
0 255 50
1 254 50
1 254 50
2 253 50
3 252 50
3 252 50
4 251 50
5 250 50
5 250 50
6 249 50
7 248 50
7 248 50
8 247 50
8 247 50
9 246 50
10 245 50
10 245 50
11 244 50
12 243 50
12 243 50
13 242 50
14 241 50
14 241 50
15 240 50
15 239 50
16 239 50
17 238 50
17 238 50
18 237 50
19 236 50
19 236 50
20 235 50
21 234 50
21 234 50
22 233 50
23 232 50
23 232 50
24 231 50
24 231 50
25 230 50
26 229 50
26 229 50
27 228 50
28 227 50
28 227 50
29 226 50
30 225 50
30 225 50
31 224 50
31 223 50
32 223 50
33 222 50
33 222 50
34 221 50
35 220 50
35 220 50
36 219 50
37 218 50
37 218 50
38 217 50
39 216 50
39 216 50
40 215 50
40 215 50
41 214 50
42 213 50
42 213 50
43 212 50
44 211 50
44 211 50
45 210 50
46 209 50
46 209 50
47 208 50
47 207 50
48 207 50
49 206 50
49 206 50
50 205 50
51 204 50
51 204 50
52 203 50
53 202 50
53 202 50
54 201 50
55 200 50
55 200 50
56 199 50
56 199 50
57 198 50
58 197 50
58 197 50
59 196 50
60 195 50
60 195 50
61 194 50
62 193 50
62 193 50
63 192 50
63 191 50
64 191 50
65 190 50
65 190 50
66 189 50
67 188 50
67 188 50
68 187 50
69 186 50
69 186 50
70 185 50
71 184 50
71 184 50
72 183 50
72 183 50
73 182 50
74 181 50
74 181 50
75 180 50
76 179 50
76 179 50
77 178 50
78 177 50
78 177 50
79 176 50
79 175 50
80 175 50
81 174 50
81 174 50
82 173 50
83 172 50
83 172 50
84 171 50
85 170 50
85 170 50
86 169 50
87 168 50
87 168 50
88 167 50
88 167 50
89 166 50
90 165 50
90 165 50
91 164 50
92 163 50
92 163 50
93 162 50
94 161 50
94 161 50
95 160 50
95 159 50
96 159 50
97 158 50
97 158 50
98 157 50
99 156 50
99 156 50
100 155 50
101 154 50
101 154 50
102 153 50
103 152 50
103 152 50
104 151 50
104 151 50
105 150 50
106 149 50
106 149 50
107 148 50
108 147 50
108 147 50
109 146 50
110 145 50
110 145 50
111 144 50
111 143 50
112 143 50
113 142 50
113 142 50
114 141 50
115 140 50
115 140 50
116 139 50
117 138 50
117 138 50
118 137 50
119 136 50
119 136 50
120 135 50
120 135 50
121 134 50
122 133 50
122 133 50
123 132 50
124 131 50
124 131 50
125 130 50
126 129 50
126 129 50
127 128 50
127 127 50
128 127 50
129 126 50
129 126 50
130 125 50
131 124 50
131 124 50
132 123 50
133 122 50
133 122 50
134 121 50
135 120 50
135 120 50
136 119 50
136 119 50
137 118 50
138 117 50
138 117 50
139 116 50
140 115 50
140 115 50
141 114 50
142 113 50
142 113 50
143 112 50
143 111 50
144 111 50
145 110 50
145 110 50
146 109 50
147 108 50
147 108 50
148 107 50
149 106 50
149 106 50
150 105 50
151 104 50
151 104 50
152 103 50
152 103 50
153 102 50
154 101 50
154 101 50
155 100 50
156 99 50
156 99 50
157 98 50
158 97 50
158 97 50
159 96 50
159 95 50
160 95 50
161 94 50
161 94 50
162 93 50
163 92 50
163 92 50
164 91 50
165 90 50
165 90 50
166 89 50
167 88 50
167 88 50
168 87 50
168 87 50
169 86 50
170 85 50
170 85 50
171 84 50
172 83 50
172 83 50
173 82 50
174 81 50
174 81 50
175 80 50
175 79 50
176 79 50
177 78 50
177 78 50
178 77 50
179 76 50
179 76 50
180 75 50
181 74 50
181 74 50
182 73 50
183 72 50
183 72 50
184 71 50
184 71 50
185 70 50
186 69 50
186 69 50
187 68 50
188 67 50
188 67 50
189 66 50
190 65 50
190 65 50
191 64 50
191 63 50
192 63 50
193 62 50
193 62 50
194 61 50
195 60 50
195 60 50
196 59 50
197 58 50
197 58 50
198 57 50
199 56 50
199 56 50
200 55 50
200 55 50
201 54 50
202 53 50
202 53 50
203 52 50
204 51 50
204 51 50
205 50 50
206 49 50
206 49 50
207 48 50
207 47 50
208 47 50
209 46 50
209 46 50
210 45 50
211 44 50
211 44 50
212 43 50
213 42 50
213 42 50
214 41 50
215 40 50
215 40 50
216 39 50
216 39 50
217 38 50
218 37 50
218 37 50
219 36 50
220 35 50
220 35 50
221 34 50
222 33 50
222 33 50
223 32 50
223 31 50
224 31 50
225 30 50
225 30 50
226 29 50
227 28 50
227 28 50
228 27 50
229 26 50
229 26 50
230 25 50
231 24 50
231 24 50
232 23 50
232 23 50
233 22 50
234 21 50
234 21 50
235 20 50
236 19 50
236 19 50
237 18 50
238 17 50
238 17 50
239 16 50
239 15 50
240 15 50
241 14 50
241 14 50
242 13 50
243 12 50
243 12 50
244 11 50
245 10 50
245 10 50
246 9 50
247 8 50
247 8 50
248 7 50
248 7 50
249 6 50
250 5 50
250 5 50
251 4 50
252 3 50
252 3 50
253 2 50
254 1 50
254 1 50
255 0 50
0 255 51
0 255 51
1 254 51
1 254 51
2 253 51
3 252 51
3 252 51
4 251 51
5 250 51
5 250 51
6 249 51
7 248 51
7 248 51
8 247 51
8 247 51
9 246 51
10 245 51
10 245 51
11 244 51
12 243 51
12 243 51
13 242 51
14 241 51
14 241 51
15 240 51
15 239 51
16 239 51
17 238 51
17 238 51
18 237 51
19 236 51
19 236 51
20 235 51
21 234 51
21 234 51
22 233 51
23 232 51
23 232 51
24 231 51
24 231 51
25 230 51
26 229 51
26 229 51
27 228 51
28 227 51
28 227 51
29 226 51
30 225 51
30 225 51
31 224 51
31 223 51
32 223 51
33 222 51
33 222 51
34 221 51
35 220 51
35 220 51
36 219 51
37 218 51
37 218 51
38 217 51
39 216 51
39 216 51
40 215 51
40 215 51
41 214 51
42 213 51
42 213 51
43 212 51
44 211 51
44 211 51
45 210 51
46 209 51
46 209 51
47 208 51
47 207 51
48 207 51
49 206 51
49 206 51
50 205 51
51 204 51
51 204 51
52 203 51
53 202 51
53 202 51
54 201 51
55 200 51
55 200 51
56 199 51
56 199 51
57 198 51
58 197 51
58 197 51
59 196 51
60 195 51
60 195 51
61 194 51
62 193 51
62 193 51
63 192 51
63 191 51
64 191 51
65 190 51
65 190 51
66 189 51
67 188 51
67 188 51
68 187 51
69 186 51
69 186 51
70 185 51
71 184 51
71 184 51
72 183 51
72 183 51
73 182 51
74 181 51
74 181 51
75 180 51
76 179 51
76 179 51
77 178 51
78 177 51
78 177 51
79 176 51
79 175 51
80 175 51
81 174 51
81 174 51
82 173 51
83 172 51
83 172 51
84 171 51
85 170 51
85 170 51
86 169 51
87 168 51
87 168 51
88 167 51
88 167 51
89 166 51
90 165 51
90 165 51
91 164 51
92 163 51
92 163 51
93 162 51
94 161 51
94 161 51
95 160 51
95 159 51
96 159 51
97 158 51
97 158 51
98 157 51
99 156 51
99 156 51
100 155 51
101 154 51
101 154 51
102 153 51
103 152 51
103 152 51
104 151 51
104 151 51
105 150 51
106 149 51
106 149 51
107 148 51
108 147 51
108 147 51
109 146 51
110 145 51
110 145 51
111 144 51
111 143 51
112 143 51
113 142 51
113 142 51
114 141 51
115 140 51
115 140 51
116 139 51
117 138 51
117 138 51
118 137 51
119 136 51
119 136 51
120 135 51
120 135 51
121 134 51
122 133 51
122 133 51
123 132 51
124 131 51
124 131 51
125 130 51
126 129 51
126 129 51
127 128 51
127 127 51
128 127 51
129 126 51
129 126 51
130 125 51
131 124 51
131 124 51
132 123 51
133 122 51
133 122 51
134 121 51
135 120 51
135 120 51
136 119 51
136 119 51
137 118 51
138 117 51
138 117 51
139 116 51
140 115 51
140 115 51
141 114 51
142 113 51
142 113 51
143 112 51
143 111 51
144 111 51
145 110 51
145 110 51
146 109 51
147 108 51
147 108 51
148 107 51
149 106 51
149 106 51
150 105 51
151 104 51
151 104 51
152 103 51
152 103 51
153 102 51
154 101 51
154 101 51
155 100 51
156 99 51
156 99 51
157 98 51
158 97 51
158 97 51
159 96 51
159 95 51
160 95 51
161 94 51
161 94 51
162 93 51
163 92 51
163 92 51
164 91 51
165 90 51
165 90 51
166 89 51
167 88 51
167 88 51
168 87 51
168 87 51
169 86 51
170 85 51
170 85 51
171 84 51
172 83 51
172 83 51
173 82 51
174 81 51
174 81 51
175 80 51
175 79 51
176 79 51
177 78 51
177 78 51
178 77 51
179 76 51
179 76 51
180 75 51
181 74 51
181 74 51
182 73 51
183 72 51
183 72 51
184 71 51
184 71 51
185 70 51
186 69 51
186 69 51
187 68 51
188 67 51
188 67 51
189 66 51
190 65 51
190 65 51
191 64 51
191 63 51
192 63 51
193 62 51
193 62 51
194 61 51
195 60 51
195 60 51
196 59 51
197 58 51
197 58 51
198 57 51
199 56 51
199 56 51
200 55 51
200 55 51
201 54 51
202 53 51
202 53 51
203 52 51
204 51 51
204 51 51
205 50 51
206 49 51
206 49 51
207 48 51
207 47 51
208 47 51
209 46 51
209 46 51
210 45 51
211 44 51
211 44 51
212 43 51
213 42 51
213 42 51
214 41 51
215 40 51
215 40 51
216 39 51
216 39 51
217 38 51
218 37 51
218 37 51
219 36 51
220 35 51
220 35 51
221 34 51
222 33 51
222 33 51
223 32 51
223 31 51
224 31 51
225 30 51
225 30 51
226 29 51
227 28 51
227 28 51
228 27 51
229 26 51
229 26 51
230 25 51
231 24 51
231 24 51
232 23 51
232 23 51
233 22 51
234 21 51
234 21 51
235 20 51
236 19 51
236 19 51
237 18 51
238 17 51
238 17 51
239 16 51
239 15 51
240 15 51
241 14 51
241 14 51
242 13 51
243 12 51
243 12 51
244 11 51
245 10 51
245 10 51
246 9 51
247 8 51
247 8 51
248 7 51
248 7 51
249 6 51
250 5 51
250 5 51
251 4 51
252 3 51
252 3 51
253 2 51
254 1 51
254 1 51
255 0 51
0 255 52
0 255 52
1 254 52
1 254 52
2 253 52
3 252 52
3 252 52
4 251 52
5 250 52
5 250 52
6 249 52
7 248 52
7 248 52
8 247 52
8 247 52
9 246 52
10 245 52
10 245 52
11 244 52
12 243 52
12 243 52
13 242 52
14 241 52
14 241 52
15 240 52
15 239 52
16 239 52
17 238 52
17 238 52
18 237 52
19 236 52
19 236 52
20 235 52
21 234 52
21 234 52
22 233 52
23 232 52
23 232 52
24 231 52
24 231 52
25 230 52
26 229 52
26 229 52
27 228 52
28 227 52
28 227 52
29 226 52
30 225 52
30 225 52
31 224 52
31 223 52
32 223 52
33 222 52
33 222 52
34 221 52
35 220 52
35 220 52
36 219 52
37 218 52
37 218 52
38 217 52
39 216 52
39 216 52
40 215 52
40 215 52
41 214 52
42 213 52
42 213 52
43 212 52
44 211 52
44 211 52
45 210 52
46 209 52
46 209 52
47 208 52
47 207 52
48 207 52
49 206 52
49 206 52
50 205 52
51 204 52
51 204 52
52 203 52
53 202 52
53 202 52
54 201 52
55 200 52
55 200 52
56 199 52
56 199 52
57 198 52
58 197 52
58 197 52
59 196 52
60 195 52
60 195 52
61 194 52
62 193 52
62 193 52
63 192 52
63 191 52
64 191 52
65 190 52
65 190 52
66 189 52
67 188 52
67 188 52
68 187 52
69 186 52
69 186 52
70 185 52
71 184 52
71 184 52
72 183 52
72 183 52
73 182 52
74 181 52
74 181 52
75 180 52
76 179 52
76 179 52
77 178 52
78 177 52
78 177 52
79 176 52
79 175 52
80 175 52
81 174 52
81 174 52
82 173 52
83 172 52
83 172 52
84 171 52
85 170 52
85 170 52
86 169 52
87 168 52
87 168 52
88 167 52
88 167 52
89 166 52
90 165 52
90 165 52
91 164 52
92 163 52
92 163 52
93 162 52
94 161 52
94 161 52
95 160 52
95 159 52
96 159 52
97 158 52
97 158 52
98 157 52
99 156 52
99 156 52
100 155 52
101 154 52
101 154 52
102 153 52
103 152 52
103 152 52
104 151 52
104 151 52
105 150 52
106 149 52
106 149 52
107 148 52
108 147 52
108 147 52
109 146 52
110 145 52
110 145 52
111 144 52
111 143 52
112 143 52
113 142 52
113 142 52
114 141 52
115 140 52
115 140 52
116 139 52
117 138 52
117 138 52
118 137 52
119 136 52
119 136 52
120 135 52
120 135 52
121 134 52
122 133 52
122 133 52
123 132 52
124 131 52
124 131 52
125 130 52
126 129 52
126 129 52
127 128 52
127 127 52
128 127 52
129 126 52
129 126 52
130 125 52
131 124 52
131 124 52
132 123 52
133 122 52
133 122 52
134 121 52
135 120 52
135 120 52
136 119 52
136 119 52
137 118 52
138 117 52
138 117 52
139 116 52
140 115 52
140 115 52
141 114 52
142 113 52
142 113 52
143 112 52
143 111 52
144 111 52
145 110 52
145 110 52
146 109 52
147 108 52
147 108 52
148 107 52
149 106 52
149 106 52
150 105 52
151 104 52
151 104 52
152 103 52
152 103 52
153 102 52
154 101 52
154 101 52
155 100 52
156 99 52
156 99 52
157 98 52
158 97 52
158 97 52
159 96 52
159 95 52
160 95 52
161 94 52
161 94 52
162 93 52
163 92 52
163 92 52
164 91 52
165 90 52
165 90 52
166 89 52
167 88 52
167 88 52
168 87 52
168 87 52
169 86 52
170 85 52
170 85 52
171 84 52
172 83 52
172 83 52
173 82 52
174 81 52
174 81 52
175 80 52
175 79 52
176 79 52
177 78 52
177 78 52
178 77 52
179 76 52
179 76 52
180 75 52
181 74 52
181 74 52
182 73 52
183 72 52
183 72 52
184 71 52
184 71 52
185 70 52
186 69 52
186 69 52
187 68 52
188 67 52
188 67 52
189 66 52
190 65 52
190 65 52
191 64 52
191 63 52
192 63 52
193 62 52
193 62 52
194 61 52
195 60 52
195 60 52
196 59 52
197 58 52
197 58 52
198 57 52
199 56 52
199 56 52
200 55 52
200 55 52
201 54 52
202 53 52
202 53 52
203 52 52
204 51 52
204 51 52
205 50 52
206 49 52
206 49 52
207 48 52
207 47 52
208 47 52
209 46 52
209 46 52
210 45 52
211 44 52
211 44 52
212 43 52
213 42 52
213 42 52
214 41 52
215 40 52
215 40 52
216 39 52
216 39 52
217 38 52
218 37 52
218 37 52
219 36 52
220 35 52
220 35 52
221 34 52
222 33 52
222 33 52
223 32 52
223 31 52
224 31 52
225 30 52
225 30 52
226 29 52
227 28 52
227 28 52
228 27 52
229 26 52
229 26 52
230 25 52
231 24 52
231 24 52
232 23 52
232 23 52
233 22 52
234 21 52
234 21 52
235 20 52
236 19 52
236 19 52
237 18 52
238 17 52
238 17 52
239 16 52
239 15 52
240 15 52
241 14 52
241 14 52
242 13 52
243 12 52
243 12 52
244 11 52
245 10 52
245 10 52
246 9 52
247 8 52
247 8 52
248 7 52
248 7 52
249 6 52
250 5 52
250 5 52
251 4 52
252 3 52
252 3 52
253 2 52
254 1 52
254 1 52
255 0 52
0 255 53
0 255 53
1 254 53
1 254 53
2 253 53
3 252 53
3 252 53
4 251 53
5 250 53
5 250 53
6 249 53
7 248 53
7 248 53
8 247 53
8 247 53
9 246 53
10 245 53
10 245 53
11 244 53
12 243 53
12 243 53
13 242 53
14 241 53
14 241 53
15 240 53
15 239 53
16 239 53
17 238 53
17 238 53
18 237 53
19 236 53
19 236 53
20 235 53
21 234 53
21 234 53
22 233 53
23 232 53
23 232 53
24 231 53
24 231 53
25 230 53
26 229 53
26 229 53
27 228 53
28 227 53
28 227 53
29 226 53
30 225 53
30 225 53
31 224 53
31 223 53
32 223 53
33 222 53
33 222 53
34 221 53
35 220 53
35 220 53
36 219 53
37 218 53
37 218 53
38 217 53
39 216 53
39 216 53
40 215 53
40 215 53
41 214 53
42 213 53
42 213 53
43 212 53
44 211 53
44 211 53
45 210 53
46 209 53
46 209 53
47 208 53
47 207 53
48 207 53
49 206 53
49 206 53
50 205 53
51 204 53
51 204 53
52 203 53
53 202 53
53 202 53
54 201 53
55 200 53
55 200 53
56 199 53
56 199 53
57 198 53
58 197 53
58 197 53
59 196 53
60 195 53
60 195 53
61 194 53
62 193 53
62 193 53
63 192 53
63 191 53
64 191 53
65 190 53
65 190 53
66 189 53
67 188 53
67 188 53
68 187 53
69 186 53
69 186 53
70 185 53
71 184 53
71 184 53
72 183 53
72 183 53
73 182 53
74 181 53
74 181 53
75 180 53
76 179 53
76 179 53
77 178 53
78 177 53
78 177 53
79 176 53
79 175 53
80 175 53
81 174 53
81 174 53
82 173 53
83 172 53
83 172 53
84 171 53
85 170 53
85 170 53
86 169 53
87 168 53
87 168 53
88 167 53
88 167 53
89 166 53
90 165 53
90 165 53
91 164 53
92 163 53
92 163 53
93 162 53
94 161 53
94 161 53
95 160 53
95 159 53
96 159 53
97 158 53
97 158 53
98 157 53
99 156 53
99 156 53
100 155 53
101 154 53
101 154 53
102 153 53
103 152 53
103 152 53
104 151 53
104 151 53
105 150 53
106 149 53
106 149 53
107 148 53
108 147 53
108 147 53
109 146 53
110 145 53
110 145 53
111 144 53
111 143 53
112 143 53
113 142 53
113 142 53
114 141 53
115 140 53
115 140 53
116 139 53
117 138 53
117 138 53
118 137 53
119 136 53
119 136 53
120 135 53
120 135 53
121 134 53
122 133 53
122 133 53
123 132 53
124 131 53
124 131 53
125 130 53
126 129 53
126 129 53
127 128 53
127 127 53
128 127 53
129 126 53
129 126 53
130 125 53
131 124 53
131 124 53
132 123 53
133 122 53
133 122 53
134 121 53
135 120 53
135 120 53
136 119 53
136 119 53
137 118 53
138 117 53
138 117 53
139 116 53
140 115 53
140 115 53
141 114 53
142 113 53
142 113 53
143 112 53
143 111 53
144 111 53
145 110 53
145 110 53
146 109 53
147 108 53
147 108 53
148 107 53
149 106 53
149 106 53
150 105 53
151 104 53
151 104 53
152 103 53
152 103 53
153 102 53
154 101 53
154 101 53
155 100 53
156 99 53
156 99 53
157 98 53
158 97 53
158 97 53
159 96 53
159 95 53
160 95 53
161 94 53
161 94 53
162 93 53
163 92 53
163 92 53
164 91 53
165 90 53
165 90 53
166 89 53
167 88 53
167 88 53
168 87 53
168 87 53
169 86 53
170 85 53
170 85 53
171 84 53
172 83 53
172 83 53
173 82 53
174 81 53
174 81 53
175 80 53
175 79 53
176 79 53
177 78 53
177 78 53
178 77 53
179 76 53
179 76 53
180 75 53
181 74 53
181 74 53
182 73 53
183 72 53
183 72 53
184 71 53
184 71 53
185 70 53
186 69 53
186 69 53
187 68 53
188 67 53
188 67 53
189 66 53
190 65 53
190 65 53
191 64 53
191 63 53
192 63 53
193 62 53
193 62 53
194 61 53
195 60 53
195 60 53
196 59 53
197 58 53
197 58 53
198 57 53
199 56 53
199 56 53
200 55 53
200 55 53
201 54 53
202 53 53
202 53 53
203 52 53
204 51 53
204 51 53
205 50 53
206 49 53
206 49 53
207 48 53
207 47 53
208 47 53
209 46 53
209 46 53
210 45 53
211 44 53
211 44 53
212 43 53
213 42 53
213 42 53
214 41 53
215 40 53
215 40 53
216 39 53
216 39 53
217 38 53
218 37 53
218 37 53
219 36 53
220 35 53
220 35 53
221 34 53
222 33 53
222 33 53
223 32 53
223 31 53
224 31 53
225 30 53
225 30 53
226 29 53
227 28 53
227 28 53
228 27 53
229 26 53
229 26 53
230 25 53
231 24 53
231 24 53
232 23 53
232 23 53
233 22 53
234 21 53
234 21 53
235 20 53
236 19 53
236 19 53
237 18 53
238 17 53
238 17 53
239 16 53
239 15 53
240 15 53
241 14 53
241 14 53
242 13 53
243 12 53
243 12 53
244 11 53
245 10 53
245 10 53
246 9 53
247 8 53
247 8 53
248 7 53
248 7 53
249 6 53
250 5 53
250 5 53
251 4 53
252 3 53
252 3 53
253 2 53
254 1 53
254 1 53
255 0 53
0 255 54
0 255 54
1 254 54
1 254 54
2 253 54
3 252 54
3 252 54
4 251 54
5 250 54
5 250 54
6 249 54
7 248 54
7 248 54
8 247 54
8 247 54
9 246 54
10 245 54
10 245 54
11 244 54
12 243 54
12 243 54
13 242 54
14 241 54
14 241 54
15 240 54
15 239 54
16 239 54
17 238 54
17 238 54
18 237 54
19 236 54
19 236 54
20 235 54
21 234 54
21 234 54
22 233 54
23 232 54
23 232 54
24 231 54
24 231 54
25 230 54
26 229 54
26 229 54
27 228 54
28 227 54
28 227 54
29 226 54
30 225 54
30 225 54
31 224 54
31 223 54
32 223 54
33 222 54
33 222 54
34 221 54
35 220 54
35 220 54
36 219 54
37 218 54
37 218 54
38 217 54
39 216 54
39 216 54
40 215 54
40 215 54
41 214 54
42 213 54
42 213 54
43 212 54
44 211 54
44 211 54
45 210 54
46 209 54
46 209 54
47 208 54
47 207 54
48 207 54
49 206 54
49 206 54
50 205 54
51 204 54
51 204 54
52 203 54
53 202 54
53 202 54
54 201 54
55 200 54
55 200 54
56 199 54
56 199 54
57 198 54
58 197 54
58 197 54
59 196 54
60 195 54
60 195 54
61 194 54
62 193 54
62 193 54
63 192 54
63 191 54
64 191 54
65 190 54
65 190 54
66 189 54
67 188 54
67 188 54
68 187 54
69 186 54
69 186 54
70 185 54
71 184 54
71 184 54
72 183 54
72 183 54
73 182 54
74 181 54
74 181 54
75 180 54
76 179 54
76 179 54
77 178 54
78 177 54
78 177 54
79 176 54
79 175 54
80 175 54
81 174 54
81 174 54
82 173 54
83 172 54
83 172 54
84 171 54
85 170 54
85 170 54
86 169 54
87 168 54
87 168 54
88 167 54
88 167 54
89 166 54
90 165 54
90 165 54
91 164 54
92 163 54
92 163 54
93 162 54
94 161 54
94 161 54
95 160 54
95 159 54
96 159 54
97 158 54
97 158 54
98 157 54
99 156 54
99 156 54
100 155 54
101 154 54
101 154 54
102 153 54
103 152 54
103 152 54
104 151 54
104 151 54
105 150 54
106 149 54
106 149 54
107 148 54
108 147 54
108 147 54
109 146 54
110 145 54
110 145 54
111 144 54
111 143 54
112 143 54
113 142 54
113 142 54
114 141 54
115 140 54
115 140 54
116 139 54
117 138 54
117 138 54
118 137 54
119 136 54
119 136 54
120 135 54
120 135 54
121 134 54
122 133 54
122 133 54
123 132 54
124 131 54
124 131 54
125 130 54
126 129 54
126 129 54
127 128 54
127 127 54
128 127 54
129 126 54
129 126 54
130 125 54
131 124 54
131 124 54
132 123 54
133 122 54
133 122 54
134 121 54
135 120 54
135 120 54
136 119 54
136 119 54
137 118 54
138 117 54
138 117 54
139 116 54
140 115 54
140 115 54
141 114 54
142 113 54
142 113 54
143 112 54
143 111 54
144 111 54
145 110 54
145 110 54
146 109 54
147 108 54
147 108 54
148 107 54
149 106 54
149 106 54
150 105 54
151 104 54
151 104 54
152 103 54
152 103 54
153 102 54
154 101 54
154 101 54
155 100 54
156 99 54
156 99 54
157 98 54
158 97 54
158 97 54
159 96 54
159 95 54
160 95 54
161 94 54
161 94 54
162 93 54
163 92 54
163 92 54
164 91 54
165 90 54
165 90 54
166 89 54
167 88 54
167 88 54
168 87 54
168 87 54
169 86 54
170 85 54
170 85 54
171 84 54
172 83 54
172 83 54
173 82 54
174 81 54
174 81 54
175 80 54
175 79 54
176 79 54
177 78 54
177 78 54
178 77 54
179 76 54
179 76 54
180 75 54
181 74 54
181 74 54
182 73 54
183 72 54
183 72 54
184 71 54
184 71 54
185 70 54
186 69 54
186 69 54
187 68 54
188 67 54
188 67 54
189 66 54
190 65 54
190 65 54
191 64 54
191 63 54
192 63 54
193 62 54
193 62 54
194 61 54
195 60 54
195 60 54
196 59 54
197 58 54
197 58 54
198 57 54
199 56 54
199 56 54
200 55 54
200 55 54
201 54 54
202 53 54
202 53 54
203 52 54
204 51 54
204 51 54
205 50 54
206 49 54
206 49 54
207 48 54
207 47 54
208 47 54
209 46 54
209 46 54
210 45 54
211 44 54
211 44 54
212 43 54
213 42 54
213 42 54
214 41 54
215 40 54
215 40 54
216 39 54
216 39 54
217 38 54
218 37 54
218 37 54
219 36 54
220 35 54
220 35 54
221 34 54
222 33 54
222 33 54
223 32 54
223 31 54
224 31 54
225 30 54
225 30 54
226 29 54
227 28 54
227 28 54
228 27 54
229 26 54
229 26 54
230 25 54
231 24 54
231 24 54
232 23 54
232 23 54
233 22 54
234 21 54
234 21 54
235 20 54
236 19 54
236 19 54
237 18 54
238 17 54
238 17 54
239 16 54
239 15 54
240 15 54
241 14 54
241 14 54
242 13 54
243 12 54
243 12 54
244 11 54
245 10 54
245 10 54
246 9 54
247 8 54
247 8 54
248 7 54
248 7 54
249 6 54
250 5 54
250 5 54
251 4 54
252 3 54
252 3 54
253 2 54
254 1 54
254 1 54
255 0 54
0 255 55
0 255 55
1 254 55
1 254 55
2 253 55
3 252 55
3 252 55
4 251 55
5 250 55
5 250 55
6 249 55
7 248 55
7 248 55
8 247 55
8 247 55
9 246 55
10 245 55
10 245 55
11 244 55
12 243 55
12 243 55
13 242 55
14 241 55
14 241 55
15 240 55
15 239 55
16 239 55
17 238 55
17 238 55
18 237 55
19 236 55
19 236 55
20 235 55
21 234 55
21 234 55
22 233 55
23 232 55
23 232 55
24 231 55
24 231 55
25 230 55
26 229 55
26 229 55
27 228 55
28 227 55
28 227 55
29 226 55
30 225 55
30 225 55
31 224 55
31 223 55
32 223 55
33 222 55
33 222 55
34 221 55
35 220 55
35 220 55
36 219 55
37 218 55
37 218 55
38 217 55
39 216 55
39 216 55
40 215 55
40 215 55
41 214 55
42 213 55
42 213 55
43 212 55
44 211 55
44 211 55
45 210 55
46 209 55
46 209 55
47 208 55
47 207 55
48 207 55
49 206 55
49 206 55
50 205 55
51 204 55
51 204 55
52 203 55
53 202 55
53 202 55
54 201 55
55 200 55
55 200 55
56 199 55
56 199 55
57 198 55
58 197 55
58 197 55
59 196 55
60 195 55
60 195 55
61 194 55
62 193 55
62 193 55
63 192 55
63 191 55
64 191 55
65 190 55
65 190 55
66 189 55
67 188 55
67 188 55
68 187 55
69 186 55
69 186 55
70 185 55
71 184 55
71 184 55
72 183 55
72 183 55
73 182 55
74 181 55
74 181 55
75 180 55
76 179 55
76 179 55
77 178 55
78 177 55
78 177 55
79 176 55
79 175 55
80 175 55
81 174 55
81 174 55
82 173 55
83 172 55
83 172 55
84 171 55
85 170 55
85 170 55
86 169 55
87 168 55
87 168 55
88 167 55
88 167 55
89 166 55
90 165 55
90 165 55
91 164 55
92 163 55
92 163 55
93 162 55
94 161 55
94 161 55
95 160 55
95 159 55
96 159 55
97 158 55
97 158 55
98 157 55
99 156 55
99 156 55
100 155 55
101 154 55
101 154 55
102 153 55
103 152 55
103 152 55
104 151 55
104 151 55
105 150 55
106 149 55
106 149 55
107 148 55
108 147 55
108 147 55
109 146 55
110 145 55
110 145 55
111 144 55
111 143 55
112 143 55
113 142 55
113 142 55
114 141 55
115 140 55
115 140 55
116 139 55
117 138 55
117 138 55
118 137 55
119 136 55
119 136 55
120 135 55
120 135 55
121 134 55
122 133 55
122 133 55
123 132 55
124 131 55
124 131 55
125 130 55
126 129 55
126 129 55
127 128 55
127 127 55
128 127 55
129 126 55
129 126 55
130 125 55
131 124 55
131 124 55
132 123 55
133 122 55
133 122 55
134 121 55
135 120 55
135 120 55
136 119 55
136 119 55
137 118 55
138 117 55
138 117 55
139 116 55
140 115 55
140 115 55
141 114 55
142 113 55
142 113 55
143 112 55
143 111 55
144 111 55
145 110 55
145 110 55
146 109 55
147 108 55
147 108 55
148 107 55
149 106 55
149 106 55
150 105 55
151 104 55
151 104 55
152 103 55
152 103 55
153 102 55
154 101 55
154 101 55
155 100 55
156 99 55
156 99 55
157 98 55
158 97 55
158 97 55
159 96 55
159 95 55
160 95 55
161 94 55
161 94 55
162 93 55
163 92 55
163 92 55
164 91 55
165 90 55
165 90 55
166 89 55
167 88 55
167 88 55
168 87 55
168 87 55
169 86 55
170 85 55
170 85 55
171 84 55
172 83 55
172 83 55
173 82 55
174 81 55
174 81 55
175 80 55
175 79 55
176 79 55
177 78 55
177 78 55
178 77 55
179 76 55
179 76 55
180 75 55
181 74 55
181 74 55
182 73 55
183 72 55
183 72 55
184 71 55
184 71 55
185 70 55
186 69 55
186 69 55
187 68 55
188 67 55
188 67 55
189 66 55
190 65 55
190 65 55
191 64 55
191 63 55
192 63 55
193 62 55
193 62 55
194 61 55
195 60 55
195 60 55
196 59 55
197 58 55
197 58 55
198 57 55
199 56 55
199 56 55
200 55 55
200 55 55
201 54 55
202 53 55
202 53 55
203 52 55
204 51 55
204 51 55
205 50 55
206 49 55
206 49 55
207 48 55
207 47 55
208 47 55
209 46 55
209 46 55
210 45 55
211 44 55
211 44 55
212 43 55
213 42 55
213 42 55
214 41 55
215 40 55
215 40 55
216 39 55
216 39 55
217 38 55
218 37 55
218 37 55
219 36 55
220 35 55
220 35 55
221 34 55
222 33 55
222 33 55
223 32 55
223 31 55
224 31 55
225 30 55
225 30 55
226 29 55
227 28 55
227 28 55
228 27 55
229 26 55
229 26 55
230 25 55
231 24 55
231 24 55
232 23 55
232 23 55
233 22 55
234 21 55
234 21 55
235 20 55
236 19 55
236 19 55
237 18 55
238 17 55
238 17 55
239 16 55
239 15 55
240 15 55
241 14 55
241 14 55
242 13 55
243 12 55
243 12 55
244 11 55
245 10 55
245 10 55
246 9 55
247 8 55
247 8 55
248 7 55
248 7 55
249 6 55
250 5 55
250 5 55
251 4 55
252 3 55
252 3 55
253 2 55
254 1 55
254 1 55
255 0 55
0 255 56
0 255 56
1 254 56
1 254 56
2 253 56
3 252 56
3 252 56
4 251 56
5 250 56
5 250 56
6 249 56
7 248 56
7 248 56
8 247 56
8 247 56
9 246 56
10 245 56
10 245 56
11 244 56
12 243 56
12 243 56
13 242 56
14 241 56
14 241 56
15 240 56
15 239 56
16 239 56
17 238 56
17 238 56
18 237 56
19 236 56
19 236 56
20 235 56
21 234 56
21 234 56
22 233 56
23 232 56
23 232 56
24 231 56
24 231 56
25 230 56
26 229 56
26 229 56
27 228 56
28 227 56
28 227 56
29 226 56
30 225 56
30 225 56
31 224 56
31 223 56
32 223 56
33 222 56
33 222 56
34 221 56
35 220 56
35 220 56
36 219 56
37 218 56
37 218 56
38 217 56
39 216 56
39 216 56
40 215 56
40 215 56
41 214 56
42 213 56
42 213 56
43 212 56
44 211 56
44 211 56
45 210 56
46 209 56
46 209 56
47 208 56
47 207 56
48 207 56
49 206 56
49 206 56
50 205 56
51 204 56
51 204 56
52 203 56
53 202 56
53 202 56
54 201 56
55 200 56
55 200 56
56 199 56
56 199 56
57 198 56
58 197 56
58 197 56
59 196 56
60 195 56
60 195 56
61 194 56
62 193 56
62 193 56
63 192 56
63 191 56
64 191 56
65 190 56
65 190 56
66 189 56
67 188 56
67 188 56
68 187 56
69 186 56
69 186 56
70 185 56
71 184 56
71 184 56
72 183 56
72 183 56
73 182 56
74 181 56
74 181 56
75 180 56
76 179 56
76 179 56
77 178 56
78 177 56
78 177 56
79 176 56
79 175 56
80 175 56
81 174 56
81 174 56
82 173 56
83 172 56
83 172 56
84 171 56
85 170 56
85 170 56
86 169 56
87 168 56
87 168 56
88 167 56
88 167 56
89 166 56
90 165 56
90 165 56
91 164 56
92 163 56
92 163 56
93 162 56
94 161 56
94 161 56
95 160 56
95 159 56
96 159 56
97 158 56
97 158 56
98 157 56
99 156 56
99 156 56
100 155 56
101 154 56
101 154 56
102 153 56
103 152 56
103 152 56
104 151 56
104 151 56
105 150 56
106 149 56
106 149 56
107 148 56
108 147 56
108 147 56
109 146 56
110 145 56
110 145 56
111 144 56
111 143 56
112 143 56
113 142 56
113 142 56
114 141 56
115 140 56
115 140 56
116 139 56
117 138 56
117 138 56
118 137 56
119 136 56
119 136 56
120 135 56
120 135 56
121 134 56
122 133 56
122 133 56
123 132 56
124 131 56
124 131 56
125 130 56
126 129 56
126 129 56
127 128 56
127 127 56
128 127 56
129 126 56
129 126 56
130 125 56
131 124 56
131 124 56
132 123 56
133 122 56
133 122 56
134 121 56
135 120 56
135 120 56
136 119 56
136 119 56
137 118 56
138 117 56
138 117 56
139 116 56
140 115 56
140 115 56
141 114 56
142 113 56
142 113 56
143 112 56
143 111 56
144 111 56
145 110 56
145 110 56
146 109 56
147 108 56
147 108 56
148 107 56
149 106 56
149 106 56
150 105 56
151 104 56
151 104 56
152 103 56
152 103 56
153 102 56
154 101 56
154 101 56
155 100 56
156 99 56
156 99 56
157 98 56
158 97 56
158 97 56
159 96 56
159 95 56
160 95 56
161 94 56
161 94 56
162 93 56
163 92 56
163 92 56
164 91 56
165 90 56
165 90 56
166 89 56
167 88 56
167 88 56
168 87 56
168 87 56
169 86 56
170 85 56
170 85 56
171 84 56
172 83 56
172 83 56
173 82 56
174 81 56
174 81 56
175 80 56
175 79 56
176 79 56
177 78 56
177 78 56
178 77 56
179 76 56
179 76 56
180 75 56
181 74 56
181 74 56
182 73 56
183 72 56
183 72 56
184 71 56
184 71 56
185 70 56
186 69 56
186 69 56
187 68 56
188 67 56
188 67 56
189 66 56
190 65 56
190 65 56
191 64 56
191 63 56
192 63 56
193 62 56
193 62 56
194 61 56
195 60 56
195 60 56
196 59 56
197 58 56
197 58 56
198 57 56
199 56 56
199 56 56
200 55 56
200 55 56
201 54 56
202 53 56
202 53 56
203 52 56
204 51 56
204 51 56
205 50 56
206 49 56
206 49 56
207 48 56
207 47 56
208 47 56
209 46 56
209 46 56
210 45 56
211 44 56
211 44 56
212 43 56
213 42 56
213 42 56
214 41 56
215 40 56
215 40 56
216 39 56
216 39 56
217 38 56
218 37 56
218 37 56
219 36 56
220 35 56
220 35 56
221 34 56
222 33 56
222 33 56
223 32 56
223 31 56
224 31 56
225 30 56
225 30 56
226 29 56
227 28 56
227 28 56
228 27 56
229 26 56
229 26 56
230 25 56
231 24 56
231 24 56
232 23 56
232 23 56
233 22 56
234 21 56
234 21 56
235 20 56
236 19 56
236 19 56
237 18 56
238 17 56
238 17 56
239 16 56
239 15 56
240 15 56
241 14 56
241 14 56
242 13 56
243 12 56
243 12 56
244 11 56
245 10 56
245 10 56
246 9 56
247 8 56
247 8 56
248 7 56
248 7 56
249 6 56
250 5 56
250 5 56
251 4 56
252 3 56
252 3 56
253 2 56
254 1 56
254 1 56
255 0 56
0 255 58
0 255 58
1 254 58
1 254 58
2 253 58
3 252 58
3 252 58
4 251 58
5 250 58
5 250 58
6 249 58
7 248 58
7 248 58
8 247 58
8 247 58
9 246 58
10 245 58
10 245 58
11 244 58
12 243 58
12 243 58
13 242 58
14 241 58
14 241 58
15 240 58
15 239 58
16 239 58
17 238 58
17 238 58
18 237 58
19 236 58
19 236 58
20 235 58
21 234 58
21 234 58
22 233 58
23 232 58
23 232 58
24 231 58
24 231 58
25 230 58
26 229 58
26 229 58
27 228 58
28 227 58
28 227 58
29 226 58
30 225 58
30 225 58
31 224 58
31 223 58
32 223 58
33 222 58
33 222 58
34 221 58
35 220 58
35 220 58
36 219 58
37 218 58
37 218 58
38 217 58
39 216 58
39 216 58
40 215 58
40 215 58
41 214 58
42 213 58
42 213 58
43 212 58
44 211 58
44 211 58
45 210 58
46 209 58
46 209 58
47 208 58
47 207 58
48 207 58
49 206 58
49 206 58
50 205 58
51 204 58
51 204 58
52 203 58
53 202 58
53 202 58
54 201 58
55 200 58
55 200 58
56 199 58
56 199 58
57 198 58
58 197 58
58 197 58
59 196 58
60 195 58
60 195 58
61 194 58
62 193 58
62 193 58
63 192 58
63 191 58
64 191 58
65 190 58
65 190 58
66 189 58
67 188 58
67 188 58
68 187 58
69 186 58
69 186 58
70 185 58
71 184 58
71 184 58
72 183 58
72 183 58
73 182 58
74 181 58
74 181 58
75 180 58
76 179 58
76 179 58
77 178 58
78 177 58
78 177 58
79 176 58
79 175 58
80 175 58
81 174 58
81 174 58
82 173 58
83 172 58
83 172 58
84 171 58
85 170 58
85 170 58
86 169 58
87 168 58
87 168 58
88 167 58
88 167 58
89 166 58
90 165 58
90 165 58
91 164 58
92 163 58
92 163 58
93 162 58
94 161 58
94 161 58
95 160 58
95 159 58
96 159 58
97 158 58
97 158 58
98 157 58
99 156 58
99 156 58
100 155 58
101 154 58
101 154 58
102 153 58
103 152 58
103 152 58
104 151 58
104 151 58
105 150 58
106 149 58
106 149 58
107 148 58
108 147 58
108 147 58
109 146 58
110 145 58
110 145 58
111 144 58
111 143 58
112 143 58
113 142 58
113 142 58
114 141 58
115 140 58
115 140 58
116 139 58
117 138 58
117 138 58
118 137 58
119 136 58
119 136 58
120 135 58
120 135 58
121 134 58
122 133 58
122 133 58
123 132 58
124 131 58
124 131 58
125 130 58
126 129 58
126 129 58
127 128 58
127 127 58
128 127 58
129 126 58
129 126 58
130 125 58
131 124 58
131 124 58
132 123 58
133 122 58
133 122 58
134 121 58
135 120 58
135 120 58
136 119 58
136 119 58
137 118 58
138 117 58
138 117 58
139 116 58
140 115 58
140 115 58
141 114 58
142 113 58
142 113 58
143 112 58
143 111 58
144 111 58
145 110 58
145 110 58
146 109 58
147 108 58
147 108 58
148 107 58
149 106 58
149 106 58
150 105 58
151 104 58
151 104 58
152 103 58
152 103 58
153 102 58
154 101 58
154 101 58
155 100 58
156 99 58
156 99 58
157 98 58
158 97 58
158 97 58
159 96 58
159 95 58
160 95 58
161 94 58
161 94 58
162 93 58
163 92 58
163 92 58
164 91 58
165 90 58
165 90 58
166 89 58
167 88 58
167 88 58
168 87 58
168 87 58
169 86 58
170 85 58
170 85 58
171 84 58
172 83 58
172 83 58
173 82 58
174 81 58
174 81 58
175 80 58
175 79 58
176 79 58
177 78 58
177 78 58
178 77 58
179 76 58
179 76 58
180 75 58
181 74 58
181 74 58
182 73 58
183 72 58
183 72 58
184 71 58
184 71 58
185 70 58
186 69 58
186 69 58
187 68 58
188 67 58
188 67 58
189 66 58
190 65 58
190 65 58
191 64 58
191 63 58
192 63 58
193 62 58
193 62 58
194 61 58
195 60 58
195 60 58
196 59 58
197 58 58
197 58 58
198 57 58
199 56 58
199 56 58
200 55 58
200 55 58
201 54 58
202 53 58
202 53 58
203 52 58
204 51 58
204 51 58
205 50 58
206 49 58
206 49 58
207 48 58
207 47 58
208 47 58
209 46 58
209 46 58
210 45 58
211 44 58
211 44 58
212 43 58
213 42 58
213 42 58
214 41 58
215 40 58
215 40 58
216 39 58
216 39 58
217 38 58
218 37 58
218 37 58
219 36 58
220 35 58
220 35 58
221 34 58
222 33 58
222 33 58
223 32 58
223 31 58
224 31 58
225 30 58
225 30 58
226 29 58
227 28 58
227 28 58
228 27 58
229 26 58
229 26 58
230 25 58
231 24 58
231 24 58
232 23 58
232 23 58
233 22 58
234 21 58
234 21 58
235 20 58
236 19 58
236 19 58
237 18 58
238 17 58
238 17 58
239 16 58
239 15 58
240 15 58
241 14 58
241 14 58
242 13 58
243 12 58
243 12 58
244 11 58
245 10 58
245 10 58
246 9 58
247 8 58
247 8 58
248 7 58
248 7 58
249 6 58
250 5 58
250 5 58
251 4 58
252 3 58
252 3 58
253 2 58
254 1 58
254 1 58
255 0 58
0 255 59
0 255 59
1 254 59
1 254 59
2 253 59
3 252 59
3 252 59
4 251 59
5 250 59
5 250 59
6 249 59
7 248 59
7 248 59
8 247 59
8 247 59
9 246 59
10 245 59
10 245 59
11 244 59
12 243 59
12 243 59
13 242 59
14 241 59
14 241 59
15 240 59
15 239 59
16 239 59
17 238 59
17 238 59
18 237 59
19 236 59
19 236 59
20 235 59
21 234 59
21 234 59
22 233 59
23 232 59
23 232 59
24 231 59
24 231 59
25 230 59
26 229 59
26 229 59
27 228 59
28 227 59
28 227 59
29 226 59
30 225 59
30 225 59
31 224 59
31 223 59
32 223 59
33 222 59
33 222 59
34 221 59
35 220 59
35 220 59
36 219 59
37 218 59
37 218 59
38 217 59
39 216 59
39 216 59
40 215 59
40 215 59
41 214 59
42 213 59
42 213 59
43 212 59
44 211 59
44 211 59
45 210 59
46 209 59
46 209 59
47 208 59
47 207 59
48 207 59
49 206 59
49 206 59
50 205 59
51 204 59
51 204 59
52 203 59
53 202 59
53 202 59
54 201 59
55 200 59
55 200 59
56 199 59
56 199 59
57 198 59
58 197 59
58 197 59
59 196 59
60 195 59
60 195 59
61 194 59
62 193 59
62 193 59
63 192 59
63 191 59
64 191 59
65 190 59
65 190 59
66 189 59
67 188 59
67 188 59
68 187 59
69 186 59
69 186 59
70 185 59
71 184 59
71 184 59
72 183 59
72 183 59
73 182 59
74 181 59
74 181 59
75 180 59
76 179 59
76 179 59
77 178 59
78 177 59
78 177 59
79 176 59
79 175 59
80 175 59
81 174 59
81 174 59
82 173 59
83 172 59
83 172 59
84 171 59
85 170 59
85 170 59
86 169 59
87 168 59
87 168 59
88 167 59
88 167 59
89 166 59
90 165 59
90 165 59
91 164 59
92 163 59
92 163 59
93 162 59
94 161 59
94 161 59
95 160 59
95 159 59
96 159 59
97 158 59
97 158 59
98 157 59
99 156 59
99 156 59
100 155 59
101 154 59
101 154 59
102 153 59
103 152 59
103 152 59
104 151 59
104 151 59
105 150 59
106 149 59
106 149 59
107 148 59
108 147 59
108 147 59
109 146 59
110 145 59
110 145 59
111 144 59
111 143 59
112 143 59
113 142 59
113 142 59
114 141 59
115 140 59
115 140 59
116 139 59
117 138 59
117 138 59
118 137 59
119 136 59
119 136 59
120 135 59
120 135 59
121 134 59
122 133 59
122 133 59
123 132 59
124 131 59
124 131 59
125 130 59
126 129 59
126 129 59
127 128 59
127 127 59
128 127 59
129 126 59
129 126 59
130 125 59
131 124 59
131 124 59
132 123 59
133 122 59
133 122 59
134 121 59
135 120 59
135 120 59
136 119 59
136 119 59
137 118 59
138 117 59
138 117 59
139 116 59
140 115 59
140 115 59
141 114 59
142 113 59
142 113 59
143 112 59
143 111 59
144 111 59
145 110 59
145 110 59
146 109 59
147 108 59
147 108 59
148 107 59
149 106 59
149 106 59
150 105 59
151 104 59
151 104 59
152 103 59
152 103 59
153 102 59
154 101 59
154 101 59
155 100 59
156 99 59
156 99 59
157 98 59
158 97 59
158 97 59
159 96 59
159 95 59
160 95 59
161 94 59
161 94 59
162 93 59
163 92 59
163 92 59
164 91 59
165 90 59
165 90 59
166 89 59
167 88 59
167 88 59
168 87 59
168 87 59
169 86 59
170 85 59
170 85 59
171 84 59
172 83 59
172 83 59
173 82 59
174 81 59
174 81 59
175 80 59
175 79 59
176 79 59
177 78 59
177 78 59
178 77 59
179 76 59
179 76 59
180 75 59
181 74 59
181 74 59
182 73 59
183 72 59
183 72 59
184 71 59
184 71 59
185 70 59
186 69 59
186 69 59
187 68 59
188 67 59
188 67 59
189 66 59
190 65 59
190 65 59
191 64 59
191 63 59
192 63 59
193 62 59
193 62 59
194 61 59
195 60 59
195 60 59
196 59 59
197 58 59
197 58 59
198 57 59
199 56 59
199 56 59
200 55 59
200 55 59
201 54 59
202 53 59
202 53 59
203 52 59
204 51 59
204 51 59
205 50 59
206 49 59
206 49 59
207 48 59
207 47 59
208 47 59
209 46 59
209 46 59
210 45 59
211 44 59
211 44 59
212 43 59
213 42 59
213 42 59
214 41 59
215 40 59
215 40 59
216 39 59
216 39 59
217 38 59
218 37 59
218 37 59
219 36 59
220 35 59
220 35 59
221 34 59
222 33 59
222 33 59
223 32 59
223 31 59
224 31 59
225 30 59
225 30 59
226 29 59
227 28 59
227 28 59
228 27 59
229 26 59
229 26 59
230 25 59
231 24 59
231 24 59
232 23 59
232 23 59
233 22 59
234 21 59
234 21 59
235 20 59
236 19 59
236 19 59
237 18 59
238 17 59
238 17 59
239 16 59
239 15 59
240 15 59
241 14 59
241 14 59
242 13 59
243 12 59
243 12 59
244 11 59
245 10 59
245 10 59
246 9 59
247 8 59
247 8 59
248 7 59
248 7 59
249 6 59
250 5 59
250 5 59
251 4 59
252 3 59
252 3 59
253 2 59
254 1 59
254 1 59
255 0 59
0 255 60
0 255 60
1 254 60
1 254 60
2 253 60
3 252 60
3 252 60
4 251 60
5 250 60
5 250 60
6 249 60
7 248 60
7 248 60
8 247 60
8 247 60
9 246 60
10 245 60
10 245 60
11 244 60
12 243 60
12 243 60
13 242 60
14 241 60
14 241 60
15 240 60
15 239 60
16 239 60
17 238 60
17 238 60
18 237 60
19 236 60
19 236 60
20 235 60
21 234 60
21 234 60
22 233 60
23 232 60
23 232 60
24 231 60
24 231 60
25 230 60
26 229 60
26 229 60
27 228 60
28 227 60
28 227 60
29 226 60
30 225 60
30 225 60
31 224 60
31 223 60
32 223 60
33 222 60
33 222 60
34 221 60
35 220 60
35 220 60
36 219 60
37 218 60
37 218 60
38 217 60
39 216 60
39 216 60
40 215 60
40 215 60
41 214 60
42 213 60
42 213 60
43 212 60
44 211 60
44 211 60
45 210 60
46 209 60
46 209 60
47 208 60
47 207 60
48 207 60
49 206 60
49 206 60
50 205 60
51 204 60
51 204 60
52 203 60
53 202 60
53 202 60
54 201 60
55 200 60
55 200 60
56 199 60
56 199 60
57 198 60
58 197 60
58 197 60
59 196 60
60 195 60
60 195 60
61 194 60
62 193 60
62 193 60
63 192 60
63 191 60
64 191 60
65 190 60
65 190 60
66 189 60
67 188 60
67 188 60
68 187 60
69 186 60
69 186 60
70 185 60
71 184 60
71 184 60
72 183 60
72 183 60
73 182 60
74 181 60
74 181 60
75 180 60
76 179 60
76 179 60
77 178 60
78 177 60
78 177 60
79 176 60
79 175 60
80 175 60
81 174 60
81 174 60
82 173 60
83 172 60
83 172 60
84 171 60
85 170 60
85 170 60
86 169 60
87 168 60
87 168 60
88 167 60
88 167 60
89 166 60
90 165 60
90 165 60
91 164 60
92 163 60
92 163 60
93 162 60
94 161 60
94 161 60
95 160 60
95 159 60
96 159 60
97 158 60
97 158 60
98 157 60
99 156 60
99 156 60
100 155 60
101 154 60
101 154 60
102 153 60
103 152 60
103 152 60
104 151 60
104 151 60
105 150 60
106 149 60
106 149 60
107 148 60
108 147 60
108 147 60
109 146 60
110 145 60
110 145 60
111 144 60
111 143 60
112 143 60
113 142 60
113 142 60
114 141 60
115 140 60
115 140 60
116 139 60
117 138 60
117 138 60
118 137 60
119 136 60
119 136 60
120 135 60
120 135 60
121 134 60
122 133 60
122 133 60
123 132 60
124 131 60
124 131 60
125 130 60
126 129 60
126 129 60
127 128 60
127 127 60
128 127 60
129 126 60
129 126 60
130 125 60
131 124 60
131 124 60
132 123 60
133 122 60
133 122 60
134 121 60
135 120 60
135 120 60
136 119 60
136 119 60
137 118 60
138 117 60
138 117 60
139 116 60
140 115 60
140 115 60
141 114 60
142 113 60
142 113 60
143 112 60
143 111 60
144 111 60
145 110 60
145 110 60
146 109 60
147 108 60
147 108 60
148 107 60
149 106 60
149 106 60
150 105 60
151 104 60
151 104 60
152 103 60
152 103 60
153 102 60
154 101 60
154 101 60
155 100 60
156 99 60
156 99 60
157 98 60
158 97 60
158 97 60
159 96 60
159 95 60
160 95 60
161 94 60
161 94 60
162 93 60
163 92 60
163 92 60
164 91 60
165 90 60
165 90 60
166 89 60
167 88 60
167 88 60
168 87 60
168 87 60
169 86 60
170 85 60
170 85 60
171 84 60
172 83 60
172 83 60
173 82 60
174 81 60
174 81 60
175 80 60
175 79 60
176 79 60
177 78 60
177 78 60
178 77 60
179 76 60
179 76 60
180 75 60
181 74 60
181 74 60
182 73 60
183 72 60
183 72 60
184 71 60
184 71 60
185 70 60
186 69 60
186 69 60
187 68 60
188 67 60
188 67 60
189 66 60
190 65 60
190 65 60
191 64 60
191 63 60
192 63 60
193 62 60
193 62 60
194 61 60
195 60 60
195 60 60
196 59 60
197 58 60
197 58 60
198 57 60
199 56 60
199 56 60
200 55 60
200 55 60
201 54 60
202 53 60
202 53 60
203 52 60
204 51 60
204 51 60
205 50 60
206 49 60
206 49 60
207 48 60
207 47 60
208 47 60
209 46 60
209 46 60
210 45 60
211 44 60
211 44 60
212 43 60
213 42 60
213 42 60
214 41 60
215 40 60
215 40 60
216 39 60
216 39 60
217 38 60
218 37 60
218 37 60
219 36 60
220 35 60
220 35 60
221 34 60
222 33 60
222 33 60
223 32 60
223 31 60
224 31 60
225 30 60
225 30 60
226 29 60
227 28 60
227 28 60
228 27 60
229 26 60
229 26 60
230 25 60
231 24 60
231 24 60
232 23 60
232 23 60
233 22 60
234 21 60
234 21 60
235 20 60
236 19 60
236 19 60
237 18 60
238 17 60
238 17 60
239 16 60
239 15 60
240 15 60
241 14 60
241 14 60
242 13 60
243 12 60
243 12 60
244 11 60
245 10 60
245 10 60
246 9 60
247 8 60
247 8 60
248 7 60
248 7 60
249 6 60
250 5 60
250 5 60
251 4 60
252 3 60
252 3 60
253 2 60
254 1 60
254 1 60
255 0 60
0 255 61
0 255 61
1 254 61
1 254 61
2 253 61
3 252 61
3 252 61
4 251 61
5 250 61
5 250 61
6 249 61
7 248 61
7 248 61
8 247 61
8 247 61
9 246 61
10 245 61
10 245 61
11 244 61
12 243 61
12 243 61
13 242 61
14 241 61
14 241 61
15 240 61
15 239 61
16 239 61
17 238 61
17 238 61
18 237 61
19 236 61
19 236 61
20 235 61
21 234 61
21 234 61
22 233 61
23 232 61
23 232 61
24 231 61
24 231 61
25 230 61
26 229 61
26 229 61
27 228 61
28 227 61
28 227 61
29 226 61
30 225 61
30 225 61
31 224 61
31 223 61
32 223 61
33 222 61
33 222 61
34 221 61
35 220 61
35 220 61
36 219 61
37 218 61
37 218 61
38 217 61
39 216 61
39 216 61
40 215 61
40 215 61
41 214 61
42 213 61
42 213 61
43 212 61
44 211 61
44 211 61
45 210 61
46 209 61
46 209 61
47 208 61
47 207 61
48 207 61
49 206 61
49 206 61
50 205 61
51 204 61
51 204 61
52 203 61
53 202 61
53 202 61
54 201 61
55 200 61
55 200 61
56 199 61
56 199 61
57 198 61
58 197 61
58 197 61
59 196 61
60 195 61
60 195 61
61 194 61
62 193 61
62 193 61
63 192 61
63 191 61
64 191 61
65 190 61
65 190 61
66 189 61
67 188 61
67 188 61
68 187 61
69 186 61
69 186 61
70 185 61
71 184 61
71 184 61
72 183 61
72 183 61
73 182 61
74 181 61
74 181 61
75 180 61
76 179 61
76 179 61
77 178 61
78 177 61
78 177 61
79 176 61
79 175 61
80 175 61
81 174 61
81 174 61
82 173 61
83 172 61
83 172 61
84 171 61
85 170 61
85 170 61
86 169 61
87 168 61
87 168 61
88 167 61
88 167 61
89 166 61
90 165 61
90 165 61
91 164 61
92 163 61
92 163 61
93 162 61
94 161 61
94 161 61
95 160 61
95 159 61
96 159 61
97 158 61
97 158 61
98 157 61
99 156 61
99 156 61
100 155 61
101 154 61
101 154 61
102 153 61
103 152 61
103 152 61
104 151 61
104 151 61
105 150 61
106 149 61
106 149 61
107 148 61
108 147 61
108 147 61
109 146 61
110 145 61
110 145 61
111 144 61
111 143 61
112 143 61
113 142 61
113 142 61
114 141 61
115 140 61
115 140 61
116 139 61
117 138 61
117 138 61
118 137 61
119 136 61
119 136 61
120 135 61
120 135 61
121 134 61
122 133 61
122 133 61
123 132 61
124 131 61
124 131 61
125 130 61
126 129 61
126 129 61
127 128 61
127 127 61
128 127 61
129 126 61
129 126 61
130 125 61
131 124 61
131 124 61
132 123 61
133 122 61
133 122 61
134 121 61
135 120 61
135 120 61
136 119 61
136 119 61
137 118 61
138 117 61
138 117 61
139 116 61
140 115 61
140 115 61
141 114 61
142 113 61
142 113 61
143 112 61
143 111 61
144 111 61
145 110 61
145 110 61
146 109 61
147 108 61
147 108 61
148 107 61
149 106 61
149 106 61
150 105 61
151 104 61
151 104 61
152 103 61
152 103 61
153 102 61
154 101 61
154 101 61
155 100 61
156 99 61
156 99 61
157 98 61
158 97 61
158 97 61
159 96 61
159 95 61
160 95 61
161 94 61
161 94 61
162 93 61
163 92 61
163 92 61
164 91 61
165 90 61
165 90 61
166 89 61
167 88 61
167 88 61
168 87 61
168 87 61
169 86 61
170 85 61
170 85 61
171 84 61
172 83 61
172 83 61
173 82 61
174 81 61
174 81 61
175 80 61
175 79 61
176 79 61
177 78 61
177 78 61
178 77 61
179 76 61
179 76 61
180 75 61
181 74 61
181 74 61
182 73 61
183 72 61
183 72 61
184 71 61
184 71 61
185 70 61
186 69 61
186 69 61
187 68 61
188 67 61
188 67 61
189 66 61
190 65 61
190 65 61
191 64 61
191 63 61
192 63 61
193 62 61
193 62 61
194 61 61
195 60 61
195 60 61
196 59 61
197 58 61
197 58 61
198 57 61
199 56 61
199 56 61
200 55 61
200 55 61
201 54 61
202 53 61
202 53 61
203 52 61
204 51 61
204 51 61
205 50 61
206 49 61
206 49 61
207 48 61
207 47 61
208 47 61
209 46 61
209 46 61
210 45 61
211 44 61
211 44 61
212 43 61
213 42 61
213 42 61
214 41 61
215 40 61
215 40 61
216 39 61
216 39 61
217 38 61
218 37 61
218 37 61
219 36 61
220 35 61
220 35 61
221 34 61
222 33 61
222 33 61
223 32 61
223 31 61
224 31 61
225 30 61
225 30 61
226 29 61
227 28 61
227 28 61
228 27 61
229 26 61
229 26 61
230 25 61
231 24 61
231 24 61
232 23 61
232 23 61
233 22 61
234 21 61
234 21 61
235 20 61
236 19 61
236 19 61
237 18 61
238 17 61
238 17 61
239 16 61
239 15 61
240 15 61
241 14 61
241 14 61
242 13 61
243 12 61
243 12 61
244 11 61
245 10 61
245 10 61
246 9 61
247 8 61
247 8 61
248 7 61
248 7 61
249 6 61
250 5 61
250 5 61
251 4 61
252 3 61
252 3 61
253 2 61
254 1 61
254 1 61
255 0 61
0 255 62
0 255 62
1 254 62
1 254 62
2 253 62
3 252 62
3 252 62
4 251 62
5 250 62
5 250 62
6 249 62
7 248 62
7 248 62
8 247 62
8 247 62
9 246 62
10 245 62
10 245 62
11 244 62
12 243 62
12 243 62
13 242 62
14 241 62
14 241 62
15 240 62
15 239 62
16 239 62
17 238 62
17 238 62
18 237 62
19 236 62
19 236 62
20 235 62
21 234 62
21 234 62
22 233 62
23 232 62
23 232 62
24 231 62
24 231 62
25 230 62
26 229 62
26 229 62
27 228 62
28 227 62
28 227 62
29 226 62
30 225 62
30 225 62
31 224 62
31 223 62
32 223 62
33 222 62
33 222 62
34 221 62
35 220 62
35 220 62
36 219 62
37 218 62
37 218 62
38 217 62
39 216 62
39 216 62
40 215 62
40 215 62
41 214 62
42 213 62
42 213 62
43 212 62
44 211 62
44 211 62
45 210 62
46 209 62
46 209 62
47 208 62
47 207 62
48 207 62
49 206 62
49 206 62
50 205 62
51 204 62
51 204 62
52 203 62
53 202 62
53 202 62
54 201 62
55 200 62
55 200 62
56 199 62
56 199 62
57 198 62
58 197 62
58 197 62
59 196 62
60 195 62
60 195 62
61 194 62
62 193 62
62 193 62
63 192 62
63 191 62
64 191 62
65 190 62
65 190 62
66 189 62
67 188 62
67 188 62
68 187 62
69 186 62
69 186 62
70 185 62
71 184 62
71 184 62
72 183 62
72 183 62
73 182 62
74 181 62
74 181 62
75 180 62
76 179 62
76 179 62
77 178 62
78 177 62
78 177 62
79 176 62
79 175 62
80 175 62
81 174 62
81 174 62
82 173 62
83 172 62
83 172 62
84 171 62
85 170 62
85 170 62
86 169 62
87 168 62
87 168 62
88 167 62
88 167 62
89 166 62
90 165 62
90 165 62
91 164 62
92 163 62
92 163 62
93 162 62
94 161 62
94 161 62
95 160 62
95 159 62
96 159 62
97 158 62
97 158 62
98 157 62
99 156 62
99 156 62
100 155 62
101 154 62
101 154 62
102 153 62
103 152 62
103 152 62
104 151 62
104 151 62
105 150 62
106 149 62
106 149 62
107 148 62
108 147 62
108 147 62
109 146 62
110 145 62
110 145 62
111 144 62
111 143 62
112 143 62
113 142 62
113 142 62
114 141 62
115 140 62
115 140 62
116 139 62
117 138 62
117 138 62
118 137 62
119 136 62
119 136 62
120 135 62
120 135 62
121 134 62
122 133 62
122 133 62
123 132 62
124 131 62
124 131 62
125 130 62
126 129 62
126 129 62
127 128 62
127 127 62
128 127 62
129 126 62
129 126 62
130 125 62
131 124 62
131 124 62
132 123 62
133 122 62
133 122 62
134 121 62
135 120 62
135 120 62
136 119 62
136 119 62
137 118 62
138 117 62
138 117 62
139 116 62
140 115 62
140 115 62
141 114 62
142 113 62
142 113 62
143 112 62
143 111 62
144 111 62
145 110 62
145 110 62
146 109 62
147 108 62
147 108 62
148 107 62
149 106 62
149 106 62
150 105 62
151 104 62
151 104 62
152 103 62
152 103 62
153 102 62
154 101 62
154 101 62
155 100 62
156 99 62
156 99 62
157 98 62
158 97 62
158 97 62
159 96 62
159 95 62
160 95 62
161 94 62
161 94 62
162 93 62
163 92 62
163 92 62
164 91 62
165 90 62
165 90 62
166 89 62
167 88 62
167 88 62
168 87 62
168 87 62
169 86 62
170 85 62
170 85 62
171 84 62
172 83 62
172 83 62
173 82 62
174 81 62
174 81 62
175 80 62
175 79 62
176 79 62
177 78 62
177 78 62
178 77 62
179 76 62
179 76 62
180 75 62
181 74 62
181 74 62
182 73 62
183 72 62
183 72 62
184 71 62
184 71 62
185 70 62
186 69 62
186 69 62
187 68 62
188 67 62
188 67 62
189 66 62
190 65 62
190 65 62
191 64 62
191 63 62
192 63 62
193 62 62
193 62 62
194 61 62
195 60 62
195 60 62
196 59 62
197 58 62
197 58 62
198 57 62
199 56 62
199 56 62
200 55 62
200 55 62
201 54 62
202 53 62
202 53 62
203 52 62
204 51 62
204 51 62
205 50 62
206 49 62
206 49 62
207 48 62
207 47 62
208 47 62
209 46 62
209 46 62
210 45 62
211 44 62
211 44 62
212 43 62
213 42 62
213 42 62
214 41 62
215 40 62
215 40 62
216 39 62
216 39 62
217 38 62
218 37 62
218 37 62
219 36 62
220 35 62
220 35 62
221 34 62
222 33 62
222 33 62
223 32 62
223 31 62
224 31 62
225 30 62
225 30 62
226 29 62
227 28 62
227 28 62
228 27 62
229 26 62
229 26 62
230 25 62
231 24 62
231 24 62
232 23 62
232 23 62
233 22 62
234 21 62
234 21 62
235 20 62
236 19 62
236 19 62
237 18 62
238 17 62
238 17 62
239 16 62
239 15 62
240 15 62
241 14 62
241 14 62
242 13 62
243 12 62
243 12 62
244 11 62
245 10 62
245 10 62
246 9 62
247 8 62
247 8 62
248 7 62
248 7 62
249 6 62
250 5 62
250 5 62
251 4 62
252 3 62
252 3 62
253 2 62
254 1 62
254 1 62
255 0 62
0 255 63
0 255 63
1 254 63
1 254 63
2 253 63
3 252 63
3 252 63
4 251 63
5 250 63
5 250 63
6 249 63
7 248 63
7 248 63
8 247 63
8 247 63
9 246 63
10 245 63
10 245 63
11 244 63
12 243 63
12 243 63
13 242 63
14 241 63
14 241 63
15 240 63
15 239 63
16 239 63
17 238 63
17 238 63
18 237 63
19 236 63
19 236 63
20 235 63
21 234 63
21 234 63
22 233 63
23 232 63
23 232 63
24 231 63
24 231 63
25 230 63
26 229 63
26 229 63
27 228 63
28 227 63
28 227 63
29 226 63
30 225 63
30 225 63
31 224 63
31 223 63
32 223 63
33 222 63
33 222 63
34 221 63
35 220 63
35 220 63
36 219 63
37 218 63
37 218 63
38 217 63
39 216 63
39 216 63
40 215 63
40 215 63
41 214 63
42 213 63
42 213 63
43 212 63
44 211 63
44 211 63
45 210 63
46 209 63
46 209 63
47 208 63
47 207 63
48 207 63
49 206 63
49 206 63
50 205 63
51 204 63
51 204 63
52 203 63
53 202 63
53 202 63
54 201 63
55 200 63
55 200 63
56 199 63
56 199 63
57 198 63
58 197 63
58 197 63
59 196 63
60 195 63
60 195 63
61 194 63
62 193 63
62 193 63
63 192 63
63 191 63
64 191 63
65 190 63
65 190 63
66 189 63
67 188 63
67 188 63
68 187 63
69 186 63
69 186 63
70 185 63
71 184 63
71 184 63
72 183 63
72 183 63
73 182 63
74 181 63
74 181 63
75 180 63
76 179 63
76 179 63
77 178 63
78 177 63
78 177 63
79 176 63
79 175 63
80 175 63
81 174 63
81 174 63
82 173 63
83 172 63
83 172 63
84 171 63
85 170 63
85 170 63
86 169 63
87 168 63
87 168 63
88 167 63
88 167 63
89 166 63
90 165 63
90 165 63
91 164 63
92 163 63
92 163 63
93 162 63
94 161 63
94 161 63
95 160 63
95 159 63
96 159 63
97 158 63
97 158 63
98 157 63
99 156 63
99 156 63
100 155 63
101 154 63
101 154 63
102 153 63
103 152 63
103 152 63
104 151 63
104 151 63
105 150 63
106 149 63
106 149 63
107 148 63
108 147 63
108 147 63
109 146 63
110 145 63
110 145 63
111 144 63
111 143 63
112 143 63
113 142 63
113 142 63
114 141 63
115 140 63
115 140 63
116 139 63
117 138 63
117 138 63
118 137 63
119 136 63
119 136 63
120 135 63
120 135 63
121 134 63
122 133 63
122 133 63
123 132 63
124 131 63
124 131 63
125 130 63
126 129 63
126 129 63
127 128 63
127 127 63
128 127 63
129 126 63
129 126 63
130 125 63
131 124 63
131 124 63
132 123 63
133 122 63
133 122 63
134 121 63
135 120 63
135 120 63
136 119 63
136 119 63
137 118 63
138 117 63
138 117 63
139 116 63
140 115 63
140 115 63
141 114 63
142 113 63
142 113 63
143 112 63
143 111 63
144 111 63
145 110 63
145 110 63
146 109 63
147 108 63
147 108 63
148 107 63
149 106 63
149 106 63
150 105 63
151 104 63
151 104 63
152 103 63
152 103 63
153 102 63
154 101 63
154 101 63
155 100 63
156 99 63
156 99 63
157 98 63
158 97 63
158 97 63
159 96 63
159 95 63
160 95 63
161 94 63
161 94 63
162 93 63
163 92 63
163 92 63
164 91 63
165 90 63
165 90 63
166 89 63
167 88 63
167 88 63
168 87 63
168 87 63
169 86 63
170 85 63
170 85 63
171 84 63
172 83 63
172 83 63
173 82 63
174 81 63
174 81 63
175 80 63
175 79 63
176 79 63
177 78 63
177 78 63
178 77 63
179 76 63
179 76 63
180 75 63
181 74 63
181 74 63
182 73 63
183 72 63
183 72 63
184 71 63
184 71 63
185 70 63
186 69 63
186 69 63
187 68 63
188 67 63
188 67 63
189 66 63
190 65 63
190 65 63
191 64 63
191 63 63
192 63 63
193 62 63
193 62 63
194 61 63
195 60 63
195 60 63
196 59 63
197 58 63
197 58 63
198 57 63
199 56 63
199 56 63
200 55 63
200 55 63
201 54 63
202 53 63
202 53 63
203 52 63
204 51 63
204 51 63
205 50 63
206 49 63
206 49 63
207 48 63
207 47 63
208 47 63
209 46 63
209 46 63
210 45 63
211 44 63
211 44 63
212 43 63
213 42 63
213 42 63
214 41 63
215 40 63
215 40 63
216 39 63
216 39 63
217 38 63
218 37 63
218 37 63
219 36 63
220 35 63
220 35 63
221 34 63
222 33 63
222 33 63
223 32 63
223 31 63
224 31 63
225 30 63
225 30 63
226 29 63
227 28 63
227 28 63
228 27 63
229 26 63
229 26 63
230 25 63
231 24 63
231 24 63
232 23 63
232 23 63
233 22 63
234 21 63
234 21 63
235 20 63
236 19 63
236 19 63
237 18 63
238 17 63
238 17 63
239 16 63
239 15 63
240 15 63
241 14 63
241 14 63
242 13 63
243 12 63
243 12 63
244 11 63
245 10 63
245 10 63
246 9 63
247 8 63
247 8 63
248 7 63
248 7 63
249 6 63
250 5 63
250 5 63
251 4 63
252 3 63
252 3 63
253 2 63
254 1 63
254 1 63
255 0 63
0 255 64
0 255 64
1 254 64
1 254 64
2 253 64
3 252 64
3 252 64
4 251 64
5 250 64
5 250 64
6 249 64
7 248 64
7 248 64
8 247 64
8 247 64
9 246 64
10 245 64
10 245 64
11 244 64
12 243 64
12 243 64
13 242 64
14 241 64
14 241 64
15 240 64
15 239 64
16 239 64
17 238 64
17 238 64
18 237 64
19 236 64
19 236 64
20 235 64
21 234 64
21 234 64
22 233 64
23 232 64
23 232 64
24 231 64
24 231 64
25 230 64
26 229 64
26 229 64
27 228 64
28 227 64
28 227 64
29 226 64
30 225 64
30 225 64
31 224 64
31 223 64
32 223 64
33 222 64
33 222 64
34 221 64
35 220 64
35 220 64
36 219 64
37 218 64
37 218 64
38 217 64
39 216 64
39 216 64
40 215 64
40 215 64
41 214 64
42 213 64
42 213 64
43 212 64
44 211 64
44 211 64
45 210 64
46 209 64
46 209 64
47 208 64
47 207 64
48 207 64
49 206 64
49 206 64
50 205 64
51 204 64
51 204 64
52 203 64
53 202 64
53 202 64
54 201 64
55 200 64
55 200 64
56 199 64
56 199 64
57 198 64
58 197 64
58 197 64
59 196 64
60 195 64
60 195 64
61 194 64
62 193 64
62 193 64
63 192 64
63 191 64
64 191 64
65 190 64
65 190 64
66 189 64
67 188 64
67 188 64
68 187 64
69 186 64
69 186 64
70 185 64
71 184 64
71 184 64
72 183 64
72 183 64
73 182 64
74 181 64
74 181 64
75 180 64
76 179 64
76 179 64
77 178 64
78 177 64
78 177 64
79 176 64
79 175 64
80 175 64
81 174 64
81 174 64
82 173 64
83 172 64
83 172 64
84 171 64
85 170 64
85 170 64
86 169 64
87 168 64
87 168 64
88 167 64
88 167 64
89 166 64
90 165 64
90 165 64
91 164 64
92 163 64
92 163 64
93 162 64
94 161 64
94 161 64
95 160 64
95 159 64
96 159 64
97 158 64
97 158 64
98 157 64
99 156 64
99 156 64
100 155 64
101 154 64
101 154 64
102 153 64
103 152 64
103 152 64
104 151 64
104 151 64
105 150 64
106 149 64
106 149 64
107 148 64
108 147 64
108 147 64
109 146 64
110 145 64
110 145 64
111 144 64
111 143 64
112 143 64
113 142 64
113 142 64
114 141 64
115 140 64
115 140 64
116 139 64
117 138 64
117 138 64
118 137 64
119 136 64
119 136 64
120 135 64
120 135 64
121 134 64
122 133 64
122 133 64
123 132 64
124 131 64
124 131 64
125 130 64
126 129 64
126 129 64
127 128 64
127 127 64
128 127 64
129 126 64
129 126 64
130 125 64
131 124 64
131 124 64
132 123 64
133 122 64
133 122 64
134 121 64
135 120 64
135 120 64
136 119 64
136 119 64
137 118 64
138 117 64
138 117 64
139 116 64
140 115 64
140 115 64
141 114 64
142 113 64
142 113 64
143 112 64
143 111 64
144 111 64
145 110 64
145 110 64
146 109 64
147 108 64
147 108 64
148 107 64
149 106 64
149 106 64
150 105 64
151 104 64
151 104 64
152 103 64
152 103 64
153 102 64
154 101 64
154 101 64
155 100 64
156 99 64
156 99 64
157 98 64
158 97 64
158 97 64
159 96 64
159 95 64
160 95 64
161 94 64
161 94 64
162 93 64
163 92 64
163 92 64
164 91 64
165 90 64
165 90 64
166 89 64
167 88 64
167 88 64
168 87 64
168 87 64
169 86 64
170 85 64
170 85 64
171 84 64
172 83 64
172 83 64
173 82 64
174 81 64
174 81 64
175 80 64
175 79 64
176 79 64
177 78 64
177 78 64
178 77 64
179 76 64
179 76 64
180 75 64
181 74 64
181 74 64
182 73 64
183 72 64
183 72 64
184 71 64
184 71 64
185 70 64
186 69 64
186 69 64
187 68 64
188 67 64
188 67 64
189 66 64
190 65 64
190 65 64
191 64 64
191 63 64
192 63 64
193 62 64
193 62 64
194 61 64
195 60 64
195 60 64
196 59 64
197 58 64
197 58 64
198 57 64
199 56 64
199 56 64
200 55 64
200 55 64
201 54 64
202 53 64
202 53 64
203 52 64
204 51 64
204 51 64
205 50 64
206 49 64
206 49 64
207 48 64
207 47 64
208 47 64
209 46 64
209 46 64
210 45 64
211 44 64
211 44 64
212 43 64
213 42 64
213 42 64
214 41 64
215 40 64
215 40 64
216 39 64
216 39 64
217 38 64
218 37 64
218 37 64
219 36 64
220 35 64
220 35 64
221 34 64
222 33 64
222 33 64
223 32 64
223 31 64
224 31 64
225 30 64
225 30 64
226 29 64
227 28 64
227 28 64
228 27 64
229 26 64
229 26 64
230 25 64
231 24 64
231 24 64
232 23 64
232 23 64
233 22 64
234 21 64
234 21 64
235 20 64
236 19 64
236 19 64
237 18 64
238 17 64
238 17 64
239 16 64
239 15 64
240 15 64
241 14 64
241 14 64
242 13 64
243 12 64
243 12 64
244 11 64
245 10 64
245 10 64
246 9 64
247 8 64
247 8 64
248 7 64
248 7 64
249 6 64
250 5 64
250 5 64
251 4 64
252 3 64
252 3 64
253 2 64
254 1 64
254 1 64
255 0 64
0 255 65
0 255 65
1 254 65
1 254 65
2 253 65
3 252 65
3 252 65
4 251 65
5 250 65
5 250 65
6 249 65
7 248 65
7 248 65
8 247 65
8 247 65
9 246 65
10 245 65
10 245 65
11 244 65
12 243 65
12 243 65
13 242 65
14 241 65
14 241 65
15 240 65
15 239 65
16 239 65
17 238 65
17 238 65
18 237 65
19 236 65
19 236 65
20 235 65
21 234 65
21 234 65
22 233 65
23 232 65
23 232 65
24 231 65
24 231 65
25 230 65
26 229 65
26 229 65
27 228 65
28 227 65
28 227 65
29 226 65
30 225 65
30 225 65
31 224 65
31 223 65
32 223 65
33 222 65
33 222 65
34 221 65
35 220 65
35 220 65
36 219 65
37 218 65
37 218 65
38 217 65
39 216 65
39 216 65
40 215 65
40 215 65
41 214 65
42 213 65
42 213 65
43 212 65
44 211 65
44 211 65
45 210 65
46 209 65
46 209 65
47 208 65
47 207 65
48 207 65
49 206 65
49 206 65
50 205 65
51 204 65
51 204 65
52 203 65
53 202 65
53 202 65
54 201 65
55 200 65
55 200 65
56 199 65
56 199 65
57 198 65
58 197 65
58 197 65
59 196 65
60 195 65
60 195 65
61 194 65
62 193 65
62 193 65
63 192 65
63 191 65
64 191 65
65 190 65
65 190 65
66 189 65
67 188 65
67 188 65
68 187 65
69 186 65
69 186 65
70 185 65
71 184 65
71 184 65
72 183 65
72 183 65
73 182 65
74 181 65
74 181 65
75 180 65
76 179 65
76 179 65
77 178 65
78 177 65
78 177 65
79 176 65
79 175 65
80 175 65
81 174 65
81 174 65
82 173 65
83 172 65
83 172 65
84 171 65
85 170 65
85 170 65
86 169 65
87 168 65
87 168 65
88 167 65
88 167 65
89 166 65
90 165 65
90 165 65
91 164 65
92 163 65
92 163 65
93 162 65
94 161 65
94 161 65
95 160 65
95 159 65
96 159 65
97 158 65
97 158 65
98 157 65
99 156 65
99 156 65
100 155 65
101 154 65
101 154 65
102 153 65
103 152 65
103 152 65
104 151 65
104 151 65
105 150 65
106 149 65
106 149 65
107 148 65
108 147 65
108 147 65
109 146 65
110 145 65
110 145 65
111 144 65
111 143 65
112 143 65
113 142 65
113 142 65
114 141 65
115 140 65
115 140 65
116 139 65
117 138 65
117 138 65
118 137 65
119 136 65
119 136 65
120 135 65
120 135 65
121 134 65
122 133 65
122 133 65
123 132 65
124 131 65
124 131 65
125 130 65
126 129 65
126 129 65
127 128 65
127 127 65
128 127 65
129 126 65
129 126 65
130 125 65
131 124 65
131 124 65
132 123 65
133 122 65
133 122 65
134 121 65
135 120 65
135 120 65
136 119 65
136 119 65
137 118 65
138 117 65
138 117 65
139 116 65
140 115 65
140 115 65
141 114 65
142 113 65
142 113 65
143 112 65
143 111 65
144 111 65
145 110 65
145 110 65
146 109 65
147 108 65
147 108 65
148 107 65
149 106 65
149 106 65
150 105 65
151 104 65
151 104 65
152 103 65
152 103 65
153 102 65
154 101 65
154 101 65
155 100 65
156 99 65
156 99 65
157 98 65
158 97 65
158 97 65
159 96 65
159 95 65
160 95 65
161 94 65
161 94 65
162 93 65
163 92 65
163 92 65
164 91 65
165 90 65
165 90 65
166 89 65
167 88 65
167 88 65
168 87 65
168 87 65
169 86 65
170 85 65
170 85 65
171 84 65
172 83 65
172 83 65
173 82 65
174 81 65
174 81 65
175 80 65
175 79 65
176 79 65
177 78 65
177 78 65
178 77 65
179 76 65
179 76 65
180 75 65
181 74 65
181 74 65
182 73 65
183 72 65
183 72 65
184 71 65
184 71 65
185 70 65
186 69 65
186 69 65
187 68 65
188 67 65
188 67 65
189 66 65
190 65 65
190 65 65
191 64 65
191 63 65
192 63 65
193 62 65
193 62 65
194 61 65
195 60 65
195 60 65
196 59 65
197 58 65
197 58 65
198 57 65
199 56 65
199 56 65
200 55 65
200 55 65
201 54 65
202 53 65
202 53 65
203 52 65
204 51 65
204 51 65
205 50 65
206 49 65
206 49 65
207 48 65
207 47 65
208 47 65
209 46 65
209 46 65
210 45 65
211 44 65
211 44 65
212 43 65
213 42 65
213 42 65
214 41 65
215 40 65
215 40 65
216 39 65
216 39 65
217 38 65
218 37 65
218 37 65
219 36 65
220 35 65
220 35 65
221 34 65
222 33 65
222 33 65
223 32 65
223 31 65
224 31 65
225 30 65
225 30 65
226 29 65
227 28 65
227 28 65
228 27 65
229 26 65
229 26 65
230 25 65
231 24 65
231 24 65
232 23 65
232 23 65
233 22 65
234 21 65
234 21 65
235 20 65
236 19 65
236 19 65
237 18 65
238 17 65
238 17 65
239 16 65
239 15 65
240 15 65
241 14 65
241 14 65
242 13 65
243 12 65
243 12 65
244 11 65
245 10 65
245 10 65
246 9 65
247 8 65
247 8 65
248 7 65
248 7 65
249 6 65
250 5 65
250 5 65
251 4 65
252 3 65
252 3 65
253 2 65
254 1 65
254 1 65
255 0 65
0 255 67
0 255 67
1 254 67
1 254 67
2 253 67
3 252 67
3 252 67
4 251 67
5 250 67
5 250 67
6 249 67
7 248 67
7 248 67
8 247 67
8 247 67
9 246 67
10 245 67
10 245 67
11 244 67
12 243 67
12 243 67
13 242 67
14 241 67
14 241 67
15 240 67
15 239 67
16 239 67
17 238 67
17 238 67
18 237 67
19 236 67
19 236 67
20 235 67
21 234 67
21 234 67
22 233 67
23 232 67
23 232 67
24 231 67
24 231 67
25 230 67
26 229 67
26 229 67
27 228 67
28 227 67
28 227 67
29 226 67
30 225 67
30 225 67
31 224 67
31 223 67
32 223 67
33 222 67
33 222 67
34 221 67
35 220 67
35 220 67
36 219 67
37 218 67
37 218 67
38 217 67
39 216 67
39 216 67
40 215 67
40 215 67
41 214 67
42 213 67
42 213 67
43 212 67
44 211 67
44 211 67
45 210 67
46 209 67
46 209 67
47 208 67
47 207 67
48 207 67
49 206 67
49 206 67
50 205 67
51 204 67
51 204 67
52 203 67
53 202 67
53 202 67
54 201 67
55 200 67
55 200 67
56 199 67
56 199 67
57 198 67
58 197 67
58 197 67
59 196 67
60 195 67
60 195 67
61 194 67
62 193 67
62 193 67
63 192 67
63 191 67
64 191 67
65 190 67
65 190 67
66 189 67
67 188 67
67 188 67
68 187 67
69 186 67
69 186 67
70 185 67
71 184 67
71 184 67
72 183 67
72 183 67
73 182 67
74 181 67
74 181 67
75 180 67
76 179 67
76 179 67
77 178 67
78 177 67
78 177 67
79 176 67
79 175 67
80 175 67
81 174 67
81 174 67
82 173 67
83 172 67
83 172 67
84 171 67
85 170 67
85 170 67
86 169 67
87 168 67
87 168 67
88 167 67
88 167 67
89 166 67
90 165 67
90 165 67
91 164 67
92 163 67
92 163 67
93 162 67
94 161 67
94 161 67
95 160 67
95 159 67
96 159 67
97 158 67
97 158 67
98 157 67
99 156 67
99 156 67
100 155 67
101 154 67
101 154 67
102 153 67
103 152 67
103 152 67
104 151 67
104 151 67
105 150 67
106 149 67
106 149 67
107 148 67
108 147 67
108 147 67
109 146 67
110 145 67
110 145 67
111 144 67
111 143 67
112 143 67
113 142 67
113 142 67
114 141 67
115 140 67
115 140 67
116 139 67
117 138 67
117 138 67
118 137 67
119 136 67
119 136 67
120 135 67
120 135 67
121 134 67
122 133 67
122 133 67
123 132 67
124 131 67
124 131 67
125 130 67
126 129 67
126 129 67
127 128 67
127 127 67
128 127 67
129 126 67
129 126 67
130 125 67
131 124 67
131 124 67
132 123 67
133 122 67
133 122 67
134 121 67
135 120 67
135 120 67
136 119 67
136 119 67
137 118 67
138 117 67
138 117 67
139 116 67
140 115 67
140 115 67
141 114 67
142 113 67
142 113 67
143 112 67
143 111 67
144 111 67
145 110 67
145 110 67
146 109 67
147 108 67
147 108 67
148 107 67
149 106 67
149 106 67
150 105 67
151 104 67
151 104 67
152 103 67
152 103 67
153 102 67
154 101 67
154 101 67
155 100 67
156 99 67
156 99 67
157 98 67
158 97 67
158 97 67
159 96 67
159 95 67
160 95 67
161 94 67
161 94 67
162 93 67
163 92 67
163 92 67
164 91 67
165 90 67
165 90 67
166 89 67
167 88 67
167 88 67
168 87 67
168 87 67
169 86 67
170 85 67
170 85 67
171 84 67
172 83 67
172 83 67
173 82 67
174 81 67
174 81 67
175 80 67
175 79 67
176 79 67
177 78 67
177 78 67
178 77 67
179 76 67
179 76 67
180 75 67
181 74 67
181 74 67
182 73 67
183 72 67
183 72 67
184 71 67
184 71 67
185 70 67
186 69 67
186 69 67
187 68 67
188 67 67
188 67 67
189 66 67
190 65 67
190 65 67
191 64 67
191 63 67
192 63 67
193 62 67
193 62 67
194 61 67
195 60 67
195 60 67
196 59 67
197 58 67
197 58 67
198 57 67
199 56 67
199 56 67
200 55 67
200 55 67
201 54 67
202 53 67
202 53 67
203 52 67
204 51 67
204 51 67
205 50 67
206 49 67
206 49 67
207 48 67
207 47 67
208 47 67
209 46 67
209 46 67
210 45 67
211 44 67
211 44 67
212 43 67
213 42 67
213 42 67
214 41 67
215 40 67
215 40 67
216 39 67
216 39 67
217 38 67
218 37 67
218 37 67
219 36 67
220 35 67
220 35 67
221 34 67
222 33 67
222 33 67
223 32 67
223 31 67
224 31 67
225 30 67
225 30 67
226 29 67
227 28 67
227 28 67
228 27 67
229 26 67
229 26 67
230 25 67
231 24 67
231 24 67
232 23 67
232 23 67
233 22 67
234 21 67
234 21 67
235 20 67
236 19 67
236 19 67
237 18 67
238 17 67
238 17 67
239 16 67
239 15 67
240 15 67
241 14 67
241 14 67
242 13 67
243 12 67
243 12 67
244 11 67
245 10 67
245 10 67
246 9 67
247 8 67
247 8 67
248 7 67
248 7 67
249 6 67
250 5 67
250 5 67
251 4 67
252 3 67
252 3 67
253 2 67
254 1 67
254 1 67
255 0 67
0 255 68
0 255 68
1 254 68
1 254 68
2 253 68
3 252 68
3 252 68
4 251 68
5 250 68
5 250 68
6 249 68
7 248 68
7 248 68
8 247 68
8 247 68
9 246 68
10 245 68
10 245 68
11 244 68
12 243 68
12 243 68
13 242 68
14 241 68
14 241 68
15 240 68
15 239 68
16 239 68
17 238 68
17 238 68
18 237 68
19 236 68
19 236 68
20 235 68
21 234 68
21 234 68
22 233 68
23 232 68
23 232 68
24 231 68
24 231 68
25 230 68
26 229 68
26 229 68
27 228 68
28 227 68
28 227 68
29 226 68
30 225 68
30 225 68
31 224 68
31 223 68
32 223 68
33 222 68
33 222 68
34 221 68
35 220 68
35 220 68
36 219 68
37 218 68
37 218 68
38 217 68
39 216 68
39 216 68
40 215 68
40 215 68
41 214 68
42 213 68
42 213 68
43 212 68
44 211 68
44 211 68
45 210 68
46 209 68
46 209 68
47 208 68
47 207 68
48 207 68
49 206 68
49 206 68
50 205 68
51 204 68
51 204 68
52 203 68
53 202 68
53 202 68
54 201 68
55 200 68
55 200 68
56 199 68
56 199 68
57 198 68
58 197 68
58 197 68
59 196 68
60 195 68
60 195 68
61 194 68
62 193 68
62 193 68
63 192 68
63 191 68
64 191 68
65 190 68
65 190 68
66 189 68
67 188 68
67 188 68
68 187 68
69 186 68
69 186 68
70 185 68
71 184 68
71 184 68
72 183 68
72 183 68
73 182 68
74 181 68
74 181 68
75 180 68
76 179 68
76 179 68
77 178 68
78 177 68
78 177 68
79 176 68
79 175 68
80 175 68
81 174 68
81 174 68
82 173 68
83 172 68
83 172 68
84 171 68
85 170 68
85 170 68
86 169 68
87 168 68
87 168 68
88 167 68
88 167 68
89 166 68
90 165 68
90 165 68
91 164 68
92 163 68
92 163 68
93 162 68
94 161 68
94 161 68
95 160 68
95 159 68
96 159 68
97 158 68
97 158 68
98 157 68
99 156 68
99 156 68
100 155 68
101 154 68
101 154 68
102 153 68
103 152 68
103 152 68
104 151 68
104 151 68
105 150 68
106 149 68
106 149 68
107 148 68
108 147 68
108 147 68
109 146 68
110 145 68
110 145 68
111 144 68
111 143 68
112 143 68
113 142 68
113 142 68
114 141 68
115 140 68
115 140 68
116 139 68
117 138 68
117 138 68
118 137 68
119 136 68
119 136 68
120 135 68
120 135 68
121 134 68
122 133 68
122 133 68
123 132 68
124 131 68
124 131 68
125 130 68
126 129 68
126 129 68
127 128 68
127 127 68
128 127 68
129 126 68
129 126 68
130 125 68
131 124 68
131 124 68
132 123 68
133 122 68
133 122 68
134 121 68
135 120 68
135 120 68
136 119 68
136 119 68
137 118 68
138 117 68
138 117 68
139 116 68
140 115 68
140 115 68
141 114 68
142 113 68
142 113 68
143 112 68
143 111 68
144 111 68
145 110 68
145 110 68
146 109 68
147 108 68
147 108 68
148 107 68
149 106 68
149 106 68
150 105 68
151 104 68
151 104 68
152 103 68
152 103 68
153 102 68
154 101 68
154 101 68
155 100 68
156 99 68
156 99 68
157 98 68
158 97 68
158 97 68
159 96 68
159 95 68
160 95 68
161 94 68
161 94 68
162 93 68
163 92 68
163 92 68
164 91 68
165 90 68
165 90 68
166 89 68
167 88 68
167 88 68
168 87 68
168 87 68
169 86 68
170 85 68
170 85 68
171 84 68
172 83 68
172 83 68
173 82 68
174 81 68
174 81 68
175 80 68
175 79 68
176 79 68
177 78 68
177 78 68
178 77 68
179 76 68
179 76 68
180 75 68
181 74 68
181 74 68
182 73 68
183 72 68
183 72 68
184 71 68
184 71 68
185 70 68
186 69 68
186 69 68
187 68 68
188 67 68
188 67 68
189 66 68
190 65 68
190 65 68
191 64 68
191 63 68
192 63 68
193 62 68
193 62 68
194 61 68
195 60 68
195 60 68
196 59 68
197 58 68
197 58 68
198 57 68
199 56 68
199 56 68
200 55 68
200 55 68
201 54 68
202 53 68
202 53 68
203 52 68
204 51 68
204 51 68
205 50 68
206 49 68
206 49 68
207 48 68
207 47 68
208 47 68
209 46 68
209 46 68
210 45 68
211 44 68
211 44 68
212 43 68
213 42 68
213 42 68
214 41 68
215 40 68
215 40 68
216 39 68
216 39 68
217 38 68
218 37 68
218 37 68
219 36 68
220 35 68
220 35 68
221 34 68
222 33 68
222 33 68
223 32 68
223 31 68
224 31 68
225 30 68
225 30 68
226 29 68
227 28 68
227 28 68
228 27 68
229 26 68
229 26 68
230 25 68
231 24 68
231 24 68
232 23 68
232 23 68
233 22 68
234 21 68
234 21 68
235 20 68
236 19 68
236 19 68
237 18 68
238 17 68
238 17 68
239 16 68
239 15 68
240 15 68
241 14 68
241 14 68
242 13 68
243 12 68
243 12 68
244 11 68
245 10 68
245 10 68
246 9 68
247 8 68
247 8 68
248 7 68
248 7 68
249 6 68
250 5 68
250 5 68
251 4 68
252 3 68
252 3 68
253 2 68
254 1 68
254 1 68
255 0 68
0 255 69
0 255 69
1 254 69
1 254 69
2 253 69
3 252 69
3 252 69
4 251 69
5 250 69
5 250 69
6 249 69
7 248 69
7 248 69
8 247 69
8 247 69
9 246 69
10 245 69
10 245 69
11 244 69
12 243 69
12 243 69
13 242 69
14 241 69
14 241 69
15 240 69
15 239 69
16 239 69
17 238 69
17 238 69
18 237 69
19 236 69
19 236 69
20 235 69
21 234 69
21 234 69
22 233 69
23 232 69
23 232 69
24 231 69
24 231 69
25 230 69
26 229 69
26 229 69
27 228 69
28 227 69
28 227 69
29 226 69
30 225 69
30 225 69
31 224 69
31 223 69
32 223 69
33 222 69
33 222 69
34 221 69
35 220 69
35 220 69
36 219 69
37 218 69
37 218 69
38 217 69
39 216 69
39 216 69
40 215 69
40 215 69
41 214 69
42 213 69
42 213 69
43 212 69
44 211 69
44 211 69
45 210 69
46 209 69
46 209 69
47 208 69
47 207 69
48 207 69
49 206 69
49 206 69
50 205 69
51 204 69
51 204 69
52 203 69
53 202 69
53 202 69
54 201 69
55 200 69
55 200 69
56 199 69
56 199 69
57 198 69
58 197 69
58 197 69
59 196 69
60 195 69
60 195 69
61 194 69
62 193 69
62 193 69
63 192 69
63 191 69
64 191 69
65 190 69
65 190 69
66 189 69
67 188 69
67 188 69
68 187 69
69 186 69
69 186 69
70 185 69
71 184 69
71 184 69
72 183 69
72 183 69
73 182 69
74 181 69
74 181 69
75 180 69
76 179 69
76 179 69
77 178 69
78 177 69
78 177 69
79 176 69
79 175 69
80 175 69
81 174 69
81 174 69
82 173 69
83 172 69
83 172 69
84 171 69
85 170 69
85 170 69
86 169 69
87 168 69
87 168 69
88 167 69
88 167 69
89 166 69
90 165 69
90 165 69
91 164 69
92 163 69
92 163 69
93 162 69
94 161 69
94 161 69
95 160 69
95 159 69
96 159 69
97 158 69
97 158 69
98 157 69
99 156 69
99 156 69
100 155 69
101 154 69
101 154 69
102 153 69
103 152 69
103 152 69
104 151 69
104 151 69
105 150 69
106 149 69
106 149 69
107 148 69
108 147 69
108 147 69
109 146 69
110 145 69
110 145 69
111 144 69
111 143 69
112 143 69
113 142 69
113 142 69
114 141 69
115 140 69
115 140 69
116 139 69
117 138 69
117 138 69
118 137 69
119 136 69
119 136 69
120 135 69
120 135 69
121 134 69
122 133 69
122 133 69
123 132 69
124 131 69
124 131 69
125 130 69
126 129 69
126 129 69
127 128 69
127 127 69
128 127 69
129 126 69
129 126 69
130 125 69
131 124 69
131 124 69
132 123 69
133 122 69
133 122 69
134 121 69
135 120 69
135 120 69
136 119 69
136 119 69
137 118 69
138 117 69
138 117 69
139 116 69
140 115 69
140 115 69
141 114 69
142 113 69
142 113 69
143 112 69
143 111 69
144 111 69
145 110 69
145 110 69
146 109 69
147 108 69
147 108 69
148 107 69
149 106 69
149 106 69
150 105 69
151 104 69
151 104 69
152 103 69
152 103 69
153 102 69
154 101 69
154 101 69
155 100 69
156 99 69
156 99 69
157 98 69
158 97 69
158 97 69
159 96 69
159 95 69
160 95 69
161 94 69
161 94 69
162 93 69
163 92 69
163 92 69
164 91 69
165 90 69
165 90 69
166 89 69
167 88 69
167 88 69
168 87 69
168 87 69
169 86 69
170 85 69
170 85 69
171 84 69
172 83 69
172 83 69
173 82 69
174 81 69
174 81 69
175 80 69
175 79 69
176 79 69
177 78 69
177 78 69
178 77 69
179 76 69
179 76 69
180 75 69
181 74 69
181 74 69
182 73 69
183 72 69
183 72 69
184 71 69
184 71 69
185 70 69
186 69 69
186 69 69
187 68 69
188 67 69
188 67 69
189 66 69
190 65 69
190 65 69
191 64 69
191 63 69
192 63 69
193 62 69
193 62 69
194 61 69
195 60 69
195 60 69
196 59 69
197 58 69
197 58 69
198 57 69
199 56 69
199 56 69
200 55 69
200 55 69
201 54 69
202 53 69
202 53 69
203 52 69
204 51 69
204 51 69
205 50 69
206 49 69
206 49 69
207 48 69
207 47 69
208 47 69
209 46 69
209 46 69
210 45 69
211 44 69
211 44 69
212 43 69
213 42 69
213 42 69
214 41 69
215 40 69
215 40 69
216 39 69
216 39 69
217 38 69
218 37 69
218 37 69
219 36 69
220 35 69
220 35 69
221 34 69
222 33 69
222 33 69
223 32 69
223 31 69
224 31 69
225 30 69
225 30 69
226 29 69
227 28 69
227 28 69
228 27 69
229 26 69
229 26 69
230 25 69
231 24 69
231 24 69
232 23 69
232 23 69
233 22 69
234 21 69
234 21 69
235 20 69
236 19 69
236 19 69
237 18 69
238 17 69
238 17 69
239 16 69
239 15 69
240 15 69
241 14 69
241 14 69
242 13 69
243 12 69
243 12 69
244 11 69
245 10 69
245 10 69
246 9 69
247 8 69
247 8 69
248 7 69
248 7 69
249 6 69
250 5 69
250 5 69
251 4 69
252 3 69
252 3 69
253 2 69
254 1 69
254 1 69
255 0 69
0 255 70
0 255 70
1 254 70
1 254 70
2 253 70
3 252 70
3 252 70
4 251 70
5 250 70
5 250 70
6 249 70
7 248 70
7 248 70
8 247 70
8 247 70
9 246 70
10 245 70
10 245 70
11 244 70
12 243 70
12 243 70
13 242 70
14 241 70
14 241 70
15 240 70
15 239 70
16 239 70
17 238 70
17 238 70
18 237 70
19 236 70
19 236 70
20 235 70
21 234 70
21 234 70
22 233 70
23 232 70
23 232 70
24 231 70
24 231 70
25 230 70
26 229 70
26 229 70
27 228 70
28 227 70
28 227 70
29 226 70
30 225 70
30 225 70
31 224 70
31 223 70
32 223 70
33 222 70
33 222 70
34 221 70
35 220 70
35 220 70
36 219 70
37 218 70
37 218 70
38 217 70
39 216 70
39 216 70
40 215 70
40 215 70
41 214 70
42 213 70
42 213 70
43 212 70
44 211 70
44 211 70
45 210 70
46 209 70
46 209 70
47 208 70
47 207 70
48 207 70
49 206 70
49 206 70
50 205 70
51 204 70
51 204 70
52 203 70
53 202 70
53 202 70
54 201 70
55 200 70
55 200 70
56 199 70
56 199 70
57 198 70
58 197 70
58 197 70
59 196 70
60 195 70
60 195 70
61 194 70
62 193 70
62 193 70
63 192 70
63 191 70
64 191 70
65 190 70
65 190 70
66 189 70
67 188 70
67 188 70
68 187 70
69 186 70
69 186 70
70 185 70
71 184 70
71 184 70
72 183 70
72 183 70
73 182 70
74 181 70
74 181 70
75 180 70
76 179 70
76 179 70
77 178 70
78 177 70
78 177 70
79 176 70
79 175 70
80 175 70
81 174 70
81 174 70
82 173 70
83 172 70
83 172 70
84 171 70
85 170 70
85 170 70
86 169 70
87 168 70
87 168 70
88 167 70
88 167 70
89 166 70
90 165 70
90 165 70
91 164 70
92 163 70
92 163 70
93 162 70
94 161 70
94 161 70
95 160 70
95 159 70
96 159 70
97 158 70
97 158 70
98 157 70
99 156 70
99 156 70
100 155 70
101 154 70
101 154 70
102 153 70
103 152 70
103 152 70
104 151 70
104 151 70
105 150 70
106 149 70
106 149 70
107 148 70
108 147 70
108 147 70
109 146 70
110 145 70
110 145 70
111 144 70
111 143 70
112 143 70
113 142 70
113 142 70
114 141 70
115 140 70
115 140 70
116 139 70
117 138 70
117 138 70
118 137 70
119 136 70
119 136 70
120 135 70
120 135 70
121 134 70
122 133 70
122 133 70
123 132 70
124 131 70
124 131 70
125 130 70
126 129 70
126 129 70
127 128 70
127 127 70
128 127 70
129 126 70
129 126 70
130 125 70
131 124 70
131 124 70
132 123 70
133 122 70
133 122 70
134 121 70
135 120 70
135 120 70
136 119 70
136 119 70
137 118 70
138 117 70
138 117 70
139 116 70
140 115 70
140 115 70
141 114 70
142 113 70
142 113 70
143 112 70
143 111 70
144 111 70
145 110 70
145 110 70
146 109 70
147 108 70
147 108 70
148 107 70
149 106 70
149 106 70
150 105 70
151 104 70
151 104 70
152 103 70
152 103 70
153 102 70
154 101 70
154 101 70
155 100 70
156 99 70
156 99 70
157 98 70
158 97 70
158 97 70
159 96 70
159 95 70
160 95 70
161 94 70
161 94 70
162 93 70
163 92 70
163 92 70
164 91 70
165 90 70
165 90 70
166 89 70
167 88 70
167 88 70
168 87 70
168 87 70
169 86 70
170 85 70
170 85 70
171 84 70
172 83 70
172 83 70
173 82 70
174 81 70
174 81 70
175 80 70
175 79 70
176 79 70
177 78 70
177 78 70
178 77 70
179 76 70
179 76 70
180 75 70
181 74 70
181 74 70
182 73 70
183 72 70
183 72 70
184 71 70
184 71 70
185 70 70
186 69 70
186 69 70
187 68 70
188 67 70
188 67 70
189 66 70
190 65 70
190 65 70
191 64 70
191 63 70
192 63 70
193 62 70
193 62 70
194 61 70
195 60 70
195 60 70
196 59 70
197 58 70
197 58 70
198 57 70
199 56 70
199 56 70
200 55 70
200 55 70
201 54 70
202 53 70
202 53 70
203 52 70
204 51 70
204 51 70
205 50 70
206 49 70
206 49 70
207 48 70
207 47 70
208 47 70
209 46 70
209 46 70
210 45 70
211 44 70
211 44 70
212 43 70
213 42 70
213 42 70
214 41 70
215 40 70
215 40 70
216 39 70
216 39 70
217 38 70
218 37 70
218 37 70
219 36 70
220 35 70
220 35 70
221 34 70
222 33 70
222 33 70
223 32 70
223 31 70
224 31 70
225 30 70
225 30 70
226 29 70
227 28 70
227 28 70
228 27 70
229 26 70
229 26 70
230 25 70
231 24 70
231 24 70
232 23 70
232 23 70
233 22 70
234 21 70
234 21 70
235 20 70
236 19 70
236 19 70
237 18 70
238 17 70
238 17 70
239 16 70
239 15 70
240 15 70
241 14 70
241 14 70
242 13 70
243 12 70
243 12 70
244 11 70
245 10 70
245 10 70
246 9 70
247 8 70
247 8 70
248 7 70
248 7 70
249 6 70
250 5 70
250 5 70
251 4 70
252 3 70
252 3 70
253 2 70
254 1 70
254 1 70
255 0 70
0 255 71
0 255 71
1 254 71
1 254 71
2 253 71
3 252 71
3 252 71
4 251 71
5 250 71
5 250 71
6 249 71
7 248 71
7 248 71
8 247 71
8 247 71
9 246 71
10 245 71
10 245 71
11 244 71
12 243 71
12 243 71
13 242 71
14 241 71
14 241 71
15 240 71
15 239 71
16 239 71
17 238 71
17 238 71
18 237 71
19 236 71
19 236 71
20 235 71
21 234 71
21 234 71
22 233 71
23 232 71
23 232 71
24 231 71
24 231 71
25 230 71
26 229 71
26 229 71
27 228 71
28 227 71
28 227 71
29 226 71
30 225 71
30 225 71
31 224 71
31 223 71
32 223 71
33 222 71
33 222 71
34 221 71
35 220 71
35 220 71
36 219 71
37 218 71
37 218 71
38 217 71
39 216 71
39 216 71
40 215 71
40 215 71
41 214 71
42 213 71
42 213 71
43 212 71
44 211 71
44 211 71
45 210 71
46 209 71
46 209 71
47 208 71
47 207 71
48 207 71
49 206 71
49 206 71
50 205 71
51 204 71
51 204 71
52 203 71
53 202 71
53 202 71
54 201 71
55 200 71
55 200 71
56 199 71
56 199 71
57 198 71
58 197 71
58 197 71
59 196 71
60 195 71
60 195 71
61 194 71
62 193 71
62 193 71
63 192 71
63 191 71
64 191 71
65 190 71
65 190 71
66 189 71
67 188 71
67 188 71
68 187 71
69 186 71
69 186 71
70 185 71
71 184 71
71 184 71
72 183 71
72 183 71
73 182 71
74 181 71
74 181 71
75 180 71
76 179 71
76 179 71
77 178 71
78 177 71
78 177 71
79 176 71
79 175 71
80 175 71
81 174 71
81 174 71
82 173 71
83 172 71
83 172 71
84 171 71
85 170 71
85 170 71
86 169 71
87 168 71
87 168 71
88 167 71
88 167 71
89 166 71
90 165 71
90 165 71
91 164 71
92 163 71
92 163 71
93 162 71
94 161 71
94 161 71
95 160 71
95 159 71
96 159 71
97 158 71
97 158 71
98 157 71
99 156 71
99 156 71
100 155 71
101 154 71
101 154 71
102 153 71
103 152 71
103 152 71
104 151 71
104 151 71
105 150 71
106 149 71
106 149 71
107 148 71
108 147 71
108 147 71
109 146 71
110 145 71
110 145 71
111 144 71
111 143 71
112 143 71
113 142 71
113 142 71
114 141 71
115 140 71
115 140 71
116 139 71
117 138 71
117 138 71
118 137 71
119 136 71
119 136 71
120 135 71
120 135 71
121 134 71
122 133 71
122 133 71
123 132 71
124 131 71
124 131 71
125 130 71
126 129 71
126 129 71
127 128 71
127 127 71
128 127 71
129 126 71
129 126 71
130 125 71
131 124 71
131 124 71
132 123 71
133 122 71
133 122 71
134 121 71
135 120 71
135 120 71
136 119 71
136 119 71
137 118 71
138 117 71
138 117 71
139 116 71
140 115 71
140 115 71
141 114 71
142 113 71
142 113 71
143 112 71
143 111 71
144 111 71
145 110 71
145 110 71
146 109 71
147 108 71
147 108 71
148 107 71
149 106 71
149 106 71
150 105 71
151 104 71
151 104 71
152 103 71
152 103 71
153 102 71
154 101 71
154 101 71
155 100 71
156 99 71
156 99 71
157 98 71
158 97 71
158 97 71
159 96 71
159 95 71
160 95 71
161 94 71
161 94 71
162 93 71
163 92 71
163 92 71
164 91 71
165 90 71
165 90 71
166 89 71
167 88 71
167 88 71
168 87 71
168 87 71
169 86 71
170 85 71
170 85 71
171 84 71
172 83 71
172 83 71
173 82 71
174 81 71
174 81 71
175 80 71
175 79 71
176 79 71
177 78 71
177 78 71
178 77 71
179 76 71
179 76 71
180 75 71
181 74 71
181 74 71
182 73 71
183 72 71
183 72 71
184 71 71
184 71 71
185 70 71
186 69 71
186 69 71
187 68 71
188 67 71
188 67 71
189 66 71
190 65 71
190 65 71
191 64 71
191 63 71
192 63 71
193 62 71
193 62 71
194 61 71
195 60 71
195 60 71
196 59 71
197 58 71
197 58 71
198 57 71
199 56 71
199 56 71
200 55 71
200 55 71
201 54 71
202 53 71
202 53 71
203 52 71
204 51 71
204 51 71
205 50 71
206 49 71
206 49 71
207 48 71
207 47 71
208 47 71
209 46 71
209 46 71
210 45 71
211 44 71
211 44 71
212 43 71
213 42 71
213 42 71
214 41 71
215 40 71
215 40 71
216 39 71
216 39 71
217 38 71
218 37 71
218 37 71
219 36 71
220 35 71
220 35 71
221 34 71
222 33 71
222 33 71
223 32 71
223 31 71
224 31 71
225 30 71
225 30 71
226 29 71
227 28 71
227 28 71
228 27 71
229 26 71
229 26 71
230 25 71
231 24 71
231 24 71
232 23 71
232 23 71
233 22 71
234 21 71
234 21 71
235 20 71
236 19 71
236 19 71
237 18 71
238 17 71
238 17 71
239 16 71
239 15 71
240 15 71
241 14 71
241 14 71
242 13 71
243 12 71
243 12 71
244 11 71
245 10 71
245 10 71
246 9 71
247 8 71
247 8 71
248 7 71
248 7 71
249 6 71
250 5 71
250 5 71
251 4 71
252 3 71
252 3 71
253 2 71
254 1 71
254 1 71
255 0 71
0 255 72
0 255 72
1 254 72
1 254 72
2 253 72
3 252 72
3 252 72
4 251 72
5 250 72
5 250 72
6 249 72
7 248 72
7 248 72
8 247 72
8 247 72
9 246 72
10 245 72
10 245 72
11 244 72
12 243 72
12 243 72
13 242 72
14 241 72
14 241 72
15 240 72
15 239 72
16 239 72
17 238 72
17 238 72
18 237 72
19 236 72
19 236 72
20 235 72
21 234 72
21 234 72
22 233 72
23 232 72
23 232 72
24 231 72
24 231 72
25 230 72
26 229 72
26 229 72
27 228 72
28 227 72
28 227 72
29 226 72
30 225 72
30 225 72
31 224 72
31 223 72
32 223 72
33 222 72
33 222 72
34 221 72
35 220 72
35 220 72
36 219 72
37 218 72
37 218 72
38 217 72
39 216 72
39 216 72
40 215 72
40 215 72
41 214 72
42 213 72
42 213 72
43 212 72
44 211 72
44 211 72
45 210 72
46 209 72
46 209 72
47 208 72
47 207 72
48 207 72
49 206 72
49 206 72
50 205 72
51 204 72
51 204 72
52 203 72
53 202 72
53 202 72
54 201 72
55 200 72
55 200 72
56 199 72
56 199 72
57 198 72
58 197 72
58 197 72
59 196 72
60 195 72
60 195 72
61 194 72
62 193 72
62 193 72
63 192 72
63 191 72
64 191 72
65 190 72
65 190 72
66 189 72
67 188 72
67 188 72
68 187 72
69 186 72
69 186 72
70 185 72
71 184 72
71 184 72
72 183 72
72 183 72
73 182 72
74 181 72
74 181 72
75 180 72
76 179 72
76 179 72
77 178 72
78 177 72
78 177 72
79 176 72
79 175 72
80 175 72
81 174 72
81 174 72
82 173 72
83 172 72
83 172 72
84 171 72
85 170 72
85 170 72
86 169 72
87 168 72
87 168 72
88 167 72
88 167 72
89 166 72
90 165 72
90 165 72
91 164 72
92 163 72
92 163 72
93 162 72
94 161 72
94 161 72
95 160 72
95 159 72
96 159 72
97 158 72
97 158 72
98 157 72
99 156 72
99 156 72
100 155 72
101 154 72
101 154 72
102 153 72
103 152 72
103 152 72
104 151 72
104 151 72
105 150 72
106 149 72
106 149 72
107 148 72
108 147 72
108 147 72
109 146 72
110 145 72
110 145 72
111 144 72
111 143 72
112 143 72
113 142 72
113 142 72
114 141 72
115 140 72
115 140 72
116 139 72
117 138 72
117 138 72
118 137 72
119 136 72
119 136 72
120 135 72
120 135 72
121 134 72
122 133 72
122 133 72
123 132 72
124 131 72
124 131 72
125 130 72
126 129 72
126 129 72
127 128 72
127 127 72
128 127 72
129 126 72
129 126 72
130 125 72
131 124 72
131 124 72
132 123 72
133 122 72
133 122 72
134 121 72
135 120 72
135 120 72
136 119 72
136 119 72
137 118 72
138 117 72
138 117 72
139 116 72
140 115 72
140 115 72
141 114 72
142 113 72
142 113 72
143 112 72
143 111 72
144 111 72
145 110 72
145 110 72
146 109 72
147 108 72
147 108 72
148 107 72
149 106 72
149 106 72
150 105 72
151 104 72
151 104 72
152 103 72
152 103 72
153 102 72
154 101 72
154 101 72
155 100 72
156 99 72
156 99 72
157 98 72
158 97 72
158 97 72
159 96 72
159 95 72
160 95 72
161 94 72
161 94 72
162 93 72
163 92 72
163 92 72
164 91 72
165 90 72
165 90 72
166 89 72
167 88 72
167 88 72
168 87 72
168 87 72
169 86 72
170 85 72
170 85 72
171 84 72
172 83 72
172 83 72
173 82 72
174 81 72
174 81 72
175 80 72
175 79 72
176 79 72
177 78 72
177 78 72
178 77 72
179 76 72
179 76 72
180 75 72
181 74 72
181 74 72
182 73 72
183 72 72
183 72 72
184 71 72
184 71 72
185 70 72
186 69 72
186 69 72
187 68 72
188 67 72
188 67 72
189 66 72
190 65 72
190 65 72
191 64 72
191 63 72
192 63 72
193 62 72
193 62 72
194 61 72
195 60 72
195 60 72
196 59 72
197 58 72
197 58 72
198 57 72
199 56 72
199 56 72
200 55 72
200 55 72
201 54 72
202 53 72
202 53 72
203 52 72
204 51 72
204 51 72
205 50 72
206 49 72
206 49 72
207 48 72
207 47 72
208 47 72
209 46 72
209 46 72
210 45 72
211 44 72
211 44 72
212 43 72
213 42 72
213 42 72
214 41 72
215 40 72
215 40 72
216 39 72
216 39 72
217 38 72
218 37 72
218 37 72
219 36 72
220 35 72
220 35 72
221 34 72
222 33 72
222 33 72
223 32 72
223 31 72
224 31 72
225 30 72
225 30 72
226 29 72
227 28 72
227 28 72
228 27 72
229 26 72
229 26 72
230 25 72
231 24 72
231 24 72
232 23 72
232 23 72
233 22 72
234 21 72
234 21 72
235 20 72
236 19 72
236 19 72
237 18 72
238 17 72
238 17 72
239 16 72
239 15 72
240 15 72
241 14 72
241 14 72
242 13 72
243 12 72
243 12 72
244 11 72
245 10 72
245 10 72
246 9 72
247 8 72
247 8 72
248 7 72
248 7 72
249 6 72
250 5 72
250 5 72
251 4 72
252 3 72
252 3 72
253 2 72
254 1 72
254 1 72
255 0 72
0 255 73
0 255 73
1 254 73
1 254 73
2 253 73
3 252 73
3 252 73
4 251 73
5 250 73
5 250 73
6 249 73
7 248 73
7 248 73
8 247 73
8 247 73
9 246 73
10 245 73
10 245 73
11 244 73
12 243 73
12 243 73
13 242 73
14 241 73
14 241 73
15 240 73
15 239 73
16 239 73
17 238 73
17 238 73
18 237 73
19 236 73
19 236 73
20 235 73
21 234 73
21 234 73
22 233 73
23 232 73
23 232 73
24 231 73
24 231 73
25 230 73
26 229 73
26 229 73
27 228 73
28 227 73
28 227 73
29 226 73
30 225 73
30 225 73
31 224 73
31 223 73
32 223 73
33 222 73
33 222 73
34 221 73
35 220 73
35 220 73
36 219 73
37 218 73
37 218 73
38 217 73
39 216 73
39 216 73
40 215 73
40 215 73
41 214 73
42 213 73
42 213 73
43 212 73
44 211 73
44 211 73
45 210 73
46 209 73
46 209 73
47 208 73
47 207 73
48 207 73
49 206 73
49 206 73
50 205 73
51 204 73
51 204 73
52 203 73
53 202 73
53 202 73
54 201 73
55 200 73
55 200 73
56 199 73
56 199 73
57 198 73
58 197 73
58 197 73
59 196 73
60 195 73
60 195 73
61 194 73
62 193 73
62 193 73
63 192 73
63 191 73
64 191 73
65 190 73
65 190 73
66 189 73
67 188 73
67 188 73
68 187 73
69 186 73
69 186 73
70 185 73
71 184 73
71 184 73
72 183 73
72 183 73
73 182 73
74 181 73
74 181 73
75 180 73
76 179 73
76 179 73
77 178 73
78 177 73
78 177 73
79 176 73
79 175 73
80 175 73
81 174 73
81 174 73
82 173 73
83 172 73
83 172 73
84 171 73
85 170 73
85 170 73
86 169 73
87 168 73
87 168 73
88 167 73
88 167 73
89 166 73
90 165 73
90 165 73
91 164 73
92 163 73
92 163 73
93 162 73
94 161 73
94 161 73
95 160 73
95 159 73
96 159 73
97 158 73
97 158 73
98 157 73
99 156 73
99 156 73
100 155 73
101 154 73
101 154 73
102 153 73
103 152 73
103 152 73
104 151 73
104 151 73
105 150 73
106 149 73
106 149 73
107 148 73
108 147 73
108 147 73
109 146 73
110 145 73
110 145 73
111 144 73
111 143 73
112 143 73
113 142 73
113 142 73
114 141 73
115 140 73
115 140 73
116 139 73
117 138 73
117 138 73
118 137 73
119 136 73
119 136 73
120 135 73
120 135 73
121 134 73
122 133 73
122 133 73
123 132 73
124 131 73
124 131 73
125 130 73
126 129 73
126 129 73
127 128 73
127 127 73
128 127 73
129 126 73
129 126 73
130 125 73
131 124 73
131 124 73
132 123 73
133 122 73
133 122 73
134 121 73
135 120 73
135 120 73
136 119 73
136 119 73
137 118 73
138 117 73
138 117 73
139 116 73
140 115 73
140 115 73
141 114 73
142 113 73
142 113 73
143 112 73
143 111 73
144 111 73
145 110 73
145 110 73
146 109 73
147 108 73
147 108 73
148 107 73
149 106 73
149 106 73
150 105 73
151 104 73
151 104 73
152 103 73
152 103 73
153 102 73
154 101 73
154 101 73
155 100 73
156 99 73
156 99 73
157 98 73
158 97 73
158 97 73
159 96 73
159 95 73
160 95 73
161 94 73
161 94 73
162 93 73
163 92 73
163 92 73
164 91 73
165 90 73
165 90 73
166 89 73
167 88 73
167 88 73
168 87 73
168 87 73
169 86 73
170 85 73
170 85 73
171 84 73
172 83 73
172 83 73
173 82 73
174 81 73
174 81 73
175 80 73
175 79 73
176 79 73
177 78 73
177 78 73
178 77 73
179 76 73
179 76 73
180 75 73
181 74 73
181 74 73
182 73 73
183 72 73
183 72 73
184 71 73
184 71 73
185 70 73
186 69 73
186 69 73
187 68 73
188 67 73
188 67 73
189 66 73
190 65 73
190 65 73
191 64 73
191 63 73
192 63 73
193 62 73
193 62 73
194 61 73
195 60 73
195 60 73
196 59 73
197 58 73
197 58 73
198 57 73
199 56 73
199 56 73
200 55 73
200 55 73
201 54 73
202 53 73
202 53 73
203 52 73
204 51 73
204 51 73
205 50 73
206 49 73
206 49 73
207 48 73
207 47 73
208 47 73
209 46 73
209 46 73
210 45 73
211 44 73
211 44 73
212 43 73
213 42 73
213 42 73
214 41 73
215 40 73
215 40 73
216 39 73
216 39 73
217 38 73
218 37 73
218 37 73
219 36 73
220 35 73
220 35 73
221 34 73
222 33 73
222 33 73
223 32 73
223 31 73
224 31 73
225 30 73
225 30 73
226 29 73
227 28 73
227 28 73
228 27 73
229 26 73
229 26 73
230 25 73
231 24 73
231 24 73
232 23 73
232 23 73
233 22 73
234 21 73
234 21 73
235 20 73
236 19 73
236 19 73
237 18 73
238 17 73
238 17 73
239 16 73
239 15 73
240 15 73
241 14 73
241 14 73
242 13 73
243 12 73
243 12 73
244 11 73
245 10 73
245 10 73
246 9 73
247 8 73
247 8 73
248 7 73
248 7 73
249 6 73
250 5 73
250 5 73
251 4 73
252 3 73
252 3 73
253 2 73
254 1 73
254 1 73
255 0 73
0 255 75
0 255 75
1 254 75
1 254 75
2 253 75
3 252 75
3 252 75
4 251 75
5 250 75
5 250 75
6 249 75
7 248 75
7 248 75
8 247 75
8 247 75
9 246 75
10 245 75
10 245 75
11 244 75
12 243 75
12 243 75
13 242 75
14 241 75
14 241 75
15 240 75
15 239 75
16 239 75
17 238 75
17 238 75
18 237 75
19 236 75
19 236 75
20 235 75
21 234 75
21 234 75
22 233 75
23 232 75
23 232 75
24 231 75
24 231 75
25 230 75
26 229 75
26 229 75
27 228 75
28 227 75
28 227 75
29 226 75
30 225 75
30 225 75
31 224 75
31 223 75
32 223 75
33 222 75
33 222 75
34 221 75
35 220 75
35 220 75
36 219 75
37 218 75
37 218 75
38 217 75
39 216 75
39 216 75
40 215 75
40 215 75
41 214 75
42 213 75
42 213 75
43 212 75
44 211 75
44 211 75
45 210 75
46 209 75
46 209 75
47 208 75
47 207 75
48 207 75
49 206 75
49 206 75
50 205 75
51 204 75
51 204 75
52 203 75
53 202 75
53 202 75
54 201 75
55 200 75
55 200 75
56 199 75
56 199 75
57 198 75
58 197 75
58 197 75
59 196 75
60 195 75
60 195 75
61 194 75
62 193 75
62 193 75
63 192 75
63 191 75
64 191 75
65 190 75
65 190 75
66 189 75
67 188 75
67 188 75
68 187 75
69 186 75
69 186 75
70 185 75
71 184 75
71 184 75
72 183 75
72 183 75
73 182 75
74 181 75
74 181 75
75 180 75
76 179 75
76 179 75
77 178 75
78 177 75
78 177 75
79 176 75
79 175 75
80 175 75
81 174 75
81 174 75
82 173 75
83 172 75
83 172 75
84 171 75
85 170 75
85 170 75
86 169 75
87 168 75
87 168 75
88 167 75
88 167 75
89 166 75
90 165 75
90 165 75
91 164 75
92 163 75
92 163 75
93 162 75
94 161 75
94 161 75
95 160 75
95 159 75
96 159 75
97 158 75
97 158 75
98 157 75
99 156 75
99 156 75
100 155 75
101 154 75
101 154 75
102 153 75
103 152 75
103 152 75
104 151 75
104 151 75
105 150 75
106 149 75
106 149 75
107 148 75
108 147 75
108 147 75
109 146 75
110 145 75
110 145 75
111 144 75
111 143 75
112 143 75
113 142 75
113 142 75
114 141 75
115 140 75
115 140 75
116 139 75
117 138 75
117 138 75
118 137 75
119 136 75
119 136 75
120 135 75
120 135 75
121 134 75
122 133 75
122 133 75
123 132 75
124 131 75
124 131 75
125 130 75
126 129 75
126 129 75
127 128 75
127 127 75
128 127 75
129 126 75
129 126 75
130 125 75
131 124 75
131 124 75
132 123 75
133 122 75
133 122 75
134 121 75
135 120 75
135 120 75
136 119 75
136 119 75
137 118 75
138 117 75
138 117 75
139 116 75
140 115 75
140 115 75
141 114 75
142 113 75
142 113 75
143 112 75
143 111 75
144 111 75
145 110 75
145 110 75
146 109 75
147 108 75
147 108 75
148 107 75
149 106 75
149 106 75
150 105 75
151 104 75
151 104 75
152 103 75
152 103 75
153 102 75
154 101 75
154 101 75
155 100 75
156 99 75
156 99 75
157 98 75
158 97 75
158 97 75
159 96 75
159 95 75
160 95 75
161 94 75
161 94 75
162 93 75
163 92 75
163 92 75
164 91 75
165 90 75
165 90 75
166 89 75
167 88 75
167 88 75
168 87 75
168 87 75
169 86 75
170 85 75
170 85 75
171 84 75
172 83 75
172 83 75
173 82 75
174 81 75
174 81 75
175 80 75
175 79 75
176 79 75
177 78 75
177 78 75
178 77 75
179 76 75
179 76 75
180 75 75
181 74 75
181 74 75
182 73 75
183 72 75
183 72 75
184 71 75
184 71 75
185 70 75
186 69 75
186 69 75
187 68 75
188 67 75
188 67 75
189 66 75
190 65 75
190 65 75
191 64 75
191 63 75
192 63 75
193 62 75
193 62 75
194 61 75
195 60 75
195 60 75
196 59 75
197 58 75
197 58 75
198 57 75
199 56 75
199 56 75
200 55 75
200 55 75
201 54 75
202 53 75
202 53 75
203 52 75
204 51 75
204 51 75
205 50 75
206 49 75
206 49 75
207 48 75
207 47 75
208 47 75
209 46 75
209 46 75
210 45 75
211 44 75
211 44 75
212 43 75
213 42 75
213 42 75
214 41 75
215 40 75
215 40 75
216 39 75
216 39 75
217 38 75
218 37 75
218 37 75
219 36 75
220 35 75
220 35 75
221 34 75
222 33 75
222 33 75
223 32 75
223 31 75
224 31 75
225 30 75
225 30 75
226 29 75
227 28 75
227 28 75
228 27 75
229 26 75
229 26 75
230 25 75
231 24 75
231 24 75
232 23 75
232 23 75
233 22 75
234 21 75
234 21 75
235 20 75
236 19 75
236 19 75
237 18 75
238 17 75
238 17 75
239 16 75
239 15 75
240 15 75
241 14 75
241 14 75
242 13 75
243 12 75
243 12 75
244 11 75
245 10 75
245 10 75
246 9 75
247 8 75
247 8 75
248 7 75
248 7 75
249 6 75
250 5 75
250 5 75
251 4 75
252 3 75
252 3 75
253 2 75
254 1 75
254 1 75
255 0 75
0 255 76
0 255 76
1 254 76
1 254 76
2 253 76
3 252 76
3 252 76
4 251 76
5 250 76
5 250 76
6 249 76
7 248 76
7 248 76
8 247 76
8 247 76
9 246 76
10 245 76
10 245 76
11 244 76
12 243 76
12 243 76
13 242 76
14 241 76
14 241 76
15 240 76
15 239 76
16 239 76
17 238 76
17 238 76
18 237 76
19 236 76
19 236 76
20 235 76
21 234 76
21 234 76
22 233 76
23 232 76
23 232 76
24 231 76
24 231 76
25 230 76
26 229 76
26 229 76
27 228 76
28 227 76
28 227 76
29 226 76
30 225 76
30 225 76
31 224 76
31 223 76
32 223 76
33 222 76
33 222 76
34 221 76
35 220 76
35 220 76
36 219 76
37 218 76
37 218 76
38 217 76
39 216 76
39 216 76
40 215 76
40 215 76
41 214 76
42 213 76
42 213 76
43 212 76
44 211 76
44 211 76
45 210 76
46 209 76
46 209 76
47 208 76
47 207 76
48 207 76
49 206 76
49 206 76
50 205 76
51 204 76
51 204 76
52 203 76
53 202 76
53 202 76
54 201 76
55 200 76
55 200 76
56 199 76
56 199 76
57 198 76
58 197 76
58 197 76
59 196 76
60 195 76
60 195 76
61 194 76
62 193 76
62 193 76
63 192 76
63 191 76
64 191 76
65 190 76
65 190 76
66 189 76
67 188 76
67 188 76
68 187 76
69 186 76
69 186 76
70 185 76
71 184 76
71 184 76
72 183 76
72 183 76
73 182 76
74 181 76
74 181 76
75 180 76
76 179 76
76 179 76
77 178 76
78 177 76
78 177 76
79 176 76
79 175 76
80 175 76
81 174 76
81 174 76
82 173 76
83 172 76
83 172 76
84 171 76
85 170 76
85 170 76
86 169 76
87 168 76
87 168 76
88 167 76
88 167 76
89 166 76
90 165 76
90 165 76
91 164 76
92 163 76
92 163 76
93 162 76
94 161 76
94 161 76
95 160 76
95 159 76
96 159 76
97 158 76
97 158 76
98 157 76
99 156 76
99 156 76
100 155 76
101 154 76
101 154 76
102 153 76
103 152 76
103 152 76
104 151 76
104 151 76
105 150 76
106 149 76
106 149 76
107 148 76
108 147 76
108 147 76
109 146 76
110 145 76
110 145 76
111 144 76
111 143 76
112 143 76
113 142 76
113 142 76
114 141 76
115 140 76
115 140 76
116 139 76
117 138 76
117 138 76
118 137 76
119 136 76
119 136 76
120 135 76
120 135 76
121 134 76
122 133 76
122 133 76
123 132 76
124 131 76
124 131 76
125 130 76
126 129 76
126 129 76
127 128 76
127 127 76
128 127 76
129 126 76
129 126 76
130 125 76
131 124 76
131 124 76
132 123 76
133 122 76
133 122 76
134 121 76
135 120 76
135 120 76
136 119 76
136 119 76
137 118 76
138 117 76
138 117 76
139 116 76
140 115 76
140 115 76
141 114 76
142 113 76
142 113 76
143 112 76
143 111 76
144 111 76
145 110 76
145 110 76
146 109 76
147 108 76
147 108 76
148 107 76
149 106 76
149 106 76
150 105 76
151 104 76
151 104 76
152 103 76
152 103 76
153 102 76
154 101 76
154 101 76
155 100 76
156 99 76
156 99 76
157 98 76
158 97 76
158 97 76
159 96 76
159 95 76
160 95 76
161 94 76
161 94 76
162 93 76
163 92 76
163 92 76
164 91 76
165 90 76
165 90 76
166 89 76
167 88 76
167 88 76
168 87 76
168 87 76
169 86 76
170 85 76
170 85 76
171 84 76
172 83 76
172 83 76
173 82 76
174 81 76
174 81 76
175 80 76
175 79 76
176 79 76
177 78 76
177 78 76
178 77 76
179 76 76
179 76 76
180 75 76
181 74 76
181 74 76
182 73 76
183 72 76
183 72 76
184 71 76
184 71 76
185 70 76
186 69 76
186 69 76
187 68 76
188 67 76
188 67 76
189 66 76
190 65 76
190 65 76
191 64 76
191 63 76
192 63 76
193 62 76
193 62 76
194 61 76
195 60 76
195 60 76
196 59 76
197 58 76
197 58 76
198 57 76
199 56 76
199 56 76
200 55 76
200 55 76
201 54 76
202 53 76
202 53 76
203 52 76
204 51 76
204 51 76
205 50 76
206 49 76
206 49 76
207 48 76
207 47 76
208 47 76
209 46 76
209 46 76
210 45 76
211 44 76
211 44 76
212 43 76
213 42 76
213 42 76
214 41 76
215 40 76
215 40 76
216 39 76
216 39 76
217 38 76
218 37 76
218 37 76
219 36 76
220 35 76
220 35 76
221 34 76
222 33 76
222 33 76
223 32 76
223 31 76
224 31 76
225 30 76
225 30 76
226 29 76
227 28 76
227 28 76
228 27 76
229 26 76
229 26 76
230 25 76
231 24 76
231 24 76
232 23 76
232 23 76
233 22 76
234 21 76
234 21 76
235 20 76
236 19 76
236 19 76
237 18 76
238 17 76
238 17 76
239 16 76
239 15 76
240 15 76
241 14 76
241 14 76
242 13 76
243 12 76
243 12 76
244 11 76
245 10 76
245 10 76
246 9 76
247 8 76
247 8 76
248 7 76
248 7 76
249 6 76
250 5 76
250 5 76
251 4 76
252 3 76
252 3 76
253 2 76
254 1 76
254 1 76
255 0 76
0 255 77
0 255 77
1 254 77
1 254 77
2 253 77
3 252 77
3 252 77
4 251 77
5 250 77
5 250 77
6 249 77
7 248 77
7 248 77
8 247 77
8 247 77
9 246 77
10 245 77
10 245 77
11 244 77
12 243 77
12 243 77
13 242 77
14 241 77
14 241 77
15 240 77
15 239 77
16 239 77
17 238 77
17 238 77
18 237 77
19 236 77
19 236 77
20 235 77
21 234 77
21 234 77
22 233 77
23 232 77
23 232 77
24 231 77
24 231 77
25 230 77
26 229 77
26 229 77
27 228 77
28 227 77
28 227 77
29 226 77
30 225 77
30 225 77
31 224 77
31 223 77
32 223 77
33 222 77
33 222 77
34 221 77
35 220 77
35 220 77
36 219 77
37 218 77
37 218 77
38 217 77
39 216 77
39 216 77
40 215 77
40 215 77
41 214 77
42 213 77
42 213 77
43 212 77
44 211 77
44 211 77
45 210 77
46 209 77
46 209 77
47 208 77
47 207 77
48 207 77
49 206 77
49 206 77
50 205 77
51 204 77
51 204 77
52 203 77
53 202 77
53 202 77
54 201 77
55 200 77
55 200 77
56 199 77
56 199 77
57 198 77
58 197 77
58 197 77
59 196 77
60 195 77
60 195 77
61 194 77
62 193 77
62 193 77
63 192 77
63 191 77
64 191 77
65 190 77
65 190 77
66 189 77
67 188 77
67 188 77
68 187 77
69 186 77
69 186 77
70 185 77
71 184 77
71 184 77
72 183 77
72 183 77
73 182 77
74 181 77
74 181 77
75 180 77
76 179 77
76 179 77
77 178 77
78 177 77
78 177 77
79 176 77
79 175 77
80 175 77
81 174 77
81 174 77
82 173 77
83 172 77
83 172 77
84 171 77
85 170 77
85 170 77
86 169 77
87 168 77
87 168 77
88 167 77
88 167 77
89 166 77
90 165 77
90 165 77
91 164 77
92 163 77
92 163 77
93 162 77
94 161 77
94 161 77
95 160 77
95 159 77
96 159 77
97 158 77
97 158 77
98 157 77
99 156 77
99 156 77
100 155 77
101 154 77
101 154 77
102 153 77
103 152 77
103 152 77
104 151 77
104 151 77
105 150 77
106 149 77
106 149 77
107 148 77
108 147 77
108 147 77
109 146 77
110 145 77
110 145 77
111 144 77
111 143 77
112 143 77
113 142 77
113 142 77
114 141 77
115 140 77
115 140 77
116 139 77
117 138 77
117 138 77
118 137 77
119 136 77
119 136 77
120 135 77
120 135 77
121 134 77
122 133 77
122 133 77
123 132 77
124 131 77
124 131 77
125 130 77
126 129 77
126 129 77
127 128 77
127 127 77
128 127 77
129 126 77
129 126 77
130 125 77
131 124 77
131 124 77
132 123 77
133 122 77
133 122 77
134 121 77
135 120 77
135 120 77
136 119 77
136 119 77
137 118 77
138 117 77
138 117 77
139 116 77
140 115 77
140 115 77
141 114 77
142 113 77
142 113 77
143 112 77
143 111 77
144 111 77
145 110 77
145 110 77
146 109 77
147 108 77
147 108 77
148 107 77
149 106 77
149 106 77
150 105 77
151 104 77
151 104 77
152 103 77
152 103 77
153 102 77
154 101 77
154 101 77
155 100 77
156 99 77
156 99 77
157 98 77
158 97 77
158 97 77
159 96 77
159 95 77
160 95 77
161 94 77
161 94 77
162 93 77
163 92 77
163 92 77
164 91 77
165 90 77
165 90 77
166 89 77
167 88 77
167 88 77
168 87 77
168 87 77
169 86 77
170 85 77
170 85 77
171 84 77
172 83 77
172 83 77
173 82 77
174 81 77
174 81 77
175 80 77
175 79 77
176 79 77
177 78 77
177 78 77
178 77 77
179 76 77
179 76 77
180 75 77
181 74 77
181 74 77
182 73 77
183 72 77
183 72 77
184 71 77
184 71 77
185 70 77
186 69 77
186 69 77
187 68 77
188 67 77
188 67 77
189 66 77
190 65 77
190 65 77
191 64 77
191 63 77
192 63 77
193 62 77
193 62 77
194 61 77
195 60 77
195 60 77
196 59 77
197 58 77
197 58 77
198 57 77
199 56 77
199 56 77
200 55 77
200 55 77
201 54 77
202 53 77
202 53 77
203 52 77
204 51 77
204 51 77
205 50 77
206 49 77
206 49 77
207 48 77
207 47 77
208 47 77
209 46 77
209 46 77
210 45 77
211 44 77
211 44 77
212 43 77
213 42 77
213 42 77
214 41 77
215 40 77
215 40 77
216 39 77
216 39 77
217 38 77
218 37 77
218 37 77
219 36 77
220 35 77
220 35 77
221 34 77
222 33 77
222 33 77
223 32 77
223 31 77
224 31 77
225 30 77
225 30 77
226 29 77
227 28 77
227 28 77
228 27 77
229 26 77
229 26 77
230 25 77
231 24 77
231 24 77
232 23 77
232 23 77
233 22 77
234 21 77
234 21 77
235 20 77
236 19 77
236 19 77
237 18 77
238 17 77
238 17 77
239 16 77
239 15 77
240 15 77
241 14 77
241 14 77
242 13 77
243 12 77
243 12 77
244 11 77
245 10 77
245 10 77
246 9 77
247 8 77
247 8 77
248 7 77
248 7 77
249 6 77
250 5 77
250 5 77
251 4 77
252 3 77
252 3 77
253 2 77
254 1 77
254 1 77
255 0 77
0 255 78
0 255 78
1 254 78
1 254 78
2 253 78
3 252 78
3 252 78
4 251 78
5 250 78
5 250 78
6 249 78
7 248 78
7 248 78
8 247 78
8 247 78
9 246 78
10 245 78
10 245 78
11 244 78
12 243 78
12 243 78
13 242 78
14 241 78
14 241 78
15 240 78
15 239 78
16 239 78
17 238 78
17 238 78
18 237 78
19 236 78
19 236 78
20 235 78
21 234 78
21 234 78
22 233 78
23 232 78
23 232 78
24 231 78
24 231 78
25 230 78
26 229 78
26 229 78
27 228 78
28 227 78
28 227 78
29 226 78
30 225 78
30 225 78
31 224 78
31 223 78
32 223 78
33 222 78
33 222 78
34 221 78
35 220 78
35 220 78
36 219 78
37 218 78
37 218 78
38 217 78
39 216 78
39 216 78
40 215 78
40 215 78
41 214 78
42 213 78
42 213 78
43 212 78
44 211 78
44 211 78
45 210 78
46 209 78
46 209 78
47 208 78
47 207 78
48 207 78
49 206 78
49 206 78
50 205 78
51 204 78
51 204 78
52 203 78
53 202 78
53 202 78
54 201 78
55 200 78
55 200 78
56 199 78
56 199 78
57 198 78
58 197 78
58 197 78
59 196 78
60 195 78
60 195 78
61 194 78
62 193 78
62 193 78
63 192 78
63 191 78
64 191 78
65 190 78
65 190 78
66 189 78
67 188 78
67 188 78
68 187 78
69 186 78
69 186 78
70 185 78
71 184 78
71 184 78
72 183 78
72 183 78
73 182 78
74 181 78
74 181 78
75 180 78
76 179 78
76 179 78
77 178 78
78 177 78
78 177 78
79 176 78
79 175 78
80 175 78
81 174 78
81 174 78
82 173 78
83 172 78
83 172 78
84 171 78
85 170 78
85 170 78
86 169 78
87 168 78
87 168 78
88 167 78
88 167 78
89 166 78
90 165 78
90 165 78
91 164 78
92 163 78
92 163 78
93 162 78
94 161 78
94 161 78
95 160 78
95 159 78
96 159 78
97 158 78
97 158 78
98 157 78
99 156 78
99 156 78
100 155 78
101 154 78
101 154 78
102 153 78
103 152 78
103 152 78
104 151 78
104 151 78
105 150 78
106 149 78
106 149 78
107 148 78
108 147 78
108 147 78
109 146 78
110 145 78
110 145 78
111 144 78
111 143 78
112 143 78
113 142 78
113 142 78
114 141 78
115 140 78
115 140 78
116 139 78
117 138 78
117 138 78
118 137 78
119 136 78
119 136 78
120 135 78
120 135 78
121 134 78
122 133 78
122 133 78
123 132 78
124 131 78
124 131 78
125 130 78
126 129 78
126 129 78
127 128 78
127 127 78
128 127 78
129 126 78
129 126 78
130 125 78
131 124 78
131 124 78
132 123 78
133 122 78
133 122 78
134 121 78
135 120 78
135 120 78
136 119 78
136 119 78
137 118 78
138 117 78
138 117 78
139 116 78
140 115 78
140 115 78
141 114 78
142 113 78
142 113 78
143 112 78
143 111 78
144 111 78
145 110 78
145 110 78
146 109 78
147 108 78
147 108 78
148 107 78
149 106 78
149 106 78
150 105 78
151 104 78
151 104 78
152 103 78
152 103 78
153 102 78
154 101 78
154 101 78
155 100 78
156 99 78
156 99 78
157 98 78
158 97 78
158 97 78
159 96 78
159 95 78
160 95 78
161 94 78
161 94 78
162 93 78
163 92 78
163 92 78
164 91 78
165 90 78
165 90 78
166 89 78
167 88 78
167 88 78
168 87 78
168 87 78
169 86 78
170 85 78
170 85 78
171 84 78
172 83 78
172 83 78
173 82 78
174 81 78
174 81 78
175 80 78
175 79 78
176 79 78
177 78 78
177 78 78
178 77 78
179 76 78
179 76 78
180 75 78
181 74 78
181 74 78
182 73 78
183 72 78
183 72 78
184 71 78
184 71 78
185 70 78
186 69 78
186 69 78
187 68 78
188 67 78
188 67 78
189 66 78
190 65 78
190 65 78
191 64 78
191 63 78
192 63 78
193 62 78
193 62 78
194 61 78
195 60 78
195 60 78
196 59 78
197 58 78
197 58 78
198 57 78
199 56 78
199 56 78
200 55 78
200 55 78
201 54 78
202 53 78
202 53 78
203 52 78
204 51 78
204 51 78
205 50 78
206 49 78
206 49 78
207 48 78
207 47 78
208 47 78
209 46 78
209 46 78
210 45 78
211 44 78
211 44 78
212 43 78
213 42 78
213 42 78
214 41 78
215 40 78
215 40 78
216 39 78
216 39 78
217 38 78
218 37 78
218 37 78
219 36 78
220 35 78
220 35 78
221 34 78
222 33 78
222 33 78
223 32 78
223 31 78
224 31 78
225 30 78
225 30 78
226 29 78
227 28 78
227 28 78
228 27 78
229 26 78
229 26 78
230 25 78
231 24 78
231 24 78
232 23 78
232 23 78
233 22 78
234 21 78
234 21 78
235 20 78
236 19 78
236 19 78
237 18 78
238 17 78
238 17 78
239 16 78
239 15 78
240 15 78
241 14 78
241 14 78
242 13 78
243 12 78
243 12 78
244 11 78
245 10 78
245 10 78
246 9 78
247 8 78
247 8 78
248 7 78
248 7 78
249 6 78
250 5 78
250 5 78
251 4 78
252 3 78
252 3 78
253 2 78
254 1 78
254 1 78
255 0 78
0 255 79
0 255 79
1 254 79
1 254 79
2 253 79
3 252 79
3 252 79
4 251 79
5 250 79
5 250 79
6 249 79
7 248 79
7 248 79
8 247 79
8 247 79
9 246 79
10 245 79
10 245 79
11 244 79
12 243 79
12 243 79
13 242 79
14 241 79
14 241 79
15 240 79
15 239 79
16 239 79
17 238 79
17 238 79
18 237 79
19 236 79
19 236 79
20 235 79
21 234 79
21 234 79
22 233 79
23 232 79
23 232 79
24 231 79
24 231 79
25 230 79
26 229 79
26 229 79
27 228 79
28 227 79
28 227 79
29 226 79
30 225 79
30 225 79
31 224 79
31 223 79
32 223 79
33 222 79
33 222 79
34 221 79
35 220 79
35 220 79
36 219 79
37 218 79
37 218 79
38 217 79
39 216 79
39 216 79
40 215 79
40 215 79
41 214 79
42 213 79
42 213 79
43 212 79
44 211 79
44 211 79
45 210 79
46 209 79
46 209 79
47 208 79
47 207 79
48 207 79
49 206 79
49 206 79
50 205 79
51 204 79
51 204 79
52 203 79
53 202 79
53 202 79
54 201 79
55 200 79
55 200 79
56 199 79
56 199 79
57 198 79
58 197 79
58 197 79
59 196 79
60 195 79
60 195 79
61 194 79
62 193 79
62 193 79
63 192 79
63 191 79
64 191 79
65 190 79
65 190 79
66 189 79
67 188 79
67 188 79
68 187 79
69 186 79
69 186 79
70 185 79
71 184 79
71 184 79
72 183 79
72 183 79
73 182 79
74 181 79
74 181 79
75 180 79
76 179 79
76 179 79
77 178 79
78 177 79
78 177 79
79 176 79
79 175 79
80 175 79
81 174 79
81 174 79
82 173 79
83 172 79
83 172 79
84 171 79
85 170 79
85 170 79
86 169 79
87 168 79
87 168 79
88 167 79
88 167 79
89 166 79
90 165 79
90 165 79
91 164 79
92 163 79
92 163 79
93 162 79
94 161 79
94 161 79
95 160 79
95 159 79
96 159 79
97 158 79
97 158 79
98 157 79
99 156 79
99 156 79
100 155 79
101 154 79
101 154 79
102 153 79
103 152 79
103 152 79
104 151 79
104 151 79
105 150 79
106 149 79
106 149 79
107 148 79
108 147 79
108 147 79
109 146 79
110 145 79
110 145 79
111 144 79
111 143 79
112 143 79
113 142 79
113 142 79
114 141 79
115 140 79
115 140 79
116 139 79
117 138 79
117 138 79
118 137 79
119 136 79
119 136 79
120 135 79
120 135 79
121 134 79
122 133 79
122 133 79
123 132 79
124 131 79
124 131 79
125 130 79
126 129 79
126 129 79
127 128 79
127 127 79
128 127 79
129 126 79
129 126 79
130 125 79
131 124 79
131 124 79
132 123 79
133 122 79
133 122 79
134 121 79
135 120 79
135 120 79
136 119 79
136 119 79
137 118 79
138 117 79
138 117 79
139 116 79
140 115 79
140 115 79
141 114 79
142 113 79
142 113 79
143 112 79
143 111 79
144 111 79
145 110 79
145 110 79
146 109 79
147 108 79
147 108 79
148 107 79
149 106 79
149 106 79
150 105 79
151 104 79
151 104 79
152 103 79
152 103 79
153 102 79
154 101 79
154 101 79
155 100 79
156 99 79
156 99 79
157 98 79
158 97 79
158 97 79
159 96 79
159 95 79
160 95 79
161 94 79
161 94 79
162 93 79
163 92 79
163 92 79
164 91 79
165 90 79
165 90 79
166 89 79
167 88 79
167 88 79
168 87 79
168 87 79
169 86 79
170 85 79
170 85 79
171 84 79
172 83 79
172 83 79
173 82 79
174 81 79
174 81 79
175 80 79
175 79 79
176 79 79
177 78 79
177 78 79
178 77 79
179 76 79
179 76 79
180 75 79
181 74 79
181 74 79
182 73 79
183 72 79
183 72 79
184 71 79
184 71 79
185 70 79
186 69 79
186 69 79
187 68 79
188 67 79
188 67 79
189 66 79
190 65 79
190 65 79
191 64 79
191 63 79
192 63 79
193 62 79
193 62 79
194 61 79
195 60 79
195 60 79
196 59 79
197 58 79
197 58 79
198 57 79
199 56 79
199 56 79
200 55 79
200 55 79
201 54 79
202 53 79
202 53 79
203 52 79
204 51 79
204 51 79
205 50 79
206 49 79
206 49 79
207 48 79
207 47 79
208 47 79
209 46 79
209 46 79
210 45 79
211 44 79
211 44 79
212 43 79
213 42 79
213 42 79
214 41 79
215 40 79
215 40 79
216 39 79
216 39 79
217 38 79
218 37 79
218 37 79
219 36 79
220 35 79
220 35 79
221 34 79
222 33 79
222 33 79
223 32 79
223 31 79
224 31 79
225 30 79
225 30 79
226 29 79
227 28 79
227 28 79
228 27 79
229 26 79
229 26 79
230 25 79
231 24 79
231 24 79
232 23 79
232 23 79
233 22 79
234 21 79
234 21 79
235 20 79
236 19 79
236 19 79
237 18 79
238 17 79
238 17 79
239 16 79
239 15 79
240 15 79
241 14 79
241 14 79
242 13 79
243 12 79
243 12 79
244 11 79
245 10 79
245 10 79
246 9 79
247 8 79
247 8 79
248 7 79
248 7 79
249 6 79
250 5 79
250 5 79
251 4 79
252 3 79
252 3 79
253 2 79
254 1 79
254 1 79
255 0 79
0 255 80
0 255 80
1 254 80
1 254 80
2 253 80
3 252 80
3 252 80
4 251 80
5 250 80
5 250 80
6 249 80
7 248 80
7 248 80
8 247 80
8 247 80
9 246 80
10 245 80
10 245 80
11 244 80
12 243 80
12 243 80
13 242 80
14 241 80
14 241 80
15 240 80
15 239 80
16 239 80
17 238 80
17 238 80
18 237 80
19 236 80
19 236 80
20 235 80
21 234 80
21 234 80
22 233 80
23 232 80
23 232 80
24 231 80
24 231 80
25 230 80
26 229 80
26 229 80
27 228 80
28 227 80
28 227 80
29 226 80
30 225 80
30 225 80
31 224 80
31 223 80
32 223 80
33 222 80
33 222 80
34 221 80
35 220 80
35 220 80
36 219 80
37 218 80
37 218 80
38 217 80
39 216 80
39 216 80
40 215 80
40 215 80
41 214 80
42 213 80
42 213 80
43 212 80
44 211 80
44 211 80
45 210 80
46 209 80
46 209 80
47 208 80
47 207 80
48 207 80
49 206 80
49 206 80
50 205 80
51 204 80
51 204 80
52 203 80
53 202 80
53 202 80
54 201 80
55 200 80
55 200 80
56 199 80
56 199 80
57 198 80
58 197 80
58 197 80
59 196 80
60 195 80
60 195 80
61 194 80
62 193 80
62 193 80
63 192 80
63 191 80
64 191 80
65 190 80
65 190 80
66 189 80
67 188 80
67 188 80
68 187 80
69 186 80
69 186 80
70 185 80
71 184 80
71 184 80
72 183 80
72 183 80
73 182 80
74 181 80
74 181 80
75 180 80
76 179 80
76 179 80
77 178 80
78 177 80
78 177 80
79 176 80
79 175 80
80 175 80
81 174 80
81 174 80
82 173 80
83 172 80
83 172 80
84 171 80
85 170 80
85 170 80
86 169 80
87 168 80
87 168 80
88 167 80
88 167 80
89 166 80
90 165 80
90 165 80
91 164 80
92 163 80
92 163 80
93 162 80
94 161 80
94 161 80
95 160 80
95 159 80
96 159 80
97 158 80
97 158 80
98 157 80
99 156 80
99 156 80
100 155 80
101 154 80
101 154 80
102 153 80
103 152 80
103 152 80
104 151 80
104 151 80
105 150 80
106 149 80
106 149 80
107 148 80
108 147 80
108 147 80
109 146 80
110 145 80
110 145 80
111 144 80
111 143 80
112 143 80
113 142 80
113 142 80
114 141 80
115 140 80
115 140 80
116 139 80
117 138 80
117 138 80
118 137 80
119 136 80
119 136 80
120 135 80
120 135 80
121 134 80
122 133 80
122 133 80
123 132 80
124 131 80
124 131 80
125 130 80
126 129 80
126 129 80
127 128 80
127 127 80
128 127 80
129 126 80
129 126 80
130 125 80
131 124 80
131 124 80
132 123 80
133 122 80
133 122 80
134 121 80
135 120 80
135 120 80
136 119 80
136 119 80
137 118 80
138 117 80
138 117 80
139 116 80
140 115 80
140 115 80
141 114 80
142 113 80
142 113 80
143 112 80
143 111 80
144 111 80
145 110 80
145 110 80
146 109 80
147 108 80
147 108 80
148 107 80
149 106 80
149 106 80
150 105 80
151 104 80
151 104 80
152 103 80
152 103 80
153 102 80
154 101 80
154 101 80
155 100 80
156 99 80
156 99 80
157 98 80
158 97 80
158 97 80
159 96 80
159 95 80
160 95 80
161 94 80
161 94 80
162 93 80
163 92 80
163 92 80
164 91 80
165 90 80
165 90 80
166 89 80
167 88 80
167 88 80
168 87 80
168 87 80
169 86 80
170 85 80
170 85 80
171 84 80
172 83 80
172 83 80
173 82 80
174 81 80
174 81 80
175 80 80
175 79 80
176 79 80
177 78 80
177 78 80
178 77 80
179 76 80
179 76 80
180 75 80
181 74 80
181 74 80
182 73 80
183 72 80
183 72 80
184 71 80
184 71 80
185 70 80
186 69 80
186 69 80
187 68 80
188 67 80
188 67 80
189 66 80
190 65 80
190 65 80
191 64 80
191 63 80
192 63 80
193 62 80
193 62 80
194 61 80
195 60 80
195 60 80
196 59 80
197 58 80
197 58 80
198 57 80
199 56 80
199 56 80
200 55 80
200 55 80
201 54 80
202 53 80
202 53 80
203 52 80
204 51 80
204 51 80
205 50 80
206 49 80
206 49 80
207 48 80
207 47 80
208 47 80
209 46 80
209 46 80
210 45 80
211 44 80
211 44 80
212 43 80
213 42 80
213 42 80
214 41 80
215 40 80
215 40 80
216 39 80
216 39 80
217 38 80
218 37 80
218 37 80
219 36 80
220 35 80
220 35 80
221 34 80
222 33 80
222 33 80
223 32 80
223 31 80
224 31 80
225 30 80
225 30 80
226 29 80
227 28 80
227 28 80
228 27 80
229 26 80
229 26 80
230 25 80
231 24 80
231 24 80
232 23 80
232 23 80
233 22 80
234 21 80
234 21 80
235 20 80
236 19 80
236 19 80
237 18 80
238 17 80
238 17 80
239 16 80
239 15 80
240 15 80
241 14 80
241 14 80
242 13 80
243 12 80
243 12 80
244 11 80
245 10 80
245 10 80
246 9 80
247 8 80
247 8 80
248 7 80
248 7 80
249 6 80
250 5 80
250 5 80
251 4 80
252 3 80
252 3 80
253 2 80
254 1 80
254 1 80
255 0 80
0 255 81
0 255 81
1 254 81
1 254 81
2 253 81
3 252 81
3 252 81
4 251 81
5 250 81
5 250 81
6 249 81
7 248 81
7 248 81
8 247 81
8 247 81
9 246 81
10 245 81
10 245 81
11 244 81
12 243 81
12 243 81
13 242 81
14 241 81
14 241 81
15 240 81
15 239 81
16 239 81
17 238 81
17 238 81
18 237 81
19 236 81
19 236 81
20 235 81
21 234 81
21 234 81
22 233 81
23 232 81
23 232 81
24 231 81
24 231 81
25 230 81
26 229 81
26 229 81
27 228 81
28 227 81
28 227 81
29 226 81
30 225 81
30 225 81
31 224 81
31 223 81
32 223 81
33 222 81
33 222 81
34 221 81
35 220 81
35 220 81
36 219 81
37 218 81
37 218 81
38 217 81
39 216 81
39 216 81
40 215 81
40 215 81
41 214 81
42 213 81
42 213 81
43 212 81
44 211 81
44 211 81
45 210 81
46 209 81
46 209 81
47 208 81
47 207 81
48 207 81
49 206 81
49 206 81
50 205 81
51 204 81
51 204 81
52 203 81
53 202 81
53 202 81
54 201 81
55 200 81
55 200 81
56 199 81
56 199 81
57 198 81
58 197 81
58 197 81
59 196 81
60 195 81
60 195 81
61 194 81
62 193 81
62 193 81
63 192 81
63 191 81
64 191 81
65 190 81
65 190 81
66 189 81
67 188 81
67 188 81
68 187 81
69 186 81
69 186 81
70 185 81
71 184 81
71 184 81
72 183 81
72 183 81
73 182 81
74 181 81
74 181 81
75 180 81
76 179 81
76 179 81
77 178 81
78 177 81
78 177 81
79 176 81
79 175 81
80 175 81
81 174 81
81 174 81
82 173 81
83 172 81
83 172 81
84 171 81
85 170 81
85 170 81
86 169 81
87 168 81
87 168 81
88 167 81
88 167 81
89 166 81
90 165 81
90 165 81
91 164 81
92 163 81
92 163 81
93 162 81
94 161 81
94 161 81
95 160 81
95 159 81
96 159 81
97 158 81
97 158 81
98 157 81
99 156 81
99 156 81
100 155 81
101 154 81
101 154 81
102 153 81
103 152 81
103 152 81
104 151 81
104 151 81
105 150 81
106 149 81
106 149 81
107 148 81
108 147 81
108 147 81
109 146 81
110 145 81
110 145 81
111 144 81
111 143 81
112 143 81
113 142 81
113 142 81
114 141 81
115 140 81
115 140 81
116 139 81
117 138 81
117 138 81
118 137 81
119 136 81
119 136 81
120 135 81
120 135 81
121 134 81
122 133 81
122 133 81
123 132 81
124 131 81
124 131 81
125 130 81
126 129 81
126 129 81
127 128 81
127 127 81
128 127 81
129 126 81
129 126 81
130 125 81
131 124 81
131 124 81
132 123 81
133 122 81
133 122 81
134 121 81
135 120 81
135 120 81
136 119 81
136 119 81
137 118 81
138 117 81
138 117 81
139 116 81
140 115 81
140 115 81
141 114 81
142 113 81
142 113 81
143 112 81
143 111 81
144 111 81
145 110 81
145 110 81
146 109 81
147 108 81
147 108 81
148 107 81
149 106 81
149 106 81
150 105 81
151 104 81
151 104 81
152 103 81
152 103 81
153 102 81
154 101 81
154 101 81
155 100 81
156 99 81
156 99 81
157 98 81
158 97 81
158 97 81
159 96 81
159 95 81
160 95 81
161 94 81
161 94 81
162 93 81
163 92 81
163 92 81
164 91 81
165 90 81
165 90 81
166 89 81
167 88 81
167 88 81
168 87 81
168 87 81
169 86 81
170 85 81
170 85 81
171 84 81
172 83 81
172 83 81
173 82 81
174 81 81
174 81 81
175 80 81
175 79 81
176 79 81
177 78 81
177 78 81
178 77 81
179 76 81
179 76 81
180 75 81
181 74 81
181 74 81
182 73 81
183 72 81
183 72 81
184 71 81
184 71 81
185 70 81
186 69 81
186 69 81
187 68 81
188 67 81
188 67 81
189 66 81
190 65 81
190 65 81
191 64 81
191 63 81
192 63 81
193 62 81
193 62 81
194 61 81
195 60 81
195 60 81
196 59 81
197 58 81
197 58 81
198 57 81
199 56 81
199 56 81
200 55 81
200 55 81
201 54 81
202 53 81
202 53 81
203 52 81
204 51 81
204 51 81
205 50 81
206 49 81
206 49 81
207 48 81
207 47 81
208 47 81
209 46 81
209 46 81
210 45 81
211 44 81
211 44 81
212 43 81
213 42 81
213 42 81
214 41 81
215 40 81
215 40 81
216 39 81
216 39 81
217 38 81
218 37 81
218 37 81
219 36 81
220 35 81
220 35 81
221 34 81
222 33 81
222 33 81
223 32 81
223 31 81
224 31 81
225 30 81
225 30 81
226 29 81
227 28 81
227 28 81
228 27 81
229 26 81
229 26 81
230 25 81
231 24 81
231 24 81
232 23 81
232 23 81
233 22 81
234 21 81
234 21 81
235 20 81
236 19 81
236 19 81
237 18 81
238 17 81
238 17 81
239 16 81
239 15 81
240 15 81
241 14 81
241 14 81
242 13 81
243 12 81
243 12 81
244 11 81
245 10 81
245 10 81
246 9 81
247 8 81
247 8 81
248 7 81
248 7 81
249 6 81
250 5 81
250 5 81
251 4 81
252 3 81
252 3 81
253 2 81
254 1 81
254 1 81
255 0 81
0 255 83
0 255 83
1 254 83
1 254 83
2 253 83
3 252 83
3 252 83
4 251 83
5 250 83
5 250 83
6 249 83
7 248 83
7 248 83
8 247 83
8 247 83
9 246 83
10 245 83
10 245 83
11 244 83
12 243 83
12 243 83
13 242 83
14 241 83
14 241 83
15 240 83
15 239 83
16 239 83
17 238 83
17 238 83
18 237 83
19 236 83
19 236 83
20 235 83
21 234 83
21 234 83
22 233 83
23 232 83
23 232 83
24 231 83
24 231 83
25 230 83
26 229 83
26 229 83
27 228 83
28 227 83
28 227 83
29 226 83
30 225 83
30 225 83
31 224 83
31 223 83
32 223 83
33 222 83
33 222 83
34 221 83
35 220 83
35 220 83
36 219 83
37 218 83
37 218 83
38 217 83
39 216 83
39 216 83
40 215 83
40 215 83
41 214 83
42 213 83
42 213 83
43 212 83
44 211 83
44 211 83
45 210 83
46 209 83
46 209 83
47 208 83
47 207 83
48 207 83
49 206 83
49 206 83
50 205 83
51 204 83
51 204 83
52 203 83
53 202 83
53 202 83
54 201 83
55 200 83
55 200 83
56 199 83
56 199 83
57 198 83
58 197 83
58 197 83
59 196 83
60 195 83
60 195 83
61 194 83
62 193 83
62 193 83
63 192 83
63 191 83
64 191 83
65 190 83
65 190 83
66 189 83
67 188 83
67 188 83
68 187 83
69 186 83
69 186 83
70 185 83
71 184 83
71 184 83
72 183 83
72 183 83
73 182 83
74 181 83
74 181 83
75 180 83
76 179 83
76 179 83
77 178 83
78 177 83
78 177 83
79 176 83
79 175 83
80 175 83
81 174 83
81 174 83
82 173 83
83 172 83
83 172 83
84 171 83
85 170 83
85 170 83
86 169 83
87 168 83
87 168 83
88 167 83
88 167 83
89 166 83
90 165 83
90 165 83
91 164 83
92 163 83
92 163 83
93 162 83
94 161 83
94 161 83
95 160 83
95 159 83
96 159 83
97 158 83
97 158 83
98 157 83
99 156 83
99 156 83
100 155 83
101 154 83
101 154 83
102 153 83
103 152 83
103 152 83
104 151 83
104 151 83
105 150 83
106 149 83
106 149 83
107 148 83
108 147 83
108 147 83
109 146 83
110 145 83
110 145 83
111 144 83
111 143 83
112 143 83
113 142 83
113 142 83
114 141 83
115 140 83
115 140 83
116 139 83
117 138 83
117 138 83
118 137 83
119 136 83
119 136 83
120 135 83
120 135 83
121 134 83
122 133 83
122 133 83
123 132 83
124 131 83
124 131 83
125 130 83
126 129 83
126 129 83
127 128 83
127 127 83
128 127 83
129 126 83
129 126 83
130 125 83
131 124 83
131 124 83
132 123 83
133 122 83
133 122 83
134 121 83
135 120 83
135 120 83
136 119 83
136 119 83
137 118 83
138 117 83
138 117 83
139 116 83
140 115 83
140 115 83
141 114 83
142 113 83
142 113 83
143 112 83
143 111 83
144 111 83
145 110 83
145 110 83
146 109 83
147 108 83
147 108 83
148 107 83
149 106 83
149 106 83
150 105 83
151 104 83
151 104 83
152 103 83
152 103 83
153 102 83
154 101 83
154 101 83
155 100 83
156 99 83
156 99 83
157 98 83
158 97 83
158 97 83
159 96 83
159 95 83
160 95 83
161 94 83
161 94 83
162 93 83
163 92 83
163 92 83
164 91 83
165 90 83
165 90 83
166 89 83
167 88 83
167 88 83
168 87 83
168 87 83
169 86 83
170 85 83
170 85 83
171 84 83
172 83 83
172 83 83
173 82 83
174 81 83
174 81 83
175 80 83
175 79 83
176 79 83
177 78 83
177 78 83
178 77 83
179 76 83
179 76 83
180 75 83
181 74 83
181 74 83
182 73 83
183 72 83
183 72 83
184 71 83
184 71 83
185 70 83
186 69 83
186 69 83
187 68 83
188 67 83
188 67 83
189 66 83
190 65 83
190 65 83
191 64 83
191 63 83
192 63 83
193 62 83
193 62 83
194 61 83
195 60 83
195 60 83
196 59 83
197 58 83
197 58 83
198 57 83
199 56 83
199 56 83
200 55 83
200 55 83
201 54 83
202 53 83
202 53 83
203 52 83
204 51 83
204 51 83
205 50 83
206 49 83
206 49 83
207 48 83
207 47 83
208 47 83
209 46 83
209 46 83
210 45 83
211 44 83
211 44 83
212 43 83
213 42 83
213 42 83
214 41 83
215 40 83
215 40 83
216 39 83
216 39 83
217 38 83
218 37 83
218 37 83
219 36 83
220 35 83
220 35 83
221 34 83
222 33 83
222 33 83
223 32 83
223 31 83
224 31 83
225 30 83
225 30 83
226 29 83
227 28 83
227 28 83
228 27 83
229 26 83
229 26 83
230 25 83
231 24 83
231 24 83
232 23 83
232 23 83
233 22 83
234 21 83
234 21 83
235 20 83
236 19 83
236 19 83
237 18 83
238 17 83
238 17 83
239 16 83
239 15 83
240 15 83
241 14 83
241 14 83
242 13 83
243 12 83
243 12 83
244 11 83
245 10 83
245 10 83
246 9 83
247 8 83
247 8 83
248 7 83
248 7 83
249 6 83
250 5 83
250 5 83
251 4 83
252 3 83
252 3 83
253 2 83
254 1 83
254 1 83
255 0 83
0 255 84
0 255 84
1 254 84
1 254 84
2 253 84
3 252 84
3 252 84
4 251 84
5 250 84
5 250 84
6 249 84
7 248 84
7 248 84
8 247 84
8 247 84
9 246 84
10 245 84
10 245 84
11 244 84
12 243 84
12 243 84
13 242 84
14 241 84
14 241 84
15 240 84
15 239 84
16 239 84
17 238 84
17 238 84
18 237 84
19 236 84
19 236 84
20 235 84
21 234 84
21 234 84
22 233 84
23 232 84
23 232 84
24 231 84
24 231 84
25 230 84
26 229 84
26 229 84
27 228 84
28 227 84
28 227 84
29 226 84
30 225 84
30 225 84
31 224 84
31 223 84
32 223 84
33 222 84
33 222 84
34 221 84
35 220 84
35 220 84
36 219 84
37 218 84
37 218 84
38 217 84
39 216 84
39 216 84
40 215 84
40 215 84
41 214 84
42 213 84
42 213 84
43 212 84
44 211 84
44 211 84
45 210 84
46 209 84
46 209 84
47 208 84
47 207 84
48 207 84
49 206 84
49 206 84
50 205 84
51 204 84
51 204 84
52 203 84
53 202 84
53 202 84
54 201 84
55 200 84
55 200 84
56 199 84
56 199 84
57 198 84
58 197 84
58 197 84
59 196 84
60 195 84
60 195 84
61 194 84
62 193 84
62 193 84
63 192 84
63 191 84
64 191 84
65 190 84
65 190 84
66 189 84
67 188 84
67 188 84
68 187 84
69 186 84
69 186 84
70 185 84
71 184 84
71 184 84
72 183 84
72 183 84
73 182 84
74 181 84
74 181 84
75 180 84
76 179 84
76 179 84
77 178 84
78 177 84
78 177 84
79 176 84
79 175 84
80 175 84
81 174 84
81 174 84
82 173 84
83 172 84
83 172 84
84 171 84
85 170 84
85 170 84
86 169 84
87 168 84
87 168 84
88 167 84
88 167 84
89 166 84
90 165 84
90 165 84
91 164 84
92 163 84
92 163 84
93 162 84
94 161 84
94 161 84
95 160 84
95 159 84
96 159 84
97 158 84
97 158 84
98 157 84
99 156 84
99 156 84
100 155 84
101 154 84
101 154 84
102 153 84
103 152 84
103 152 84
104 151 84
104 151 84
105 150 84
106 149 84
106 149 84
107 148 84
108 147 84
108 147 84
109 146 84
110 145 84
110 145 84
111 144 84
111 143 84
112 143 84
113 142 84
113 142 84
114 141 84
115 140 84
115 140 84
116 139 84
117 138 84
117 138 84
118 137 84
119 136 84
119 136 84
120 135 84
120 135 84
121 134 84
122 133 84
122 133 84
123 132 84
124 131 84
124 131 84
125 130 84
126 129 84
126 129 84
127 128 84
127 127 84
128 127 84
129 126 84
129 126 84
130 125 84
131 124 84
131 124 84
132 123 84
133 122 84
133 122 84
134 121 84
135 120 84
135 120 84
136 119 84
136 119 84
137 118 84
138 117 84
138 117 84
139 116 84
140 115 84
140 115 84
141 114 84
142 113 84
142 113 84
143 112 84
143 111 84
144 111 84
145 110 84
145 110 84
146 109 84
147 108 84
147 108 84
148 107 84
149 106 84
149 106 84
150 105 84
151 104 84
151 104 84
152 103 84
152 103 84
153 102 84
154 101 84
154 101 84
155 100 84
156 99 84
156 99 84
157 98 84
158 97 84
158 97 84
159 96 84
159 95 84
160 95 84
161 94 84
161 94 84
162 93 84
163 92 84
163 92 84
164 91 84
165 90 84
165 90 84
166 89 84
167 88 84
167 88 84
168 87 84
168 87 84
169 86 84
170 85 84
170 85 84
171 84 84
172 83 84
172 83 84
173 82 84
174 81 84
174 81 84
175 80 84
175 79 84
176 79 84
177 78 84
177 78 84
178 77 84
179 76 84
179 76 84
180 75 84
181 74 84
181 74 84
182 73 84
183 72 84
183 72 84
184 71 84
184 71 84
185 70 84
186 69 84
186 69 84
187 68 84
188 67 84
188 67 84
189 66 84
190 65 84
190 65 84
191 64 84
191 63 84
192 63 84
193 62 84
193 62 84
194 61 84
195 60 84
195 60 84
196 59 84
197 58 84
197 58 84
198 57 84
199 56 84
199 56 84
200 55 84
200 55 84
201 54 84
202 53 84
202 53 84
203 52 84
204 51 84
204 51 84
205 50 84
206 49 84
206 49 84
207 48 84
207 47 84
208 47 84
209 46 84
209 46 84
210 45 84
211 44 84
211 44 84
212 43 84
213 42 84
213 42 84
214 41 84
215 40 84
215 40 84
216 39 84
216 39 84
217 38 84
218 37 84
218 37 84
219 36 84
220 35 84
220 35 84
221 34 84
222 33 84
222 33 84
223 32 84
223 31 84
224 31 84
225 30 84
225 30 84
226 29 84
227 28 84
227 28 84
228 27 84
229 26 84
229 26 84
230 25 84
231 24 84
231 24 84
232 23 84
232 23 84
233 22 84
234 21 84
234 21 84
235 20 84
236 19 84
236 19 84
237 18 84
238 17 84
238 17 84
239 16 84
239 15 84
240 15 84
241 14 84
241 14 84
242 13 84
243 12 84
243 12 84
244 11 84
245 10 84
245 10 84
246 9 84
247 8 84
247 8 84
248 7 84
248 7 84
249 6 84
250 5 84
250 5 84
251 4 84
252 3 84
252 3 84
253 2 84
254 1 84
254 1 84
255 0 84
0 255 85
0 255 85
1 254 85
1 254 85
2 253 85
3 252 85
3 252 85
4 251 85
5 250 85
5 250 85
6 249 85
7 248 85
7 248 85
8 247 85
8 247 85
9 246 85
10 245 85
10 245 85
11 244 85
12 243 85
12 243 85
13 242 85
14 241 85
14 241 85
15 240 85
15 239 85
16 239 85
17 238 85
17 238 85
18 237 85
19 236 85
19 236 85
20 235 85
21 234 85
21 234 85
22 233 85
23 232 85
23 232 85
24 231 85
24 231 85
25 230 85
26 229 85
26 229 85
27 228 85
28 227 85
28 227 85
29 226 85
30 225 85
30 225 85
31 224 85
31 223 85
32 223 85
33 222 85
33 222 85
34 221 85
35 220 85
35 220 85
36 219 85
37 218 85
37 218 85
38 217 85
39 216 85
39 216 85
40 215 85
40 215 85
41 214 85
42 213 85
42 213 85
43 212 85
44 211 85
44 211 85
45 210 85
46 209 85
46 209 85
47 208 85
47 207 85
48 207 85
49 206 85
49 206 85
50 205 85
51 204 85
51 204 85
52 203 85
53 202 85
53 202 85
54 201 85
55 200 85
55 200 85
56 199 85
56 199 85
57 198 85
58 197 85
58 197 85
59 196 85
60 195 85
60 195 85
61 194 85
62 193 85
62 193 85
63 192 85
63 191 85
64 191 85
65 190 85
65 190 85
66 189 85
67 188 85
67 188 85
68 187 85
69 186 85
69 186 85
70 185 85
71 184 85
71 184 85
72 183 85
72 183 85
73 182 85
74 181 85
74 181 85
75 180 85
76 179 85
76 179 85
77 178 85
78 177 85
78 177 85
79 176 85
79 175 85
80 175 85
81 174 85
81 174 85
82 173 85
83 172 85
83 172 85
84 171 85
85 170 85
85 170 85
86 169 85
87 168 85
87 168 85
88 167 85
88 167 85
89 166 85
90 165 85
90 165 85
91 164 85
92 163 85
92 163 85
93 162 85
94 161 85
94 161 85
95 160 85
95 159 85
96 159 85
97 158 85
97 158 85
98 157 85
99 156 85
99 156 85
100 155 85
101 154 85
101 154 85
102 153 85
103 152 85
103 152 85
104 151 85
104 151 85
105 150 85
106 149 85
106 149 85
107 148 85
108 147 85
108 147 85
109 146 85
110 145 85
110 145 85
111 144 85
111 143 85
112 143 85
113 142 85
113 142 85
114 141 85
115 140 85
115 140 85
116 139 85
117 138 85
117 138 85
118 137 85
119 136 85
119 136 85
120 135 85
120 135 85
121 134 85
122 133 85
122 133 85
123 132 85
124 131 85
124 131 85
125 130 85
126 129 85
126 129 85
127 128 85
127 127 85
128 127 85
129 126 85
129 126 85
130 125 85
131 124 85
131 124 85
132 123 85
133 122 85
133 122 85
134 121 85
135 120 85
135 120 85
136 119 85
136 119 85
137 118 85
138 117 85
138 117 85
139 116 85
140 115 85
140 115 85
141 114 85
142 113 85
142 113 85
143 112 85
143 111 85
144 111 85
145 110 85
145 110 85
146 109 85
147 108 85
147 108 85
148 107 85
149 106 85
149 106 85
150 105 85
151 104 85
151 104 85
152 103 85
152 103 85
153 102 85
154 101 85
154 101 85
155 100 85
156 99 85
156 99 85
157 98 85
158 97 85
158 97 85
159 96 85
159 95 85
160 95 85
161 94 85
161 94 85
162 93 85
163 92 85
163 92 85
164 91 85
165 90 85
165 90 85
166 89 85
167 88 85
167 88 85
168 87 85
168 87 85
169 86 85
170 85 85
170 85 85
171 84 85
172 83 85
172 83 85
173 82 85
174 81 85
174 81 85
175 80 85
175 79 85
176 79 85
177 78 85
177 78 85
178 77 85
179 76 85
179 76 85
180 75 85
181 74 85
181 74 85
182 73 85
183 72 85
183 72 85
184 71 85
184 71 85
185 70 85
186 69 85
186 69 85
187 68 85
188 67 85
188 67 85
189 66 85
190 65 85
190 65 85
191 64 85
191 63 85
192 63 85
193 62 85
193 62 85
194 61 85
195 60 85
195 60 85
196 59 85
197 58 85
197 58 85
198 57 85
199 56 85
199 56 85
200 55 85
200 55 85
201 54 85
202 53 85
202 53 85
203 52 85
204 51 85
204 51 85
205 50 85
206 49 85
206 49 85
207 48 85
207 47 85
208 47 85
209 46 85
209 46 85
210 45 85
211 44 85
211 44 85
212 43 85
213 42 85
213 42 85
214 41 85
215 40 85
215 40 85
216 39 85
216 39 85
217 38 85
218 37 85
218 37 85
219 36 85
220 35 85
220 35 85
221 34 85
222 33 85
222 33 85
223 32 85
223 31 85
224 31 85
225 30 85
225 30 85
226 29 85
227 28 85
227 28 85
228 27 85
229 26 85
229 26 85
230 25 85
231 24 85
231 24 85
232 23 85
232 23 85
233 22 85
234 21 85
234 21 85
235 20 85
236 19 85
236 19 85
237 18 85
238 17 85
238 17 85
239 16 85
239 15 85
240 15 85
241 14 85
241 14 85
242 13 85
243 12 85
243 12 85
244 11 85
245 10 85
245 10 85
246 9 85
247 8 85
247 8 85
248 7 85
248 7 85
249 6 85
250 5 85
250 5 85
251 4 85
252 3 85
252 3 85
253 2 85
254 1 85
254 1 85
255 0 85
0 255 86
0 255 86
1 254 86
1 254 86
2 253 86
3 252 86
3 252 86
4 251 86
5 250 86
5 250 86
6 249 86
7 248 86
7 248 86
8 247 86
8 247 86
9 246 86
10 245 86
10 245 86
11 244 86
12 243 86
12 243 86
13 242 86
14 241 86
14 241 86
15 240 86
15 239 86
16 239 86
17 238 86
17 238 86
18 237 86
19 236 86
19 236 86
20 235 86
21 234 86
21 234 86
22 233 86
23 232 86
23 232 86
24 231 86
24 231 86
25 230 86
26 229 86
26 229 86
27 228 86
28 227 86
28 227 86
29 226 86
30 225 86
30 225 86
31 224 86
31 223 86
32 223 86
33 222 86
33 222 86
34 221 86
35 220 86
35 220 86
36 219 86
37 218 86
37 218 86
38 217 86
39 216 86
39 216 86
40 215 86
40 215 86
41 214 86
42 213 86
42 213 86
43 212 86
44 211 86
44 211 86
45 210 86
46 209 86
46 209 86
47 208 86
47 207 86
48 207 86
49 206 86
49 206 86
50 205 86
51 204 86
51 204 86
52 203 86
53 202 86
53 202 86
54 201 86
55 200 86
55 200 86
56 199 86
56 199 86
57 198 86
58 197 86
58 197 86
59 196 86
60 195 86
60 195 86
61 194 86
62 193 86
62 193 86
63 192 86
63 191 86
64 191 86
65 190 86
65 190 86
66 189 86
67 188 86
67 188 86
68 187 86
69 186 86
69 186 86
70 185 86
71 184 86
71 184 86
72 183 86
72 183 86
73 182 86
74 181 86
74 181 86
75 180 86
76 179 86
76 179 86
77 178 86
78 177 86
78 177 86
79 176 86
79 175 86
80 175 86
81 174 86
81 174 86
82 173 86
83 172 86
83 172 86
84 171 86
85 170 86
85 170 86
86 169 86
87 168 86
87 168 86
88 167 86
88 167 86
89 166 86
90 165 86
90 165 86
91 164 86
92 163 86
92 163 86
93 162 86
94 161 86
94 161 86
95 160 86
95 159 86
96 159 86
97 158 86
97 158 86
98 157 86
99 156 86
99 156 86
100 155 86
101 154 86
101 154 86
102 153 86
103 152 86
103 152 86
104 151 86
104 151 86
105 150 86
106 149 86
106 149 86
107 148 86
108 147 86
108 147 86
109 146 86
110 145 86
110 145 86
111 144 86
111 143 86
112 143 86
113 142 86
113 142 86
114 141 86
115 140 86
115 140 86
116 139 86
117 138 86
117 138 86
118 137 86
119 136 86
119 136 86
120 135 86
120 135 86
121 134 86
122 133 86
122 133 86
123 132 86
124 131 86
124 131 86
125 130 86
126 129 86
126 129 86
127 128 86
127 127 86
128 127 86
129 126 86
129 126 86
130 125 86
131 124 86
131 124 86
132 123 86
133 122 86
133 122 86
134 121 86
135 120 86
135 120 86
136 119 86
136 119 86
137 118 86
138 117 86
138 117 86
139 116 86
140 115 86
140 115 86
141 114 86
142 113 86
142 113 86
143 112 86
143 111 86
144 111 86
145 110 86
145 110 86
146 109 86
147 108 86
147 108 86
148 107 86
149 106 86
149 106 86
150 105 86
151 104 86
151 104 86
152 103 86
152 103 86
153 102 86
154 101 86
154 101 86
155 100 86
156 99 86
156 99 86
157 98 86
158 97 86
158 97 86
159 96 86
159 95 86
160 95 86
161 94 86
161 94 86
162 93 86
163 92 86
163 92 86
164 91 86
165 90 86
165 90 86
166 89 86
167 88 86
167 88 86
168 87 86
168 87 86
169 86 86
170 85 86
170 85 86
171 84 86
172 83 86
172 83 86
173 82 86
174 81 86
174 81 86
175 80 86
175 79 86
176 79 86
177 78 86
177 78 86
178 77 86
179 76 86
179 76 86
180 75 86
181 74 86
181 74 86
182 73 86
183 72 86
183 72 86
184 71 86
184 71 86
185 70 86
186 69 86
186 69 86
187 68 86
188 67 86
188 67 86
189 66 86
190 65 86
190 65 86
191 64 86
191 63 86
192 63 86
193 62 86
193 62 86
194 61 86
195 60 86
195 60 86
196 59 86
197 58 86
197 58 86
198 57 86
199 56 86
199 56 86
200 55 86
200 55 86
201 54 86
202 53 86
202 53 86
203 52 86
204 51 86
204 51 86
205 50 86
206 49 86
206 49 86
207 48 86
207 47 86
208 47 86
209 46 86
209 46 86
210 45 86
211 44 86
211 44 86
212 43 86
213 42 86
213 42 86
214 41 86
215 40 86
215 40 86
216 39 86
216 39 86
217 38 86
218 37 86
218 37 86
219 36 86
220 35 86
220 35 86
221 34 86
222 33 86
222 33 86
223 32 86
223 31 86
224 31 86
225 30 86
225 30 86
226 29 86
227 28 86
227 28 86
228 27 86
229 26 86
229 26 86
230 25 86
231 24 86
231 24 86
232 23 86
232 23 86
233 22 86
234 21 86
234 21 86
235 20 86
236 19 86
236 19 86
237 18 86
238 17 86
238 17 86
239 16 86
239 15 86
240 15 86
241 14 86
241 14 86
242 13 86
243 12 86
243 12 86
244 11 86
245 10 86
245 10 86
246 9 86
247 8 86
247 8 86
248 7 86
248 7 86
249 6 86
250 5 86
250 5 86
251 4 86
252 3 86
252 3 86
253 2 86
254 1 86
254 1 86
255 0 86
0 255 87
0 255 87
1 254 87
1 254 87
2 253 87
3 252 87
3 252 87
4 251 87
5 250 87
5 250 87
6 249 87
7 248 87
7 248 87
8 247 87
8 247 87
9 246 87
10 245 87
10 245 87
11 244 87
12 243 87
12 243 87
13 242 87
14 241 87
14 241 87
15 240 87
15 239 87
16 239 87
17 238 87
17 238 87
18 237 87
19 236 87
19 236 87
20 235 87
21 234 87
21 234 87
22 233 87
23 232 87
23 232 87
24 231 87
24 231 87
25 230 87
26 229 87
26 229 87
27 228 87
28 227 87
28 227 87
29 226 87
30 225 87
30 225 87
31 224 87
31 223 87
32 223 87
33 222 87
33 222 87
34 221 87
35 220 87
35 220 87
36 219 87
37 218 87
37 218 87
38 217 87
39 216 87
39 216 87
40 215 87
40 215 87
41 214 87
42 213 87
42 213 87
43 212 87
44 211 87
44 211 87
45 210 87
46 209 87
46 209 87
47 208 87
47 207 87
48 207 87
49 206 87
49 206 87
50 205 87
51 204 87
51 204 87
52 203 87
53 202 87
53 202 87
54 201 87
55 200 87
55 200 87
56 199 87
56 199 87
57 198 87
58 197 87
58 197 87
59 196 87
60 195 87
60 195 87
61 194 87
62 193 87
62 193 87
63 192 87
63 191 87
64 191 87
65 190 87
65 190 87
66 189 87
67 188 87
67 188 87
68 187 87
69 186 87
69 186 87
70 185 87
71 184 87
71 184 87
72 183 87
72 183 87
73 182 87
74 181 87
74 181 87
75 180 87
76 179 87
76 179 87
77 178 87
78 177 87
78 177 87
79 176 87
79 175 87
80 175 87
81 174 87
81 174 87
82 173 87
83 172 87
83 172 87
84 171 87
85 170 87
85 170 87
86 169 87
87 168 87
87 168 87
88 167 87
88 167 87
89 166 87
90 165 87
90 165 87
91 164 87
92 163 87
92 163 87
93 162 87
94 161 87
94 161 87
95 160 87
95 159 87
96 159 87
97 158 87
97 158 87
98 157 87
99 156 87
99 156 87
100 155 87
101 154 87
101 154 87
102 153 87
103 152 87
103 152 87
104 151 87
104 151 87
105 150 87
106 149 87
106 149 87
107 148 87
108 147 87
108 147 87
109 146 87
110 145 87
110 145 87
111 144 87
111 143 87
112 143 87
113 142 87
113 142 87
114 141 87
115 140 87
115 140 87
116 139 87
117 138 87
117 138 87
118 137 87
119 136 87
119 136 87
120 135 87
120 135 87
121 134 87
122 133 87
122 133 87
123 132 87
124 131 87
124 131 87
125 130 87
126 129 87
126 129 87
127 128 87
127 127 87
128 127 87
129 126 87
129 126 87
130 125 87
131 124 87
131 124 87
132 123 87
133 122 87
133 122 87
134 121 87
135 120 87
135 120 87
136 119 87
136 119 87
137 118 87
138 117 87
138 117 87
139 116 87
140 115 87
140 115 87
141 114 87
142 113 87
142 113 87
143 112 87
143 111 87
144 111 87
145 110 87
145 110 87
146 109 87
147 108 87
147 108 87
148 107 87
149 106 87
149 106 87
150 105 87
151 104 87
151 104 87
152 103 87
152 103 87
153 102 87
154 101 87
154 101 87
155 100 87
156 99 87
156 99 87
157 98 87
158 97 87
158 97 87
159 96 87
159 95 87
160 95 87
161 94 87
161 94 87
162 93 87
163 92 87
163 92 87
164 91 87
165 90 87
165 90 87
166 89 87
167 88 87
167 88 87
168 87 87
168 87 87
169 86 87
170 85 87
170 85 87
171 84 87
172 83 87
172 83 87
173 82 87
174 81 87
174 81 87
175 80 87
175 79 87
176 79 87
177 78 87
177 78 87
178 77 87
179 76 87
179 76 87
180 75 87
181 74 87
181 74 87
182 73 87
183 72 87
183 72 87
184 71 87
184 71 87
185 70 87
186 69 87
186 69 87
187 68 87
188 67 87
188 67 87
189 66 87
190 65 87
190 65 87
191 64 87
191 63 87
192 63 87
193 62 87
193 62 87
194 61 87
195 60 87
195 60 87
196 59 87
197 58 87
197 58 87
198 57 87
199 56 87
199 56 87
200 55 87
200 55 87
201 54 87
202 53 87
202 53 87
203 52 87
204 51 87
204 51 87
205 50 87
206 49 87
206 49 87
207 48 87
207 47 87
208 47 87
209 46 87
209 46 87
210 45 87
211 44 87
211 44 87
212 43 87
213 42 87
213 42 87
214 41 87
215 40 87
215 40 87
216 39 87
216 39 87
217 38 87
218 37 87
218 37 87
219 36 87
220 35 87
220 35 87
221 34 87
222 33 87
222 33 87
223 32 87
223 31 87
224 31 87
225 30 87
225 30 87
226 29 87
227 28 87
227 28 87
228 27 87
229 26 87
229 26 87
230 25 87
231 24 87
231 24 87
232 23 87
232 23 87
233 22 87
234 21 87
234 21 87
235 20 87
236 19 87
236 19 87
237 18 87
238 17 87
238 17 87
239 16 87
239 15 87
240 15 87
241 14 87
241 14 87
242 13 87
243 12 87
243 12 87
244 11 87
245 10 87
245 10 87
246 9 87
247 8 87
247 8 87
248 7 87
248 7 87
249 6 87
250 5 87
250 5 87
251 4 87
252 3 87
252 3 87
253 2 87
254 1 87
254 1 87
255 0 87
0 255 88
0 255 88
1 254 88
1 254 88
2 253 88
3 252 88
3 252 88
4 251 88
5 250 88
5 250 88
6 249 88
7 248 88
7 248 88
8 247 88
8 247 88
9 246 88
10 245 88
10 245 88
11 244 88
12 243 88
12 243 88
13 242 88
14 241 88
14 241 88
15 240 88
15 239 88
16 239 88
17 238 88
17 238 88
18 237 88
19 236 88
19 236 88
20 235 88
21 234 88
21 234 88
22 233 88
23 232 88
23 232 88
24 231 88
24 231 88
25 230 88
26 229 88
26 229 88
27 228 88
28 227 88
28 227 88
29 226 88
30 225 88
30 225 88
31 224 88
31 223 88
32 223 88
33 222 88
33 222 88
34 221 88
35 220 88
35 220 88
36 219 88
37 218 88
37 218 88
38 217 88
39 216 88
39 216 88
40 215 88
40 215 88
41 214 88
42 213 88
42 213 88
43 212 88
44 211 88
44 211 88
45 210 88
46 209 88
46 209 88
47 208 88
47 207 88
48 207 88
49 206 88
49 206 88
50 205 88
51 204 88
51 204 88
52 203 88
53 202 88
53 202 88
54 201 88
55 200 88
55 200 88
56 199 88
56 199 88
57 198 88
58 197 88
58 197 88
59 196 88
60 195 88
60 195 88
61 194 88
62 193 88
62 193 88
63 192 88
63 191 88
64 191 88
65 190 88
65 190 88
66 189 88
67 188 88
67 188 88
68 187 88
69 186 88
69 186 88
70 185 88
71 184 88
71 184 88
72 183 88
72 183 88
73 182 88
74 181 88
74 181 88
75 180 88
76 179 88
76 179 88
77 178 88
78 177 88
78 177 88
79 176 88
79 175 88
80 175 88
81 174 88
81 174 88
82 173 88
83 172 88
83 172 88
84 171 88
85 170 88
85 170 88
86 169 88
87 168 88
87 168 88
88 167 88
88 167 88
89 166 88
90 165 88
90 165 88
91 164 88
92 163 88
92 163 88
93 162 88
94 161 88
94 161 88
95 160 88
95 159 88
96 159 88
97 158 88
97 158 88
98 157 88
99 156 88
99 156 88
100 155 88
101 154 88
101 154 88
102 153 88
103 152 88
103 152 88
104 151 88
104 151 88
105 150 88
106 149 88
106 149 88
107 148 88
108 147 88
108 147 88
109 146 88
110 145 88
110 145 88
111 144 88
111 143 88
112 143 88
113 142 88
113 142 88
114 141 88
115 140 88
115 140 88
116 139 88
117 138 88
117 138 88
118 137 88
119 136 88
119 136 88
120 135 88
120 135 88
121 134 88
122 133 88
122 133 88
123 132 88
124 131 88
124 131 88
125 130 88
126 129 88
126 129 88
127 128 88
127 127 88
128 127 88
129 126 88
129 126 88
130 125 88
131 124 88
131 124 88
132 123 88
133 122 88
133 122 88
134 121 88
135 120 88
135 120 88
136 119 88
136 119 88
137 118 88
138 117 88
138 117 88
139 116 88
140 115 88
140 115 88
141 114 88
142 113 88
142 113 88
143 112 88
143 111 88
144 111 88
145 110 88
145 110 88
146 109 88
147 108 88
147 108 88
148 107 88
149 106 88
149 106 88
150 105 88
151 104 88
151 104 88
152 103 88
152 103 88
153 102 88
154 101 88
154 101 88
155 100 88
156 99 88
156 99 88
157 98 88
158 97 88
158 97 88
159 96 88
159 95 88
160 95 88
161 94 88
161 94 88
162 93 88
163 92 88
163 92 88
164 91 88
165 90 88
165 90 88
166 89 88
167 88 88
167 88 88
168 87 88
168 87 88
169 86 88
170 85 88
170 85 88
171 84 88
172 83 88
172 83 88
173 82 88
174 81 88
174 81 88
175 80 88
175 79 88
176 79 88
177 78 88
177 78 88
178 77 88
179 76 88
179 76 88
180 75 88
181 74 88
181 74 88
182 73 88
183 72 88
183 72 88
184 71 88
184 71 88
185 70 88
186 69 88
186 69 88
187 68 88
188 67 88
188 67 88
189 66 88
190 65 88
190 65 88
191 64 88
191 63 88
192 63 88
193 62 88
193 62 88
194 61 88
195 60 88
195 60 88
196 59 88
197 58 88
197 58 88
198 57 88
199 56 88
199 56 88
200 55 88
200 55 88
201 54 88
202 53 88
202 53 88
203 52 88
204 51 88
204 51 88
205 50 88
206 49 88
206 49 88
207 48 88
207 47 88
208 47 88
209 46 88
209 46 88
210 45 88
211 44 88
211 44 88
212 43 88
213 42 88
213 42 88
214 41 88
215 40 88
215 40 88
216 39 88
216 39 88
217 38 88
218 37 88
218 37 88
219 36 88
220 35 88
220 35 88
221 34 88
222 33 88
222 33 88
223 32 88
223 31 88
224 31 88
225 30 88
225 30 88
226 29 88
227 28 88
227 28 88
228 27 88
229 26 88
229 26 88
230 25 88
231 24 88
231 24 88
232 23 88
232 23 88
233 22 88
234 21 88
234 21 88
235 20 88
236 19 88
236 19 88
237 18 88
238 17 88
238 17 88
239 16 88
239 15 88
240 15 88
241 14 88
241 14 88
242 13 88
243 12 88
243 12 88
244 11 88
245 10 88
245 10 88
246 9 88
247 8 88
247 8 88
248 7 88
248 7 88
249 6 88
250 5 88
250 5 88
251 4 88
252 3 88
252 3 88
253 2 88
254 1 88
254 1 88
255 0 88
0 255 89
0 255 89
1 254 89
1 254 89
2 253 89
3 252 89
3 252 89
4 251 89
5 250 89
5 250 89
6 249 89
7 248 89
7 248 89
8 247 89
8 247 89
9 246 89
10 245 89
10 245 89
11 244 89
12 243 89
12 243 89
13 242 89
14 241 89
14 241 89
15 240 89
15 239 89
16 239 89
17 238 89
17 238 89
18 237 89
19 236 89
19 236 89
20 235 89
21 234 89
21 234 89
22 233 89
23 232 89
23 232 89
24 231 89
24 231 89
25 230 89
26 229 89
26 229 89
27 228 89
28 227 89
28 227 89
29 226 89
30 225 89
30 225 89
31 224 89
31 223 89
32 223 89
33 222 89
33 222 89
34 221 89
35 220 89
35 220 89
36 219 89
37 218 89
37 218 89
38 217 89
39 216 89
39 216 89
40 215 89
40 215 89
41 214 89
42 213 89
42 213 89
43 212 89
44 211 89
44 211 89
45 210 89
46 209 89
46 209 89
47 208 89
47 207 89
48 207 89
49 206 89
49 206 89
50 205 89
51 204 89
51 204 89
52 203 89
53 202 89
53 202 89
54 201 89
55 200 89
55 200 89
56 199 89
56 199 89
57 198 89
58 197 89
58 197 89
59 196 89
60 195 89
60 195 89
61 194 89
62 193 89
62 193 89
63 192 89
63 191 89
64 191 89
65 190 89
65 190 89
66 189 89
67 188 89
67 188 89
68 187 89
69 186 89
69 186 89
70 185 89
71 184 89
71 184 89
72 183 89
72 183 89
73 182 89
74 181 89
74 181 89
75 180 89
76 179 89
76 179 89
77 178 89
78 177 89
78 177 89
79 176 89
79 175 89
80 175 89
81 174 89
81 174 89
82 173 89
83 172 89
83 172 89
84 171 89
85 170 89
85 170 89
86 169 89
87 168 89
87 168 89
88 167 89
88 167 89
89 166 89
90 165 89
90 165 89
91 164 89
92 163 89
92 163 89
93 162 89
94 161 89
94 161 89
95 160 89
95 159 89
96 159 89
97 158 89
97 158 89
98 157 89
99 156 89
99 156 89
100 155 89
101 154 89
101 154 89
102 153 89
103 152 89
103 152 89
104 151 89
104 151 89
105 150 89
106 149 89
106 149 89
107 148 89
108 147 89
108 147 89
109 146 89
110 145 89
110 145 89
111 144 89
111 143 89
112 143 89
113 142 89
113 142 89
114 141 89
115 140 89
115 140 89
116 139 89
117 138 89
117 138 89
118 137 89
119 136 89
119 136 89
120 135 89
120 135 89
121 134 89
122 133 89
122 133 89
123 132 89
124 131 89
124 131 89
125 130 89
126 129 89
126 129 89
127 128 89
127 127 89
128 127 89
129 126 89
129 126 89
130 125 89
131 124 89
131 124 89
132 123 89
133 122 89
133 122 89
134 121 89
135 120 89
135 120 89
136 119 89
136 119 89
137 118 89
138 117 89
138 117 89
139 116 89
140 115 89
140 115 89
141 114 89
142 113 89
142 113 89
143 112 89
143 111 89
144 111 89
145 110 89
145 110 89
146 109 89
147 108 89
147 108 89
148 107 89
149 106 89
149 106 89
150 105 89
151 104 89
151 104 89
152 103 89
152 103 89
153 102 89
154 101 89
154 101 89
155 100 89
156 99 89
156 99 89
157 98 89
158 97 89
158 97 89
159 96 89
159 95 89
160 95 89
161 94 89
161 94 89
162 93 89
163 92 89
163 92 89
164 91 89
165 90 89
165 90 89
166 89 89
167 88 89
167 88 89
168 87 89
168 87 89
169 86 89
170 85 89
170 85 89
171 84 89
172 83 89
172 83 89
173 82 89
174 81 89
174 81 89
175 80 89
175 79 89
176 79 89
177 78 89
177 78 89
178 77 89
179 76 89
179 76 89
180 75 89
181 74 89
181 74 89
182 73 89
183 72 89
183 72 89
184 71 89
184 71 89
185 70 89
186 69 89
186 69 89
187 68 89
188 67 89
188 67 89
189 66 89
190 65 89
190 65 89
191 64 89
191 63 89
192 63 89
193 62 89
193 62 89
194 61 89
195 60 89
195 60 89
196 59 89
197 58 89
197 58 89
198 57 89
199 56 89
199 56 89
200 55 89
200 55 89
201 54 89
202 53 89
202 53 89
203 52 89
204 51 89
204 51 89
205 50 89
206 49 89
206 49 89
207 48 89
207 47 89
208 47 89
209 46 89
209 46 89
210 45 89
211 44 89
211 44 89
212 43 89
213 42 89
213 42 89
214 41 89
215 40 89
215 40 89
216 39 89
216 39 89
217 38 89
218 37 89
218 37 89
219 36 89
220 35 89
220 35 89
221 34 89
222 33 89
222 33 89
223 32 89
223 31 89
224 31 89
225 30 89
225 30 89
226 29 89
227 28 89
227 28 89
228 27 89
229 26 89
229 26 89
230 25 89
231 24 89
231 24 89
232 23 89
232 23 89
233 22 89
234 21 89
234 21 89
235 20 89
236 19 89
236 19 89
237 18 89
238 17 89
238 17 89
239 16 89
239 15 89
240 15 89
241 14 89
241 14 89
242 13 89
243 12 89
243 12 89
244 11 89
245 10 89
245 10 89
246 9 89
247 8 89
247 8 89
248 7 89
248 7 89
249 6 89
250 5 89
250 5 89
251 4 89
252 3 89
252 3 89
253 2 89
254 1 89
254 1 89
255 0 89
0 255 91
0 255 91
1 254 91
1 254 91
2 253 91
3 252 91
3 252 91
4 251 91
5 250 91
5 250 91
6 249 91
7 248 91
7 248 91
8 247 91
8 247 91
9 246 91
10 245 91
10 245 91
11 244 91
12 243 91
12 243 91
13 242 91
14 241 91
14 241 91
15 240 91
15 239 91
16 239 91
17 238 91
17 238 91
18 237 91
19 236 91
19 236 91
20 235 91
21 234 91
21 234 91
22 233 91
23 232 91
23 232 91
24 231 91
24 231 91
25 230 91
26 229 91
26 229 91
27 228 91
28 227 91
28 227 91
29 226 91
30 225 91
30 225 91
31 224 91
31 223 91
32 223 91
33 222 91
33 222 91
34 221 91
35 220 91
35 220 91
36 219 91
37 218 91
37 218 91
38 217 91
39 216 91
39 216 91
40 215 91
40 215 91
41 214 91
42 213 91
42 213 91
43 212 91
44 211 91
44 211 91
45 210 91
46 209 91
46 209 91
47 208 91
47 207 91
48 207 91
49 206 91
49 206 91
50 205 91
51 204 91
51 204 91
52 203 91
53 202 91
53 202 91
54 201 91
55 200 91
55 200 91
56 199 91
56 199 91
57 198 91
58 197 91
58 197 91
59 196 91
60 195 91
60 195 91
61 194 91
62 193 91
62 193 91
63 192 91
63 191 91
64 191 91
65 190 91
65 190 91
66 189 91
67 188 91
67 188 91
68 187 91
69 186 91
69 186 91
70 185 91
71 184 91
71 184 91
72 183 91
72 183 91
73 182 91
74 181 91
74 181 91
75 180 91
76 179 91
76 179 91
77 178 91
78 177 91
78 177 91
79 176 91
79 175 91
80 175 91
81 174 91
81 174 91
82 173 91
83 172 91
83 172 91
84 171 91
85 170 91
85 170 91
86 169 91
87 168 91
87 168 91
88 167 91
88 167 91
89 166 91
90 165 91
90 165 91
91 164 91
92 163 91
92 163 91
93 162 91
94 161 91
94 161 91
95 160 91
95 159 91
96 159 91
97 158 91
97 158 91
98 157 91
99 156 91
99 156 91
100 155 91
101 154 91
101 154 91
102 153 91
103 152 91
103 152 91
104 151 91
104 151 91
105 150 91
106 149 91
106 149 91
107 148 91
108 147 91
108 147 91
109 146 91
110 145 91
110 145 91
111 144 91
111 143 91
112 143 91
113 142 91
113 142 91
114 141 91
115 140 91
115 140 91
116 139 91
117 138 91
117 138 91
118 137 91
119 136 91
119 136 91
120 135 91
120 135 91
121 134 91
122 133 91
122 133 91
123 132 91
124 131 91
124 131 91
125 130 91
126 129 91
126 129 91
127 128 91
127 127 91
128 127 91
129 126 91
129 126 91
130 125 91
131 124 91
131 124 91
132 123 91
133 122 91
133 122 91
134 121 91
135 120 91
135 120 91
136 119 91
136 119 91
137 118 91
138 117 91
138 117 91
139 116 91
140 115 91
140 115 91
141 114 91
142 113 91
142 113 91
143 112 91
143 111 91
144 111 91
145 110 91
145 110 91
146 109 91
147 108 91
147 108 91
148 107 91
149 106 91
149 106 91
150 105 91
151 104 91
151 104 91
152 103 91
152 103 91
153 102 91
154 101 91
154 101 91
155 100 91
156 99 91
156 99 91
157 98 91
158 97 91
158 97 91
159 96 91
159 95 91
160 95 91
161 94 91
161 94 91
162 93 91
163 92 91
163 92 91
164 91 91
165 90 91
165 90 91
166 89 91
167 88 91
167 88 91
168 87 91
168 87 91
169 86 91
170 85 91
170 85 91
171 84 91
172 83 91
172 83 91
173 82 91
174 81 91
174 81 91
175 80 91
175 79 91
176 79 91
177 78 91
177 78 91
178 77 91
179 76 91
179 76 91
180 75 91
181 74 91
181 74 91
182 73 91
183 72 91
183 72 91
184 71 91
184 71 91
185 70 91
186 69 91
186 69 91
187 68 91
188 67 91
188 67 91
189 66 91
190 65 91
190 65 91
191 64 91
191 63 91
192 63 91
193 62 91
193 62 91
194 61 91
195 60 91
195 60 91
196 59 91
197 58 91
197 58 91
198 57 91
199 56 91
199 56 91
200 55 91
200 55 91
201 54 91
202 53 91
202 53 91
203 52 91
204 51 91
204 51 91
205 50 91
206 49 91
206 49 91
207 48 91
207 47 91
208 47 91
209 46 91
209 46 91
210 45 91
211 44 91
211 44 91
212 43 91
213 42 91
213 42 91
214 41 91
215 40 91
215 40 91
216 39 91
216 39 91
217 38 91
218 37 91
218 37 91
219 36 91
220 35 91
220 35 91
221 34 91
222 33 91
222 33 91
223 32 91
223 31 91
224 31 91
225 30 91
225 30 91
226 29 91
227 28 91
227 28 91
228 27 91
229 26 91
229 26 91
230 25 91
231 24 91
231 24 91
232 23 91
232 23 91
233 22 91
234 21 91
234 21 91
235 20 91
236 19 91
236 19 91
237 18 91
238 17 91
238 17 91
239 16 91
239 15 91
240 15 91
241 14 91
241 14 91
242 13 91
243 12 91
243 12 91
244 11 91
245 10 91
245 10 91
246 9 91
247 8 91
247 8 91
248 7 91
248 7 91
249 6 91
250 5 91
250 5 91
251 4 91
252 3 91
252 3 91
253 2 91
254 1 91
254 1 91
255 0 91
0 255 92
0 255 92
1 254 92
1 254 92
2 253 92
3 252 92
3 252 92
4 251 92
5 250 92
5 250 92
6 249 92
7 248 92
7 248 92
8 247 92
8 247 92
9 246 92
10 245 92
10 245 92
11 244 92
12 243 92
12 243 92
13 242 92
14 241 92
14 241 92
15 240 92
15 239 92
16 239 92
17 238 92
17 238 92
18 237 92
19 236 92
19 236 92
20 235 92
21 234 92
21 234 92
22 233 92
23 232 92
23 232 92
24 231 92
24 231 92
25 230 92
26 229 92
26 229 92
27 228 92
28 227 92
28 227 92
29 226 92
30 225 92
30 225 92
31 224 92
31 223 92
32 223 92
33 222 92
33 222 92
34 221 92
35 220 92
35 220 92
36 219 92
37 218 92
37 218 92
38 217 92
39 216 92
39 216 92
40 215 92
40 215 92
41 214 92
42 213 92
42 213 92
43 212 92
44 211 92
44 211 92
45 210 92
46 209 92
46 209 92
47 208 92
47 207 92
48 207 92
49 206 92
49 206 92
50 205 92
51 204 92
51 204 92
52 203 92
53 202 92
53 202 92
54 201 92
55 200 92
55 200 92
56 199 92
56 199 92
57 198 92
58 197 92
58 197 92
59 196 92
60 195 92
60 195 92
61 194 92
62 193 92
62 193 92
63 192 92
63 191 92
64 191 92
65 190 92
65 190 92
66 189 92
67 188 92
67 188 92
68 187 92
69 186 92
69 186 92
70 185 92
71 184 92
71 184 92
72 183 92
72 183 92
73 182 92
74 181 92
74 181 92
75 180 92
76 179 92
76 179 92
77 178 92
78 177 92
78 177 92
79 176 92
79 175 92
80 175 92
81 174 92
81 174 92
82 173 92
83 172 92
83 172 92
84 171 92
85 170 92
85 170 92
86 169 92
87 168 92
87 168 92
88 167 92
88 167 92
89 166 92
90 165 92
90 165 92
91 164 92
92 163 92
92 163 92
93 162 92
94 161 92
94 161 92
95 160 92
95 159 92
96 159 92
97 158 92
97 158 92
98 157 92
99 156 92
99 156 92
100 155 92
101 154 92
101 154 92
102 153 92
103 152 92
103 152 92
104 151 92
104 151 92
105 150 92
106 149 92
106 149 92
107 148 92
108 147 92
108 147 92
109 146 92
110 145 92
110 145 92
111 144 92
111 143 92
112 143 92
113 142 92
113 142 92
114 141 92
115 140 92
115 140 92
116 139 92
117 138 92
117 138 92
118 137 92
119 136 92
119 136 92
120 135 92
120 135 92
121 134 92
122 133 92
122 133 92
123 132 92
124 131 92
124 131 92
125 130 92
126 129 92
126 129 92
127 128 92
127 127 92
128 127 92
129 126 92
129 126 92
130 125 92
131 124 92
131 124 92
132 123 92
133 122 92
133 122 92
134 121 92
135 120 92
135 120 92
136 119 92
136 119 92
137 118 92
138 117 92
138 117 92
139 116 92
140 115 92
140 115 92
141 114 92
142 113 92
142 113 92
143 112 92
143 111 92
144 111 92
145 110 92
145 110 92
146 109 92
147 108 92
147 108 92
148 107 92
149 106 92
149 106 92
150 105 92
151 104 92
151 104 92
152 103 92
152 103 92
153 102 92
154 101 92
154 101 92
155 100 92
156 99 92
156 99 92
157 98 92
158 97 92
158 97 92
159 96 92
159 95 92
160 95 92
161 94 92
161 94 92
162 93 92
163 92 92
163 92 92
164 91 92
165 90 92
165 90 92
166 89 92
167 88 92
167 88 92
168 87 92
168 87 92
169 86 92
170 85 92
170 85 92
171 84 92
172 83 92
172 83 92
173 82 92
174 81 92
174 81 92
175 80 92
175 79 92
176 79 92
177 78 92
177 78 92
178 77 92
179 76 92
179 76 92
180 75 92
181 74 92
181 74 92
182 73 92
183 72 92
183 72 92
184 71 92
184 71 92
185 70 92
186 69 92
186 69 92
187 68 92
188 67 92
188 67 92
189 66 92
190 65 92
190 65 92
191 64 92
191 63 92
192 63 92
193 62 92
193 62 92
194 61 92
195 60 92
195 60 92
196 59 92
197 58 92
197 58 92
198 57 92
199 56 92
199 56 92
200 55 92
200 55 92
201 54 92
202 53 92
202 53 92
203 52 92
204 51 92
204 51 92
205 50 92
206 49 92
206 49 92
207 48 92
207 47 92
208 47 92
209 46 92
209 46 92
210 45 92
211 44 92
211 44 92
212 43 92
213 42 92
213 42 92
214 41 92
215 40 92
215 40 92
216 39 92
216 39 92
217 38 92
218 37 92
218 37 92
219 36 92
220 35 92
220 35 92
221 34 92
222 33 92
222 33 92
223 32 92
223 31 92
224 31 92
225 30 92
225 30 92
226 29 92
227 28 92
227 28 92
228 27 92
229 26 92
229 26 92
230 25 92
231 24 92
231 24 92
232 23 92
232 23 92
233 22 92
234 21 92
234 21 92
235 20 92
236 19 92
236 19 92
237 18 92
238 17 92
238 17 92
239 16 92
239 15 92
240 15 92
241 14 92
241 14 92
242 13 92
243 12 92
243 12 92
244 11 92
245 10 92
245 10 92
246 9 92
247 8 92
247 8 92
248 7 92
248 7 92
249 6 92
250 5 92
250 5 92
251 4 92
252 3 92
252 3 92
253 2 92
254 1 92
254 1 92
255 0 92
0 255 93
0 255 93
1 254 93
1 254 93
2 253 93
3 252 93
3 252 93
4 251 93
5 250 93
5 250 93
6 249 93
7 248 93
7 248 93
8 247 93
8 247 93
9 246 93
10 245 93
10 245 93
11 244 93
12 243 93
12 243 93
13 242 93
14 241 93
14 241 93
15 240 93
15 239 93
16 239 93
17 238 93
17 238 93
18 237 93
19 236 93
19 236 93
20 235 93
21 234 93
21 234 93
22 233 93
23 232 93
23 232 93
24 231 93
24 231 93
25 230 93
26 229 93
26 229 93
27 228 93
28 227 93
28 227 93
29 226 93
30 225 93
30 225 93
31 224 93
31 223 93
32 223 93
33 222 93
33 222 93
34 221 93
35 220 93
35 220 93
36 219 93
37 218 93
37 218 93
38 217 93
39 216 93
39 216 93
40 215 93
40 215 93
41 214 93
42 213 93
42 213 93
43 212 93
44 211 93
44 211 93
45 210 93
46 209 93
46 209 93
47 208 93
47 207 93
48 207 93
49 206 93
49 206 93
50 205 93
51 204 93
51 204 93
52 203 93
53 202 93
53 202 93
54 201 93
55 200 93
55 200 93
56 199 93
56 199 93
57 198 93
58 197 93
58 197 93
59 196 93
60 195 93
60 195 93
61 194 93
62 193 93
62 193 93
63 192 93
63 191 93
64 191 93
65 190 93
65 190 93
66 189 93
67 188 93
67 188 93
68 187 93
69 186 93
69 186 93
70 185 93
71 184 93
71 184 93
72 183 93
72 183 93
73 182 93
74 181 93
74 181 93
75 180 93
76 179 93
76 179 93
77 178 93
78 177 93
78 177 93
79 176 93
79 175 93
80 175 93
81 174 93
81 174 93
82 173 93
83 172 93
83 172 93
84 171 93
85 170 93
85 170 93
86 169 93
87 168 93
87 168 93
88 167 93
88 167 93
89 166 93
90 165 93
90 165 93
91 164 93
92 163 93
92 163 93
93 162 93
94 161 93
94 161 93
95 160 93
95 159 93
96 159 93
97 158 93
97 158 93
98 157 93
99 156 93
99 156 93
100 155 93
101 154 93
101 154 93
102 153 93
103 152 93
103 152 93
104 151 93
104 151 93
105 150 93
106 149 93
106 149 93
107 148 93
108 147 93
108 147 93
109 146 93
110 145 93
110 145 93
111 144 93
111 143 93
112 143 93
113 142 93
113 142 93
114 141 93
115 140 93
115 140 93
116 139 93
117 138 93
117 138 93
118 137 93
119 136 93
119 136 93
120 135 93
120 135 93
121 134 93
122 133 93
122 133 93
123 132 93
124 131 93
124 131 93
125 130 93
126 129 93
126 129 93
127 128 93
127 127 93
128 127 93
129 126 93
129 126 93
130 125 93
131 124 93
131 124 93
132 123 93
133 122 93
133 122 93
134 121 93
135 120 93
135 120 93
136 119 93
136 119 93
137 118 93
138 117 93
138 117 93
139 116 93
140 115 93
140 115 93
141 114 93
142 113 93
142 113 93
143 112 93
143 111 93
144 111 93
145 110 93
145 110 93
146 109 93
147 108 93
147 108 93
148 107 93
149 106 93
149 106 93
150 105 93
151 104 93
151 104 93
152 103 93
152 103 93
153 102 93
154 101 93
154 101 93
155 100 93
156 99 93
156 99 93
157 98 93
158 97 93
158 97 93
159 96 93
159 95 93
160 95 93
161 94 93
161 94 93
162 93 93
163 92 93
163 92 93
164 91 93
165 90 93
165 90 93
166 89 93
167 88 93
167 88 93
168 87 93
168 87 93
169 86 93
170 85 93
170 85 93
171 84 93
172 83 93
172 83 93
173 82 93
174 81 93
174 81 93
175 80 93
175 79 93
176 79 93
177 78 93
177 78 93
178 77 93
179 76 93
179 76 93
180 75 93
181 74 93
181 74 93
182 73 93
183 72 93
183 72 93
184 71 93
184 71 93
185 70 93
186 69 93
186 69 93
187 68 93
188 67 93
188 67 93
189 66 93
190 65 93
190 65 93
191 64 93
191 63 93
192 63 93
193 62 93
193 62 93
194 61 93
195 60 93
195 60 93
196 59 93
197 58 93
197 58 93
198 57 93
199 56 93
199 56 93
200 55 93
200 55 93
201 54 93
202 53 93
202 53 93
203 52 93
204 51 93
204 51 93
205 50 93
206 49 93
206 49 93
207 48 93
207 47 93
208 47 93
209 46 93
209 46 93
210 45 93
211 44 93
211 44 93
212 43 93
213 42 93
213 42 93
214 41 93
215 40 93
215 40 93
216 39 93
216 39 93
217 38 93
218 37 93
218 37 93
219 36 93
220 35 93
220 35 93
221 34 93
222 33 93
222 33 93
223 32 93
223 31 93
224 31 93
225 30 93
225 30 93
226 29 93
227 28 93
227 28 93
228 27 93
229 26 93
229 26 93
230 25 93
231 24 93
231 24 93
232 23 93
232 23 93
233 22 93
234 21 93
234 21 93
235 20 93
236 19 93
236 19 93
237 18 93
238 17 93
238 17 93
239 16 93
239 15 93
240 15 93
241 14 93
241 14 93
242 13 93
243 12 93
243 12 93
244 11 93
245 10 93
245 10 93
246 9 93
247 8 93
247 8 93
248 7 93
248 7 93
249 6 93
250 5 93
250 5 93
251 4 93
252 3 93
252 3 93
253 2 93
254 1 93
254 1 93
255 0 93
0 255 94
0 255 94
1 254 94
1 254 94
2 253 94
3 252 94
3 252 94
4 251 94
5 250 94
5 250 94
6 249 94
7 248 94
7 248 94
8 247 94
8 247 94
9 246 94
10 245 94
10 245 94
11 244 94
12 243 94
12 243 94
13 242 94
14 241 94
14 241 94
15 240 94
15 239 94
16 239 94
17 238 94
17 238 94
18 237 94
19 236 94
19 236 94
20 235 94
21 234 94
21 234 94
22 233 94
23 232 94
23 232 94
24 231 94
24 231 94
25 230 94
26 229 94
26 229 94
27 228 94
28 227 94
28 227 94
29 226 94
30 225 94
30 225 94
31 224 94
31 223 94
32 223 94
33 222 94
33 222 94
34 221 94
35 220 94
35 220 94
36 219 94
37 218 94
37 218 94
38 217 94
39 216 94
39 216 94
40 215 94
40 215 94
41 214 94
42 213 94
42 213 94
43 212 94
44 211 94
44 211 94
45 210 94
46 209 94
46 209 94
47 208 94
47 207 94
48 207 94
49 206 94
49 206 94
50 205 94
51 204 94
51 204 94
52 203 94
53 202 94
53 202 94
54 201 94
55 200 94
55 200 94
56 199 94
56 199 94
57 198 94
58 197 94
58 197 94
59 196 94
60 195 94
60 195 94
61 194 94
62 193 94
62 193 94
63 192 94
63 191 94
64 191 94
65 190 94
65 190 94
66 189 94
67 188 94
67 188 94
68 187 94
69 186 94
69 186 94
70 185 94
71 184 94
71 184 94
72 183 94
72 183 94
73 182 94
74 181 94
74 181 94
75 180 94
76 179 94
76 179 94
77 178 94
78 177 94
78 177 94
79 176 94
79 175 94
80 175 94
81 174 94
81 174 94
82 173 94
83 172 94
83 172 94
84 171 94
85 170 94
85 170 94
86 169 94
87 168 94
87 168 94
88 167 94
88 167 94
89 166 94
90 165 94
90 165 94
91 164 94
92 163 94
92 163 94
93 162 94
94 161 94
94 161 94
95 160 94
95 159 94
96 159 94
97 158 94
97 158 94
98 157 94
99 156 94
99 156 94
100 155 94
101 154 94
101 154 94
102 153 94
103 152 94
103 152 94
104 151 94
104 151 94
105 150 94
106 149 94
106 149 94
107 148 94
108 147 94
108 147 94
109 146 94
110 145 94
110 145 94
111 144 94
111 143 94
112 143 94
113 142 94
113 142 94
114 141 94
115 140 94
115 140 94
116 139 94
117 138 94
117 138 94
118 137 94
119 136 94
119 136 94
120 135 94
120 135 94
121 134 94
122 133 94
122 133 94
123 132 94
124 131 94
124 131 94
125 130 94
126 129 94
126 129 94
127 128 94
127 127 94
128 127 94
129 126 94
129 126 94
130 125 94
131 124 94
131 124 94
132 123 94
133 122 94
133 122 94
134 121 94
135 120 94
135 120 94
136 119 94
136 119 94
137 118 94
138 117 94
138 117 94
139 116 94
140 115 94
140 115 94
141 114 94
142 113 94
142 113 94
143 112 94
143 111 94
144 111 94
145 110 94
145 110 94
146 109 94
147 108 94
147 108 94
148 107 94
149 106 94
149 106 94
150 105 94
151 104 94
151 104 94
152 103 94
152 103 94
153 102 94
154 101 94
154 101 94
155 100 94
156 99 94
156 99 94
157 98 94
158 97 94
158 97 94
159 96 94
159 95 94
160 95 94
161 94 94
161 94 94
162 93 94
163 92 94
163 92 94
164 91 94
165 90 94
165 90 94
166 89 94
167 88 94
167 88 94
168 87 94
168 87 94
169 86 94
170 85 94
170 85 94
171 84 94
172 83 94
172 83 94
173 82 94
174 81 94
174 81 94
175 80 94
175 79 94
176 79 94
177 78 94
177 78 94
178 77 94
179 76 94
179 76 94
180 75 94
181 74 94
181 74 94
182 73 94
183 72 94
183 72 94
184 71 94
184 71 94
185 70 94
186 69 94
186 69 94
187 68 94
188 67 94
188 67 94
189 66 94
190 65 94
190 65 94
191 64 94
191 63 94
192 63 94
193 62 94
193 62 94
194 61 94
195 60 94
195 60 94
196 59 94
197 58 94
197 58 94
198 57 94
199 56 94
199 56 94
200 55 94
200 55 94
201 54 94
202 53 94
202 53 94
203 52 94
204 51 94
204 51 94
205 50 94
206 49 94
206 49 94
207 48 94
207 47 94
208 47 94
209 46 94
209 46 94
210 45 94
211 44 94
211 44 94
212 43 94
213 42 94
213 42 94
214 41 94
215 40 94
215 40 94
216 39 94
216 39 94
217 38 94
218 37 94
218 37 94
219 36 94
220 35 94
220 35 94
221 34 94
222 33 94
222 33 94
223 32 94
223 31 94
224 31 94
225 30 94
225 30 94
226 29 94
227 28 94
227 28 94
228 27 94
229 26 94
229 26 94
230 25 94
231 24 94
231 24 94
232 23 94
232 23 94
233 22 94
234 21 94
234 21 94
235 20 94
236 19 94
236 19 94
237 18 94
238 17 94
238 17 94
239 16 94
239 15 94
240 15 94
241 14 94
241 14 94
242 13 94
243 12 94
243 12 94
244 11 94
245 10 94
245 10 94
246 9 94
247 8 94
247 8 94
248 7 94
248 7 94
249 6 94
250 5 94
250 5 94
251 4 94
252 3 94
252 3 94
253 2 94
254 1 94
254 1 94
255 0 94
0 255 95
0 255 95
1 254 95
1 254 95
2 253 95
3 252 95
3 252 95
4 251 95
5 250 95
5 250 95
6 249 95
7 248 95
7 248 95
8 247 95
8 247 95
9 246 95
10 245 95
10 245 95
11 244 95
12 243 95
12 243 95
13 242 95
14 241 95
14 241 95
15 240 95
15 239 95
16 239 95
17 238 95
17 238 95
18 237 95
19 236 95
19 236 95
20 235 95
21 234 95
21 234 95
22 233 95
23 232 95
23 232 95
24 231 95
24 231 95
25 230 95
26 229 95
26 229 95
27 228 95
28 227 95
28 227 95
29 226 95
30 225 95
30 225 95
31 224 95
31 223 95
32 223 95
33 222 95
33 222 95
34 221 95
35 220 95
35 220 95
36 219 95
37 218 95
37 218 95
38 217 95
39 216 95
39 216 95
40 215 95
40 215 95
41 214 95
42 213 95
42 213 95
43 212 95
44 211 95
44 211 95
45 210 95
46 209 95
46 209 95
47 208 95
47 207 95
48 207 95
49 206 95
49 206 95
50 205 95
51 204 95
51 204 95
52 203 95
53 202 95
53 202 95
54 201 95
55 200 95
55 200 95
56 199 95
56 199 95
57 198 95
58 197 95
58 197 95
59 196 95
60 195 95
60 195 95
61 194 95
62 193 95
62 193 95
63 192 95
63 191 95
64 191 95
65 190 95
65 190 95
66 189 95
67 188 95
67 188 95
68 187 95
69 186 95
69 186 95
70 185 95
71 184 95
71 184 95
72 183 95
72 183 95
73 182 95
74 181 95
74 181 95
75 180 95
76 179 95
76 179 95
77 178 95
78 177 95
78 177 95
79 176 95
79 175 95
80 175 95
81 174 95
81 174 95
82 173 95
83 172 95
83 172 95
84 171 95
85 170 95
85 170 95
86 169 95
87 168 95
87 168 95
88 167 95
88 167 95
89 166 95
90 165 95
90 165 95
91 164 95
92 163 95
92 163 95
93 162 95
94 161 95
94 161 95
95 160 95
95 159 95
96 159 95
97 158 95
97 158 95
98 157 95
99 156 95
99 156 95
100 155 95
101 154 95
101 154 95
102 153 95
103 152 95
103 152 95
104 151 95
104 151 95
105 150 95
106 149 95
106 149 95
107 148 95
108 147 95
108 147 95
109 146 95
110 145 95
110 145 95
111 144 95
111 143 95
112 143 95
113 142 95
113 142 95
114 141 95
115 140 95
115 140 95
116 139 95
117 138 95
117 138 95
118 137 95
119 136 95
119 136 95
120 135 95
120 135 95
121 134 95
122 133 95
122 133 95
123 132 95
124 131 95
124 131 95
125 130 95
126 129 95
126 129 95
127 128 95
127 127 95
128 127 95
129 126 95
129 126 95
130 125 95
131 124 95
131 124 95
132 123 95
133 122 95
133 122 95
134 121 95
135 120 95
135 120 95
136 119 95
136 119 95
137 118 95
138 117 95
138 117 95
139 116 95
140 115 95
140 115 95
141 114 95
142 113 95
142 113 95
143 112 95
143 111 95
144 111 95
145 110 95
145 110 95
146 109 95
147 108 95
147 108 95
148 107 95
149 106 95
149 106 95
150 105 95
151 104 95
151 104 95
152 103 95
152 103 95
153 102 95
154 101 95
154 101 95
155 100 95
156 99 95
156 99 95
157 98 95
158 97 95
158 97 95
159 96 95
159 95 95
160 95 95
161 94 95
161 94 95
162 93 95
163 92 95
163 92 95
164 91 95
165 90 95
165 90 95
166 89 95
167 88 95
167 88 95
168 87 95
168 87 95
169 86 95
170 85 95
170 85 95
171 84 95
172 83 95
172 83 95
173 82 95
174 81 95
174 81 95
175 80 95
175 79 95
176 79 95
177 78 95
177 78 95
178 77 95
179 76 95
179 76 95
180 75 95
181 74 95
181 74 95
182 73 95
183 72 95
183 72 95
184 71 95
184 71 95
185 70 95
186 69 95
186 69 95
187 68 95
188 67 95
188 67 95
189 66 95
190 65 95
190 65 95
191 64 95
191 63 95
192 63 95
193 62 95
193 62 95
194 61 95
195 60 95
195 60 95
196 59 95
197 58 95
197 58 95
198 57 95
199 56 95
199 56 95
200 55 95
200 55 95
201 54 95
202 53 95
202 53 95
203 52 95
204 51 95
204 51 95
205 50 95
206 49 95
206 49 95
207 48 95
207 47 95
208 47 95
209 46 95
209 46 95
210 45 95
211 44 95
211 44 95
212 43 95
213 42 95
213 42 95
214 41 95
215 40 95
215 40 95
216 39 95
216 39 95
217 38 95
218 37 95
218 37 95
219 36 95
220 35 95
220 35 95
221 34 95
222 33 95
222 33 95
223 32 95
223 31 95
224 31 95
225 30 95
225 30 95
226 29 95
227 28 95
227 28 95
228 27 95
229 26 95
229 26 95
230 25 95
231 24 95
231 24 95
232 23 95
232 23 95
233 22 95
234 21 95
234 21 95
235 20 95
236 19 95
236 19 95
237 18 95
238 17 95
238 17 95
239 16 95
239 15 95
240 15 95
241 14 95
241 14 95
242 13 95
243 12 95
243 12 95
244 11 95
245 10 95
245 10 95
246 9 95
247 8 95
247 8 95
248 7 95
248 7 95
249 6 95
250 5 95
250 5 95
251 4 95
252 3 95
252 3 95
253 2 95
254 1 95
254 1 95
255 0 95
0 255 96
0 255 96
1 254 96
1 254 96
2 253 96
3 252 96
3 252 96
4 251 96
5 250 96
5 250 96
6 249 96
7 248 96
7 248 96
8 247 96
8 247 96
9 246 96
10 245 96
10 245 96
11 244 96
12 243 96
12 243 96
13 242 96
14 241 96
14 241 96
15 240 96
15 239 96
16 239 96
17 238 96
17 238 96
18 237 96
19 236 96
19 236 96
20 235 96
21 234 96
21 234 96
22 233 96
23 232 96
23 232 96
24 231 96
24 231 96
25 230 96
26 229 96
26 229 96
27 228 96
28 227 96
28 227 96
29 226 96
30 225 96
30 225 96
31 224 96
31 223 96
32 223 96
33 222 96
33 222 96
34 221 96
35 220 96
35 220 96
36 219 96
37 218 96
37 218 96
38 217 96
39 216 96
39 216 96
40 215 96
40 215 96
41 214 96
42 213 96
42 213 96
43 212 96
44 211 96
44 211 96
45 210 96
46 209 96
46 209 96
47 208 96
47 207 96
48 207 96
49 206 96
49 206 96
50 205 96
51 204 96
51 204 96
52 203 96
53 202 96
53 202 96
54 201 96
55 200 96
55 200 96
56 199 96
56 199 96
57 198 96
58 197 96
58 197 96
59 196 96
60 195 96
60 195 96
61 194 96
62 193 96
62 193 96
63 192 96
63 191 96
64 191 96
65 190 96
65 190 96
66 189 96
67 188 96
67 188 96
68 187 96
69 186 96
69 186 96
70 185 96
71 184 96
71 184 96
72 183 96
72 183 96
73 182 96
74 181 96
74 181 96
75 180 96
76 179 96
76 179 96
77 178 96
78 177 96
78 177 96
79 176 96
79 175 96
80 175 96
81 174 96
81 174 96
82 173 96
83 172 96
83 172 96
84 171 96
85 170 96
85 170 96
86 169 96
87 168 96
87 168 96
88 167 96
88 167 96
89 166 96
90 165 96
90 165 96
91 164 96
92 163 96
92 163 96
93 162 96
94 161 96
94 161 96
95 160 96
95 159 96
96 159 96
97 158 96
97 158 96
98 157 96
99 156 96
99 156 96
100 155 96
101 154 96
101 154 96
102 153 96
103 152 96
103 152 96
104 151 96
104 151 96
105 150 96
106 149 96
106 149 96
107 148 96
108 147 96
108 147 96
109 146 96
110 145 96
110 145 96
111 144 96
111 143 96
112 143 96
113 142 96
113 142 96
114 141 96
115 140 96
115 140 96
116 139 96
117 138 96
117 138 96
118 137 96
119 136 96
119 136 96
120 135 96
120 135 96
121 134 96
122 133 96
122 133 96
123 132 96
124 131 96
124 131 96
125 130 96
126 129 96
126 129 96
127 128 96
127 127 96
128 127 96
129 126 96
129 126 96
130 125 96
131 124 96
131 124 96
132 123 96
133 122 96
133 122 96
134 121 96
135 120 96
135 120 96
136 119 96
136 119 96
137 118 96
138 117 96
138 117 96
139 116 96
140 115 96
140 115 96
141 114 96
142 113 96
142 113 96
143 112 96
143 111 96
144 111 96
145 110 96
145 110 96
146 109 96
147 108 96
147 108 96
148 107 96
149 106 96
149 106 96
150 105 96
151 104 96
151 104 96
152 103 96
152 103 96
153 102 96
154 101 96
154 101 96
155 100 96
156 99 96
156 99 96
157 98 96
158 97 96
158 97 96
159 96 96
159 95 96
160 95 96
161 94 96
161 94 96
162 93 96
163 92 96
163 92 96
164 91 96
165 90 96
165 90 96
166 89 96
167 88 96
167 88 96
168 87 96
168 87 96
169 86 96
170 85 96
170 85 96
171 84 96
172 83 96
172 83 96
173 82 96
174 81 96
174 81 96
175 80 96
175 79 96
176 79 96
177 78 96
177 78 96
178 77 96
179 76 96
179 76 96
180 75 96
181 74 96
181 74 96
182 73 96
183 72 96
183 72 96
184 71 96
184 71 96
185 70 96
186 69 96
186 69 96
187 68 96
188 67 96
188 67 96
189 66 96
190 65 96
190 65 96
191 64 96
191 63 96
192 63 96
193 62 96
193 62 96
194 61 96
195 60 96
195 60 96
196 59 96
197 58 96
197 58 96
198 57 96
199 56 96
199 56 96
200 55 96
200 55 96
201 54 96
202 53 96
202 53 96
203 52 96
204 51 96
204 51 96
205 50 96
206 49 96
206 49 96
207 48 96
207 47 96
208 47 96
209 46 96
209 46 96
210 45 96
211 44 96
211 44 96
212 43 96
213 42 96
213 42 96
214 41 96
215 40 96
215 40 96
216 39 96
216 39 96
217 38 96
218 37 96
218 37 96
219 36 96
220 35 96
220 35 96
221 34 96
222 33 96
222 33 96
223 32 96
223 31 96
224 31 96
225 30 96
225 30 96
226 29 96
227 28 96
227 28 96
228 27 96
229 26 96
229 26 96
230 25 96
231 24 96
231 24 96
232 23 96
232 23 96
233 22 96
234 21 96
234 21 96
235 20 96
236 19 96
236 19 96
237 18 96
238 17 96
238 17 96
239 16 96
239 15 96
240 15 96
241 14 96
241 14 96
242 13 96
243 12 96
243 12 96
244 11 96
245 10 96
245 10 96
246 9 96
247 8 96
247 8 96
248 7 96
248 7 96
249 6 96
250 5 96
250 5 96
251 4 96
252 3 96
252 3 96
253 2 96
254 1 96
254 1 96
255 0 96
0 255 97
0 255 97
1 254 97
1 254 97
2 253 97
3 252 97
3 252 97
4 251 97
5 250 97
5 250 97
6 249 97
7 248 97
7 248 97
8 247 97
8 247 97
9 246 97
10 245 97
10 245 97
11 244 97
12 243 97
12 243 97
13 242 97
14 241 97
14 241 97
15 240 97
15 239 97
16 239 97
17 238 97
17 238 97
18 237 97
19 236 97
19 236 97
20 235 97
21 234 97
21 234 97
22 233 97
23 232 97
23 232 97
24 231 97
24 231 97
25 230 97
26 229 97
26 229 97
27 228 97
28 227 97
28 227 97
29 226 97
30 225 97
30 225 97
31 224 97
31 223 97
32 223 97
33 222 97
33 222 97
34 221 97
35 220 97
35 220 97
36 219 97
37 218 97
37 218 97
38 217 97
39 216 97
39 216 97
40 215 97
40 215 97
41 214 97
42 213 97
42 213 97
43 212 97
44 211 97
44 211 97
45 210 97
46 209 97
46 209 97
47 208 97
47 207 97
48 207 97
49 206 97
49 206 97
50 205 97
51 204 97
51 204 97
52 203 97
53 202 97
53 202 97
54 201 97
55 200 97
55 200 97
56 199 97
56 199 97
57 198 97
58 197 97
58 197 97
59 196 97
60 195 97
60 195 97
61 194 97
62 193 97
62 193 97
63 192 97
63 191 97
64 191 97
65 190 97
65 190 97
66 189 97
67 188 97
67 188 97
68 187 97
69 186 97
69 186 97
70 185 97
71 184 97
71 184 97
72 183 97
72 183 97
73 182 97
74 181 97
74 181 97
75 180 97
76 179 97
76 179 97
77 178 97
78 177 97
78 177 97
79 176 97
79 175 97
80 175 97
81 174 97
81 174 97
82 173 97
83 172 97
83 172 97
84 171 97
85 170 97
85 170 97
86 169 97
87 168 97
87 168 97
88 167 97
88 167 97
89 166 97
90 165 97
90 165 97
91 164 97
92 163 97
92 163 97
93 162 97
94 161 97
94 161 97
95 160 97
95 159 97
96 159 97
97 158 97
97 158 97
98 157 97
99 156 97
99 156 97
100 155 97
101 154 97
101 154 97
102 153 97
103 152 97
103 152 97
104 151 97
104 151 97
105 150 97
106 149 97
106 149 97
107 148 97
108 147 97
108 147 97
109 146 97
110 145 97
110 145 97
111 144 97
111 143 97
112 143 97
113 142 97
113 142 97
114 141 97
115 140 97
115 140 97
116 139 97
117 138 97
117 138 97
118 137 97
119 136 97
119 136 97
120 135 97
120 135 97
121 134 97
122 133 97
122 133 97
123 132 97
124 131 97
124 131 97
125 130 97
126 129 97
126 129 97
127 128 97
127 127 97
128 127 97
129 126 97
129 126 97
130 125 97
131 124 97
131 124 97
132 123 97
133 122 97
133 122 97
134 121 97
135 120 97
135 120 97
136 119 97
136 119 97
137 118 97
138 117 97
138 117 97
139 116 97
140 115 97
140 115 97
141 114 97
142 113 97
142 113 97
143 112 97
143 111 97
144 111 97
145 110 97
145 110 97
146 109 97
147 108 97
147 108 97
148 107 97
149 106 97
149 106 97
150 105 97
151 104 97
151 104 97
152 103 97
152 103 97
153 102 97
154 101 97
154 101 97
155 100 97
156 99 97
156 99 97
157 98 97
158 97 97
158 97 97
159 96 97
159 95 97
160 95 97
161 94 97
161 94 97
162 93 97
163 92 97
163 92 97
164 91 97
165 90 97
165 90 97
166 89 97
167 88 97
167 88 97
168 87 97
168 87 97
169 86 97
170 85 97
170 85 97
171 84 97
172 83 97
172 83 97
173 82 97
174 81 97
174 81 97
175 80 97
175 79 97
176 79 97
177 78 97
177 78 97
178 77 97
179 76 97
179 76 97
180 75 97
181 74 97
181 74 97
182 73 97
183 72 97
183 72 97
184 71 97
184 71 97
185 70 97
186 69 97
186 69 97
187 68 97
188 67 97
188 67 97
189 66 97
190 65 97
190 65 97
191 64 97
191 63 97
192 63 97
193 62 97
193 62 97
194 61 97
195 60 97
195 60 97
196 59 97
197 58 97
197 58 97
198 57 97
199 56 97
199 56 97
200 55 97
200 55 97
201 54 97
202 53 97
202 53 97
203 52 97
204 51 97
204 51 97
205 50 97
206 49 97
206 49 97
207 48 97
207 47 97
208 47 97
209 46 97
209 46 97
210 45 97
211 44 97
211 44 97
212 43 97
213 42 97
213 42 97
214 41 97
215 40 97
215 40 97
216 39 97
216 39 97
217 38 97
218 37 97
218 37 97
219 36 97
220 35 97
220 35 97
221 34 97
222 33 97
222 33 97
223 32 97
223 31 97
224 31 97
225 30 97
225 30 97
226 29 97
227 28 97
227 28 97
228 27 97
229 26 97
229 26 97
230 25 97
231 24 97
231 24 97
232 23 97
232 23 97
233 22 97
234 21 97
234 21 97
235 20 97
236 19 97
236 19 97
237 18 97
238 17 97
238 17 97
239 16 97
239 15 97
240 15 97
241 14 97
241 14 97
242 13 97
243 12 97
243 12 97
244 11 97
245 10 97
245 10 97
246 9 97
247 8 97
247 8 97
248 7 97
248 7 97
249 6 97
250 5 97
250 5 97
251 4 97
252 3 97
252 3 97
253 2 97
254 1 97
254 1 97
255 0 97
0 255 98
0 255 98
1 254 98
1 254 98
2 253 98
3 252 98
3 252 98
4 251 98
5 250 98
5 250 98
6 249 98
7 248 98
7 248 98
8 247 98
8 247 98
9 246 98
10 245 98
10 245 98
11 244 98
12 243 98
12 243 98
13 242 98
14 241 98
14 241 98
15 240 98
15 239 98
16 239 98
17 238 98
17 238 98
18 237 98
19 236 98
19 236 98
20 235 98
21 234 98
21 234 98
22 233 98
23 232 98
23 232 98
24 231 98
24 231 98
25 230 98
26 229 98
26 229 98
27 228 98
28 227 98
28 227 98
29 226 98
30 225 98
30 225 98
31 224 98
31 223 98
32 223 98
33 222 98
33 222 98
34 221 98
35 220 98
35 220 98
36 219 98
37 218 98
37 218 98
38 217 98
39 216 98
39 216 98
40 215 98
40 215 98
41 214 98
42 213 98
42 213 98
43 212 98
44 211 98
44 211 98
45 210 98
46 209 98
46 209 98
47 208 98
47 207 98
48 207 98
49 206 98
49 206 98
50 205 98
51 204 98
51 204 98
52 203 98
53 202 98
53 202 98
54 201 98
55 200 98
55 200 98
56 199 98
56 199 98
57 198 98
58 197 98
58 197 98
59 196 98
60 195 98
60 195 98
61 194 98
62 193 98
62 193 98
63 192 98
63 191 98
64 191 98
65 190 98
65 190 98
66 189 98
67 188 98
67 188 98
68 187 98
69 186 98
69 186 98
70 185 98
71 184 98
71 184 98
72 183 98
72 183 98
73 182 98
74 181 98
74 181 98
75 180 98
76 179 98
76 179 98
77 178 98
78 177 98
78 177 98
79 176 98
79 175 98
80 175 98
81 174 98
81 174 98
82 173 98
83 172 98
83 172 98
84 171 98
85 170 98
85 170 98
86 169 98
87 168 98
87 168 98
88 167 98
88 167 98
89 166 98
90 165 98
90 165 98
91 164 98
92 163 98
92 163 98
93 162 98
94 161 98
94 161 98
95 160 98
95 159 98
96 159 98
97 158 98
97 158 98
98 157 98
99 156 98
99 156 98
100 155 98
101 154 98
101 154 98
102 153 98
103 152 98
103 152 98
104 151 98
104 151 98
105 150 98
106 149 98
106 149 98
107 148 98
108 147 98
108 147 98
109 146 98
110 145 98
110 145 98
111 144 98
111 143 98
112 143 98
113 142 98
113 142 98
114 141 98
115 140 98
115 140 98
116 139 98
117 138 98
117 138 98
118 137 98
119 136 98
119 136 98
120 135 98
120 135 98
121 134 98
122 133 98
122 133 98
123 132 98
124 131 98
124 131 98
125 130 98
126 129 98
126 129 98
127 128 98
127 127 98
128 127 98
129 126 98
129 126 98
130 125 98
131 124 98
131 124 98
132 123 98
133 122 98
133 122 98
134 121 98
135 120 98
135 120 98
136 119 98
136 119 98
137 118 98
138 117 98
138 117 98
139 116 98
140 115 98
140 115 98
141 114 98
142 113 98
142 113 98
143 112 98
143 111 98
144 111 98
145 110 98
145 110 98
146 109 98
147 108 98
147 108 98
148 107 98
149 106 98
149 106 98
150 105 98
151 104 98
151 104 98
152 103 98
152 103 98
153 102 98
154 101 98
154 101 98
155 100 98
156 99 98
156 99 98
157 98 98
158 97 98
158 97 98
159 96 98
159 95 98
160 95 98
161 94 98
161 94 98
162 93 98
163 92 98
163 92 98
164 91 98
165 90 98
165 90 98
166 89 98
167 88 98
167 88 98
168 87 98
168 87 98
169 86 98
170 85 98
170 85 98
171 84 98
172 83 98
172 83 98
173 82 98
174 81 98
174 81 98
175 80 98
175 79 98
176 79 98
177 78 98
177 78 98
178 77 98
179 76 98
179 76 98
180 75 98
181 74 98
181 74 98
182 73 98
183 72 98
183 72 98
184 71 98
184 71 98
185 70 98
186 69 98
186 69 98
187 68 98
188 67 98
188 67 98
189 66 98
190 65 98
190 65 98
191 64 98
191 63 98
192 63 98
193 62 98
193 62 98
194 61 98
195 60 98
195 60 98
196 59 98
197 58 98
197 58 98
198 57 98
199 56 98
199 56 98
200 55 98
200 55 98
201 54 98
202 53 98
202 53 98
203 52 98
204 51 98
204 51 98
205 50 98
206 49 98
206 49 98
207 48 98
207 47 98
208 47 98
209 46 98
209 46 98
210 45 98
211 44 98
211 44 98
212 43 98
213 42 98
213 42 98
214 41 98
215 40 98
215 40 98
216 39 98
216 39 98
217 38 98
218 37 98
218 37 98
219 36 98
220 35 98
220 35 98
221 34 98
222 33 98
222 33 98
223 32 98
223 31 98
224 31 98
225 30 98
225 30 98
226 29 98
227 28 98
227 28 98
228 27 98
229 26 98
229 26 98
230 25 98
231 24 98
231 24 98
232 23 98
232 23 98
233 22 98
234 21 98
234 21 98
235 20 98
236 19 98
236 19 98
237 18 98
238 17 98
238 17 98
239 16 98
239 15 98
240 15 98
241 14 98
241 14 98
242 13 98
243 12 98
243 12 98
244 11 98
245 10 98
245 10 98
246 9 98
247 8 98
247 8 98
248 7 98
248 7 98
249 6 98
250 5 98
250 5 98
251 4 98
252 3 98
252 3 98
253 2 98
254 1 98
254 1 98
255 0 98
0 255 100
0 255 100
1 254 100
1 254 100
2 253 100
3 252 100
3 252 100
4 251 100
5 250 100
5 250 100
6 249 100
7 248 100
7 248 100
8 247 100
8 247 100
9 246 100
10 245 100
10 245 100
11 244 100
12 243 100
12 243 100
13 242 100
14 241 100
14 241 100
15 240 100
15 239 100
16 239 100
17 238 100
17 238 100
18 237 100
19 236 100
19 236 100
20 235 100
21 234 100
21 234 100
22 233 100
23 232 100
23 232 100
24 231 100
24 231 100
25 230 100
26 229 100
26 229 100
27 228 100
28 227 100
28 227 100
29 226 100
30 225 100
30 225 100
31 224 100
31 223 100
32 223 100
33 222 100
33 222 100
34 221 100
35 220 100
35 220 100
36 219 100
37 218 100
37 218 100
38 217 100
39 216 100
39 216 100
40 215 100
40 215 100
41 214 100
42 213 100
42 213 100
43 212 100
44 211 100
44 211 100
45 210 100
46 209 100
46 209 100
47 208 100
47 207 100
48 207 100
49 206 100
49 206 100
50 205 100
51 204 100
51 204 100
52 203 100
53 202 100
53 202 100
54 201 100
55 200 100
55 200 100
56 199 100
56 199 100
57 198 100
58 197 100
58 197 100
59 196 100
60 195 100
60 195 100
61 194 100
62 193 100
62 193 100
63 192 100
63 191 100
64 191 100
65 190 100
65 190 100
66 189 100
67 188 100
67 188 100
68 187 100
69 186 100
69 186 100
70 185 100
71 184 100
71 184 100
72 183 100
72 183 100
73 182 100
74 181 100
74 181 100
75 180 100
76 179 100
76 179 100
77 178 100
78 177 100
78 177 100
79 176 100
79 175 100
80 175 100
81 174 100
81 174 100
82 173 100
83 172 100
83 172 100
84 171 100
85 170 100
85 170 100
86 169 100
87 168 100
87 168 100
88 167 100
88 167 100
89 166 100
90 165 100
90 165 100
91 164 100
92 163 100
92 163 100
93 162 100
94 161 100
94 161 100
95 160 100
95 159 100
96 159 100
97 158 100
97 158 100
98 157 100
99 156 100
99 156 100
100 155 100
101 154 100
101 154 100
102 153 100
103 152 100
103 152 100
104 151 100
104 151 100
105 150 100
106 149 100
106 149 100
107 148 100
108 147 100
108 147 100
109 146 100
110 145 100
110 145 100
111 144 100
111 143 100
112 143 100
113 142 100
113 142 100
114 141 100
115 140 100
115 140 100
116 139 100
117 138 100
117 138 100
118 137 100
119 136 100
119 136 100
120 135 100
120 135 100
121 134 100
122 133 100
122 133 100
123 132 100
124 131 100
124 131 100
125 130 100
126 129 100
126 129 100
127 128 100
127 127 100
128 127 100
129 126 100
129 126 100
130 125 100
131 124 100
131 124 100
132 123 100
133 122 100
133 122 100
134 121 100
135 120 100
135 120 100
136 119 100
136 119 100
137 118 100
138 117 100
138 117 100
139 116 100
140 115 100
140 115 100
141 114 100
142 113 100
142 113 100
143 112 100
143 111 100
144 111 100
145 110 100
145 110 100
146 109 100
147 108 100
147 108 100
148 107 100
149 106 100
149 106 100
150 105 100
151 104 100
151 104 100
152 103 100
152 103 100
153 102 100
154 101 100
154 101 100
155 100 100
156 99 100
156 99 100
157 98 100
158 97 100
158 97 100
159 96 100
159 95 100
160 95 100
161 94 100
161 94 100
162 93 100
163 92 100
163 92 100
164 91 100
165 90 100
165 90 100
166 89 100
167 88 100
167 88 100
168 87 100
168 87 100
169 86 100
170 85 100
170 85 100
171 84 100
172 83 100
172 83 100
173 82 100
174 81 100
174 81 100
175 80 100
175 79 100
176 79 100
177 78 100
177 78 100
178 77 100
179 76 100
179 76 100
180 75 100
181 74 100
181 74 100
182 73 100
183 72 100
183 72 100
184 71 100
184 71 100
185 70 100
186 69 100
186 69 100
187 68 100
188 67 100
188 67 100
189 66 100
190 65 100
190 65 100
191 64 100
191 63 100
192 63 100
193 62 100
193 62 100
194 61 100
195 60 100
195 60 100
196 59 100
197 58 100
197 58 100
198 57 100
199 56 100
199 56 100
200 55 100
200 55 100
201 54 100
202 53 100
202 53 100
203 52 100
204 51 100
204 51 100
205 50 100
206 49 100
206 49 100
207 48 100
207 47 100
208 47 100
209 46 100
209 46 100
210 45 100
211 44 100
211 44 100
212 43 100
213 42 100
213 42 100
214 41 100
215 40 100
215 40 100
216 39 100
216 39 100
217 38 100
218 37 100
218 37 100
219 36 100
220 35 100
220 35 100
221 34 100
222 33 100
222 33 100
223 32 100
223 31 100
224 31 100
225 30 100
225 30 100
226 29 100
227 28 100
227 28 100
228 27 100
229 26 100
229 26 100
230 25 100
231 24 100
231 24 100
232 23 100
232 23 100
233 22 100
234 21 100
234 21 100
235 20 100
236 19 100
236 19 100
237 18 100
238 17 100
238 17 100
239 16 100
239 15 100
240 15 100
241 14 100
241 14 100
242 13 100
243 12 100
243 12 100
244 11 100
245 10 100
245 10 100
246 9 100
247 8 100
247 8 100
248 7 100
248 7 100
249 6 100
250 5 100
250 5 100
251 4 100
252 3 100
252 3 100
253 2 100
254 1 100
254 1 100
255 0 100
0 255 101
0 255 101
1 254 101
1 254 101
2 253 101
3 252 101
3 252 101
4 251 101
5 250 101
5 250 101
6 249 101
7 248 101
7 248 101
8 247 101
8 247 101
9 246 101
10 245 101
10 245 101
11 244 101
12 243 101
12 243 101
13 242 101
14 241 101
14 241 101
15 240 101
15 239 101
16 239 101
17 238 101
17 238 101
18 237 101
19 236 101
19 236 101
20 235 101
21 234 101
21 234 101
22 233 101
23 232 101
23 232 101
24 231 101
24 231 101
25 230 101
26 229 101
26 229 101
27 228 101
28 227 101
28 227 101
29 226 101
30 225 101
30 225 101
31 224 101
31 223 101
32 223 101
33 222 101
33 222 101
34 221 101
35 220 101
35 220 101
36 219 101
37 218 101
37 218 101
38 217 101
39 216 101
39 216 101
40 215 101
40 215 101
41 214 101
42 213 101
42 213 101
43 212 101
44 211 101
44 211 101
45 210 101
46 209 101
46 209 101
47 208 101
47 207 101
48 207 101
49 206 101
49 206 101
50 205 101
51 204 101
51 204 101
52 203 101
53 202 101
53 202 101
54 201 101
55 200 101
55 200 101
56 199 101
56 199 101
57 198 101
58 197 101
58 197 101
59 196 101
60 195 101
60 195 101
61 194 101
62 193 101
62 193 101
63 192 101
63 191 101
64 191 101
65 190 101
65 190 101
66 189 101
67 188 101
67 188 101
68 187 101
69 186 101
69 186 101
70 185 101
71 184 101
71 184 101
72 183 101
72 183 101
73 182 101
74 181 101
74 181 101
75 180 101
76 179 101
76 179 101
77 178 101
78 177 101
78 177 101
79 176 101
79 175 101
80 175 101
81 174 101
81 174 101
82 173 101
83 172 101
83 172 101
84 171 101
85 170 101
85 170 101
86 169 101
87 168 101
87 168 101
88 167 101
88 167 101
89 166 101
90 165 101
90 165 101
91 164 101
92 163 101
92 163 101
93 162 101
94 161 101
94 161 101
95 160 101
95 159 101
96 159 101
97 158 101
97 158 101
98 157 101
99 156 101
99 156 101
100 155 101
101 154 101
101 154 101
102 153 101
103 152 101
103 152 101
104 151 101
104 151 101
105 150 101
106 149 101
106 149 101
107 148 101
108 147 101
108 147 101
109 146 101
110 145 101
110 145 101
111 144 101
111 143 101
112 143 101
113 142 101
113 142 101
114 141 101
115 140 101
115 140 101
116 139 101
117 138 101
117 138 101
118 137 101
119 136 101
119 136 101
120 135 101
120 135 101
121 134 101
122 133 101
122 133 101
123 132 101
124 131 101
124 131 101
125 130 101
126 129 101
126 129 101
127 128 101
127 127 101
128 127 101
129 126 101
129 126 101
130 125 101
131 124 101
131 124 101
132 123 101
133 122 101
133 122 101
134 121 101
135 120 101
135 120 101
136 119 101
136 119 101
137 118 101
138 117 101
138 117 101
139 116 101
140 115 101
140 115 101
141 114 101
142 113 101
142 113 101
143 112 101
143 111 101
144 111 101
145 110 101
145 110 101
146 109 101
147 108 101
147 108 101
148 107 101
149 106 101
149 106 101
150 105 101
151 104 101
151 104 101
152 103 101
152 103 101
153 102 101
154 101 101
154 101 101
155 100 101
156 99 101
156 99 101
157 98 101
158 97 101
158 97 101
159 96 101
159 95 101
160 95 101
161 94 101
161 94 101
162 93 101
163 92 101
163 92 101
164 91 101
165 90 101
165 90 101
166 89 101
167 88 101
167 88 101
168 87 101
168 87 101
169 86 101
170 85 101
170 85 101
171 84 101
172 83 101
172 83 101
173 82 101
174 81 101
174 81 101
175 80 101
175 79 101
176 79 101
177 78 101
177 78 101
178 77 101
179 76 101
179 76 101
180 75 101
181 74 101
181 74 101
182 73 101
183 72 101
183 72 101
184 71 101
184 71 101
185 70 101
186 69 101
186 69 101
187 68 101
188 67 101
188 67 101
189 66 101
190 65 101
190 65 101
191 64 101
191 63 101
192 63 101
193 62 101
193 62 101
194 61 101
195 60 101
195 60 101
196 59 101
197 58 101
197 58 101
198 57 101
199 56 101
199 56 101
200 55 101
200 55 101
201 54 101
202 53 101
202 53 101
203 52 101
204 51 101
204 51 101
205 50 101
206 49 101
206 49 101
207 48 101
207 47 101
208 47 101
209 46 101
209 46 101
210 45 101
211 44 101
211 44 101
212 43 101
213 42 101
213 42 101
214 41 101
215 40 101
215 40 101
216 39 101
216 39 101
217 38 101
218 37 101
218 37 101
219 36 101
220 35 101
220 35 101
221 34 101
222 33 101
222 33 101
223 32 101
223 31 101
224 31 101
225 30 101
225 30 101
226 29 101
227 28 101
227 28 101
228 27 101
229 26 101
229 26 101
230 25 101
231 24 101
231 24 101
232 23 101
232 23 101
233 22 101
234 21 101
234 21 101
235 20 101
236 19 101
236 19 101
237 18 101
238 17 101
238 17 101
239 16 101
239 15 101
240 15 101
241 14 101
241 14 101
242 13 101
243 12 101
243 12 101
244 11 101
245 10 101
245 10 101
246 9 101
247 8 101
247 8 101
248 7 101
248 7 101
249 6 101
250 5 101
250 5 101
251 4 101
252 3 101
252 3 101
253 2 101
254 1 101
254 1 101
255 0 101
0 255 102
0 255 102
1 254 102
1 254 102
2 253 102
3 252 102
3 252 102
4 251 102
5 250 102
5 250 102
6 249 102
7 248 102
7 248 102
8 247 102
8 247 102
9 246 102
10 245 102
10 245 102
11 244 102
12 243 102
12 243 102
13 242 102
14 241 102
14 241 102
15 240 102
15 239 102
16 239 102
17 238 102
17 238 102
18 237 102
19 236 102
19 236 102
20 235 102
21 234 102
21 234 102
22 233 102
23 232 102
23 232 102
24 231 102
24 231 102
25 230 102
26 229 102
26 229 102
27 228 102
28 227 102
28 227 102
29 226 102
30 225 102
30 225 102
31 224 102
31 223 102
32 223 102
33 222 102
33 222 102
34 221 102
35 220 102
35 220 102
36 219 102
37 218 102
37 218 102
38 217 102
39 216 102
39 216 102
40 215 102
40 215 102
41 214 102
42 213 102
42 213 102
43 212 102
44 211 102
44 211 102
45 210 102
46 209 102
46 209 102
47 208 102
47 207 102
48 207 102
49 206 102
49 206 102
50 205 102
51 204 102
51 204 102
52 203 102
53 202 102
53 202 102
54 201 102
55 200 102
55 200 102
56 199 102
56 199 102
57 198 102
58 197 102
58 197 102
59 196 102
60 195 102
60 195 102
61 194 102
62 193 102
62 193 102
63 192 102
63 191 102
64 191 102
65 190 102
65 190 102
66 189 102
67 188 102
67 188 102
68 187 102
69 186 102
69 186 102
70 185 102
71 184 102
71 184 102
72 183 102
72 183 102
73 182 102
74 181 102
74 181 102
75 180 102
76 179 102
76 179 102
77 178 102
78 177 102
78 177 102
79 176 102
79 175 102
80 175 102
81 174 102
81 174 102
82 173 102
83 172 102
83 172 102
84 171 102
85 170 102
85 170 102
86 169 102
87 168 102
87 168 102
88 167 102
88 167 102
89 166 102
90 165 102
90 165 102
91 164 102
92 163 102
92 163 102
93 162 102
94 161 102
94 161 102
95 160 102
95 159 102
96 159 102
97 158 102
97 158 102
98 157 102
99 156 102
99 156 102
100 155 102
101 154 102
101 154 102
102 153 102
103 152 102
103 152 102
104 151 102
104 151 102
105 150 102
106 149 102
106 149 102
107 148 102
108 147 102
108 147 102
109 146 102
110 145 102
110 145 102
111 144 102
111 143 102
112 143 102
113 142 102
113 142 102
114 141 102
115 140 102
115 140 102
116 139 102
117 138 102
117 138 102
118 137 102
119 136 102
119 136 102
120 135 102
120 135 102
121 134 102
122 133 102
122 133 102
123 132 102
124 131 102
124 131 102
125 130 102
126 129 102
126 129 102
127 128 102
127 127 102
128 127 102
129 126 102
129 126 102
130 125 102
131 124 102
131 124 102
132 123 102
133 122 102
133 122 102
134 121 102
135 120 102
135 120 102
136 119 102
136 119 102
137 118 102
138 117 102
138 117 102
139 116 102
140 115 102
140 115 102
141 114 102
142 113 102
142 113 102
143 112 102
143 111 102
144 111 102
145 110 102
145 110 102
146 109 102
147 108 102
147 108 102
148 107 102
149 106 102
149 106 102
150 105 102
151 104 102
151 104 102
152 103 102
152 103 102
153 102 102
154 101 102
154 101 102
155 100 102
156 99 102
156 99 102
157 98 102
158 97 102
158 97 102
159 96 102
159 95 102
160 95 102
161 94 102
161 94 102
162 93 102
163 92 102
163 92 102
164 91 102
165 90 102
165 90 102
166 89 102
167 88 102
167 88 102
168 87 102
168 87 102
169 86 102
170 85 102
170 85 102
171 84 102
172 83 102
172 83 102
173 82 102
174 81 102
174 81 102
175 80 102
175 79 102
176 79 102
177 78 102
177 78 102
178 77 102
179 76 102
179 76 102
180 75 102
181 74 102
181 74 102
182 73 102
183 72 102
183 72 102
184 71 102
184 71 102
185 70 102
186 69 102
186 69 102
187 68 102
188 67 102
188 67 102
189 66 102
190 65 102
190 65 102
191 64 102
191 63 102
192 63 102
193 62 102
193 62 102
194 61 102
195 60 102
195 60 102
196 59 102
197 58 102
197 58 102
198 57 102
199 56 102
199 56 102
200 55 102
200 55 102
201 54 102
202 53 102
202 53 102
203 52 102
204 51 102
204 51 102
205 50 102
206 49 102
206 49 102
207 48 102
207 47 102
208 47 102
209 46 102
209 46 102
210 45 102
211 44 102
211 44 102
212 43 102
213 42 102
213 42 102
214 41 102
215 40 102
215 40 102
216 39 102
216 39 102
217 38 102
218 37 102
218 37 102
219 36 102
220 35 102
220 35 102
221 34 102
222 33 102
222 33 102
223 32 102
223 31 102
224 31 102
225 30 102
225 30 102
226 29 102
227 28 102
227 28 102
228 27 102
229 26 102
229 26 102
230 25 102
231 24 102
231 24 102
232 23 102
232 23 102
233 22 102
234 21 102
234 21 102
235 20 102
236 19 102
236 19 102
237 18 102
238 17 102
238 17 102
239 16 102
239 15 102
240 15 102
241 14 102
241 14 102
242 13 102
243 12 102
243 12 102
244 11 102
245 10 102
245 10 102
246 9 102
247 8 102
247 8 102
248 7 102
248 7 102
249 6 102
250 5 102
250 5 102
251 4 102
252 3 102
252 3 102
253 2 102
254 1 102
254 1 102
255 0 102
0 255 103
0 255 103
1 254 103
1 254 103
2 253 103
3 252 103
3 252 103
4 251 103
5 250 103
5 250 103
6 249 103
7 248 103
7 248 103
8 247 103
8 247 103
9 246 103
10 245 103
10 245 103
11 244 103
12 243 103
12 243 103
13 242 103
14 241 103
14 241 103
15 240 103
15 239 103
16 239 103
17 238 103
17 238 103
18 237 103
19 236 103
19 236 103
20 235 103
21 234 103
21 234 103
22 233 103
23 232 103
23 232 103
24 231 103
24 231 103
25 230 103
26 229 103
26 229 103
27 228 103
28 227 103
28 227 103
29 226 103
30 225 103
30 225 103
31 224 103
31 223 103
32 223 103
33 222 103
33 222 103
34 221 103
35 220 103
35 220 103
36 219 103
37 218 103
37 218 103
38 217 103
39 216 103
39 216 103
40 215 103
40 215 103
41 214 103
42 213 103
42 213 103
43 212 103
44 211 103
44 211 103
45 210 103
46 209 103
46 209 103
47 208 103
47 207 103
48 207 103
49 206 103
49 206 103
50 205 103
51 204 103
51 204 103
52 203 103
53 202 103
53 202 103
54 201 103
55 200 103
55 200 103
56 199 103
56 199 103
57 198 103
58 197 103
58 197 103
59 196 103
60 195 103
60 195 103
61 194 103
62 193 103
62 193 103
63 192 103
63 191 103
64 191 103
65 190 103
65 190 103
66 189 103
67 188 103
67 188 103
68 187 103
69 186 103
69 186 103
70 185 103
71 184 103
71 184 103
72 183 103
72 183 103
73 182 103
74 181 103
74 181 103
75 180 103
76 179 103
76 179 103
77 178 103
78 177 103
78 177 103
79 176 103
79 175 103
80 175 103
81 174 103
81 174 103
82 173 103
83 172 103
83 172 103
84 171 103
85 170 103
85 170 103
86 169 103
87 168 103
87 168 103
88 167 103
88 167 103
89 166 103
90 165 103
90 165 103
91 164 103
92 163 103
92 163 103
93 162 103
94 161 103
94 161 103
95 160 103
95 159 103
96 159 103
97 158 103
97 158 103
98 157 103
99 156 103
99 156 103
100 155 103
101 154 103
101 154 103
102 153 103
103 152 103
103 152 103
104 151 103
104 151 103
105 150 103
106 149 103
106 149 103
107 148 103
108 147 103
108 147 103
109 146 103
110 145 103
110 145 103
111 144 103
111 143 103
112 143 103
113 142 103
113 142 103
114 141 103
115 140 103
115 140 103
116 139 103
117 138 103
117 138 103
118 137 103
119 136 103
119 136 103
120 135 103
120 135 103
121 134 103
122 133 103
122 133 103
123 132 103
124 131 103
124 131 103
125 130 103
126 129 103
126 129 103
127 128 103
127 127 103
128 127 103
129 126 103
129 126 103
130 125 103
131 124 103
131 124 103
132 123 103
133 122 103
133 122 103
134 121 103
135 120 103
135 120 103
136 119 103
136 119 103
137 118 103
138 117 103
138 117 103
139 116 103
140 115 103
140 115 103
141 114 103
142 113 103
142 113 103
143 112 103
143 111 103
144 111 103
145 110 103
145 110 103
146 109 103
147 108 103
147 108 103
148 107 103
149 106 103
149 106 103
150 105 103
151 104 103
151 104 103
152 103 103
152 103 103
153 102 103
154 101 103
154 101 103
155 100 103
156 99 103
156 99 103
157 98 103
158 97 103
158 97 103
159 96 103
159 95 103
160 95 103
161 94 103
161 94 103
162 93 103
163 92 103
163 92 103
164 91 103
165 90 103
165 90 103
166 89 103
167 88 103
167 88 103
168 87 103
168 87 103
169 86 103
170 85 103
170 85 103
171 84 103
172 83 103
172 83 103
173 82 103
174 81 103
174 81 103
175 80 103
175 79 103
176 79 103
177 78 103
177 78 103
178 77 103
179 76 103
179 76 103
180 75 103
181 74 103
181 74 103
182 73 103
183 72 103
183 72 103
184 71 103
184 71 103
185 70 103
186 69 103
186 69 103
187 68 103
188 67 103
188 67 103
189 66 103
190 65 103
190 65 103
191 64 103
191 63 103
192 63 103
193 62 103
193 62 103
194 61 103
195 60 103
195 60 103
196 59 103
197 58 103
197 58 103
198 57 103
199 56 103
199 56 103
200 55 103
200 55 103
201 54 103
202 53 103
202 53 103
203 52 103
204 51 103
204 51 103
205 50 103
206 49 103
206 49 103
207 48 103
207 47 103
208 47 103
209 46 103
209 46 103
210 45 103
211 44 103
211 44 103
212 43 103
213 42 103
213 42 103
214 41 103
215 40 103
215 40 103
216 39 103
216 39 103
217 38 103
218 37 103
218 37 103
219 36 103
220 35 103
220 35 103
221 34 103
222 33 103
222 33 103
223 32 103
223 31 103
224 31 103
225 30 103
225 30 103
226 29 103
227 28 103
227 28 103
228 27 103
229 26 103
229 26 103
230 25 103
231 24 103
231 24 103
232 23 103
232 23 103
233 22 103
234 21 103
234 21 103
235 20 103
236 19 103
236 19 103
237 18 103
238 17 103
238 17 103
239 16 103
239 15 103
240 15 103
241 14 103
241 14 103
242 13 103
243 12 103
243 12 103
244 11 103
245 10 103
245 10 103
246 9 103
247 8 103
247 8 103
248 7 103
248 7 103
249 6 103
250 5 103
250 5 103
251 4 103
252 3 103
252 3 103
253 2 103
254 1 103
254 1 103
255 0 103
0 255 104
0 255 104
1 254 104
1 254 104
2 253 104
3 252 104
3 252 104
4 251 104
5 250 104
5 250 104
6 249 104
7 248 104
7 248 104
8 247 104
8 247 104
9 246 104
10 245 104
10 245 104
11 244 104
12 243 104
12 243 104
13 242 104
14 241 104
14 241 104
15 240 104
15 239 104
16 239 104
17 238 104
17 238 104
18 237 104
19 236 104
19 236 104
20 235 104
21 234 104
21 234 104
22 233 104
23 232 104
23 232 104
24 231 104
24 231 104
25 230 104
26 229 104
26 229 104
27 228 104
28 227 104
28 227 104
29 226 104
30 225 104
30 225 104
31 224 104
31 223 104
32 223 104
33 222 104
33 222 104
34 221 104
35 220 104
35 220 104
36 219 104
37 218 104
37 218 104
38 217 104
39 216 104
39 216 104
40 215 104
40 215 104
41 214 104
42 213 104
42 213 104
43 212 104
44 211 104
44 211 104
45 210 104
46 209 104
46 209 104
47 208 104
47 207 104
48 207 104
49 206 104
49 206 104
50 205 104
51 204 104
51 204 104
52 203 104
53 202 104
53 202 104
54 201 104
55 200 104
55 200 104
56 199 104
56 199 104
57 198 104
58 197 104
58 197 104
59 196 104
60 195 104
60 195 104
61 194 104
62 193 104
62 193 104
63 192 104
63 191 104
64 191 104
65 190 104
65 190 104
66 189 104
67 188 104
67 188 104
68 187 104
69 186 104
69 186 104
70 185 104
71 184 104
71 184 104
72 183 104
72 183 104
73 182 104
74 181 104
74 181 104
75 180 104
76 179 104
76 179 104
77 178 104
78 177 104
78 177 104
79 176 104
79 175 104
80 175 104
81 174 104
81 174 104
82 173 104
83 172 104
83 172 104
84 171 104
85 170 104
85 170 104
86 169 104
87 168 104
87 168 104
88 167 104
88 167 104
89 166 104
90 165 104
90 165 104
91 164 104
92 163 104
92 163 104
93 162 104
94 161 104
94 161 104
95 160 104
95 159 104
96 159 104
97 158 104
97 158 104
98 157 104
99 156 104
99 156 104
100 155 104
101 154 104
101 154 104
102 153 104
103 152 104
103 152 104
104 151 104
104 151 104
105 150 104
106 149 104
106 149 104
107 148 104
108 147 104
108 147 104
109 146 104
110 145 104
110 145 104
111 144 104
111 143 104
112 143 104
113 142 104
113 142 104
114 141 104
115 140 104
115 140 104
116 139 104
117 138 104
117 138 104
118 137 104
119 136 104
119 136 104
120 135 104
120 135 104
121 134 104
122 133 104
122 133 104
123 132 104
124 131 104
124 131 104
125 130 104
126 129 104
126 129 104
127 128 104
127 127 104
128 127 104
129 126 104
129 126 104
130 125 104
131 124 104
131 124 104
132 123 104
133 122 104
133 122 104
134 121 104
135 120 104
135 120 104
136 119 104
136 119 104
137 118 104
138 117 104
138 117 104
139 116 104
140 115 104
140 115 104
141 114 104
142 113 104
142 113 104
143 112 104
143 111 104
144 111 104
145 110 104
145 110 104
146 109 104
147 108 104
147 108 104
148 107 104
149 106 104
149 106 104
150 105 104
151 104 104
151 104 104
152 103 104
152 103 104
153 102 104
154 101 104
154 101 104
155 100 104
156 99 104
156 99 104
157 98 104
158 97 104
158 97 104
159 96 104
159 95 104
160 95 104
161 94 104
161 94 104
162 93 104
163 92 104
163 92 104
164 91 104
165 90 104
165 90 104
166 89 104
167 88 104
167 88 104
168 87 104
168 87 104
169 86 104
170 85 104
170 85 104
171 84 104
172 83 104
172 83 104
173 82 104
174 81 104
174 81 104
175 80 104
175 79 104
176 79 104
177 78 104
177 78 104
178 77 104
179 76 104
179 76 104
180 75 104
181 74 104
181 74 104
182 73 104
183 72 104
183 72 104
184 71 104
184 71 104
185 70 104
186 69 104
186 69 104
187 68 104
188 67 104
188 67 104
189 66 104
190 65 104
190 65 104
191 64 104
191 63 104
192 63 104
193 62 104
193 62 104
194 61 104
195 60 104
195 60 104
196 59 104
197 58 104
197 58 104
198 57 104
199 56 104
199 56 104
200 55 104
200 55 104
201 54 104
202 53 104
202 53 104
203 52 104
204 51 104
204 51 104
205 50 104
206 49 104
206 49 104
207 48 104
207 47 104
208 47 104
209 46 104
209 46 104
210 45 104
211 44 104
211 44 104
212 43 104
213 42 104
213 42 104
214 41 104
215 40 104
215 40 104
216 39 104
216 39 104
217 38 104
218 37 104
218 37 104
219 36 104
220 35 104
220 35 104
221 34 104
222 33 104
222 33 104
223 32 104
223 31 104
224 31 104
225 30 104
225 30 104
226 29 104
227 28 104
227 28 104
228 27 104
229 26 104
229 26 104
230 25 104
231 24 104
231 24 104
232 23 104
232 23 104
233 22 104
234 21 104
234 21 104
235 20 104
236 19 104
236 19 104
237 18 104
238 17 104
238 17 104
239 16 104
239 15 104
240 15 104
241 14 104
241 14 104
242 13 104
243 12 104
243 12 104
244 11 104
245 10 104
245 10 104
246 9 104
247 8 104
247 8 104
248 7 104
248 7 104
249 6 104
250 5 104
250 5 104
251 4 104
252 3 104
252 3 104
253 2 104
254 1 104
254 1 104
255 0 104
0 255 105
0 255 105
1 254 105
1 254 105
2 253 105
3 252 105
3 252 105
4 251 105
5 250 105
5 250 105
6 249 105
7 248 105
7 248 105
8 247 105
8 247 105
9 246 105
10 245 105
10 245 105
11 244 105
12 243 105
12 243 105
13 242 105
14 241 105
14 241 105
15 240 105
15 239 105
16 239 105
17 238 105
17 238 105
18 237 105
19 236 105
19 236 105
20 235 105
21 234 105
21 234 105
22 233 105
23 232 105
23 232 105
24 231 105
24 231 105
25 230 105
26 229 105
26 229 105
27 228 105
28 227 105
28 227 105
29 226 105
30 225 105
30 225 105
31 224 105
31 223 105
32 223 105
33 222 105
33 222 105
34 221 105
35 220 105
35 220 105
36 219 105
37 218 105
37 218 105
38 217 105
39 216 105
39 216 105
40 215 105
40 215 105
41 214 105
42 213 105
42 213 105
43 212 105
44 211 105
44 211 105
45 210 105
46 209 105
46 209 105
47 208 105
47 207 105
48 207 105
49 206 105
49 206 105
50 205 105
51 204 105
51 204 105
52 203 105
53 202 105
53 202 105
54 201 105
55 200 105
55 200 105
56 199 105
56 199 105
57 198 105
58 197 105
58 197 105
59 196 105
60 195 105
60 195 105
61 194 105
62 193 105
62 193 105
63 192 105
63 191 105
64 191 105
65 190 105
65 190 105
66 189 105
67 188 105
67 188 105
68 187 105
69 186 105
69 186 105
70 185 105
71 184 105
71 184 105
72 183 105
72 183 105
73 182 105
74 181 105
74 181 105
75 180 105
76 179 105
76 179 105
77 178 105
78 177 105
78 177 105
79 176 105
79 175 105
80 175 105
81 174 105
81 174 105
82 173 105
83 172 105
83 172 105
84 171 105
85 170 105
85 170 105
86 169 105
87 168 105
87 168 105
88 167 105
88 167 105
89 166 105
90 165 105
90 165 105
91 164 105
92 163 105
92 163 105
93 162 105
94 161 105
94 161 105
95 160 105
95 159 105
96 159 105
97 158 105
97 158 105
98 157 105
99 156 105
99 156 105
100 155 105
101 154 105
101 154 105
102 153 105
103 152 105
103 152 105
104 151 105
104 151 105
105 150 105
106 149 105
106 149 105
107 148 105
108 147 105
108 147 105
109 146 105
110 145 105
110 145 105
111 144 105
111 143 105
112 143 105
113 142 105
113 142 105
114 141 105
115 140 105
115 140 105
116 139 105
117 138 105
117 138 105
118 137 105
119 136 105
119 136 105
120 135 105
120 135 105
121 134 105
122 133 105
122 133 105
123 132 105
124 131 105
124 131 105
125 130 105
126 129 105
126 129 105
127 128 105
127 127 105
128 127 105
129 126 105
129 126 105
130 125 105
131 124 105
131 124 105
132 123 105
133 122 105
133 122 105
134 121 105
135 120 105
135 120 105
136 119 105
136 119 105
137 118 105
138 117 105
138 117 105
139 116 105
140 115 105
140 115 105
141 114 105
142 113 105
142 113 105
143 112 105
143 111 105
144 111 105
145 110 105
145 110 105
146 109 105
147 108 105
147 108 105
148 107 105
149 106 105
149 106 105
150 105 105
151 104 105
151 104 105
152 103 105
152 103 105
153 102 105
154 101 105
154 101 105
155 100 105
156 99 105
156 99 105
157 98 105
158 97 105
158 97 105
159 96 105
159 95 105
160 95 105
161 94 105
161 94 105
162 93 105
163 92 105
163 92 105
164 91 105
165 90 105
165 90 105
166 89 105
167 88 105
167 88 105
168 87 105
168 87 105
169 86 105
170 85 105
170 85 105
171 84 105
172 83 105
172 83 105
173 82 105
174 81 105
174 81 105
175 80 105
175 79 105
176 79 105
177 78 105
177 78 105
178 77 105
179 76 105
179 76 105
180 75 105
181 74 105
181 74 105
182 73 105
183 72 105
183 72 105
184 71 105
184 71 105
185 70 105
186 69 105
186 69 105
187 68 105
188 67 105
188 67 105
189 66 105
190 65 105
190 65 105
191 64 105
191 63 105
192 63 105
193 62 105
193 62 105
194 61 105
195 60 105
195 60 105
196 59 105
197 58 105
197 58 105
198 57 105
199 56 105
199 56 105
200 55 105
200 55 105
201 54 105
202 53 105
202 53 105
203 52 105
204 51 105
204 51 105
205 50 105
206 49 105
206 49 105
207 48 105
207 47 105
208 47 105
209 46 105
209 46 105
210 45 105
211 44 105
211 44 105
212 43 105
213 42 105
213 42 105
214 41 105
215 40 105
215 40 105
216 39 105
216 39 105
217 38 105
218 37 105
218 37 105
219 36 105
220 35 105
220 35 105
221 34 105
222 33 105
222 33 105
223 32 105
223 31 105
224 31 105
225 30 105
225 30 105
226 29 105
227 28 105
227 28 105
228 27 105
229 26 105
229 26 105
230 25 105
231 24 105
231 24 105
232 23 105
232 23 105
233 22 105
234 21 105
234 21 105
235 20 105
236 19 105
236 19 105
237 18 105
238 17 105
238 17 105
239 16 105
239 15 105
240 15 105
241 14 105
241 14 105
242 13 105
243 12 105
243 12 105
244 11 105
245 10 105
245 10 105
246 9 105
247 8 105
247 8 105
248 7 105
248 7 105
249 6 105
250 5 105
250 5 105
251 4 105
252 3 105
252 3 105
253 2 105
254 1 105
254 1 105
255 0 105
0 255 106
0 255 106
1 254 106
1 254 106
2 253 106
3 252 106
3 252 106
4 251 106
5 250 106
5 250 106
6 249 106
7 248 106
7 248 106
8 247 106
8 247 106
9 246 106
10 245 106
10 245 106
11 244 106
12 243 106
12 243 106
13 242 106
14 241 106
14 241 106
15 240 106
15 239 106
16 239 106
17 238 106
17 238 106
18 237 106
19 236 106
19 236 106
20 235 106
21 234 106
21 234 106
22 233 106
23 232 106
23 232 106
24 231 106
24 231 106
25 230 106
26 229 106
26 229 106
27 228 106
28 227 106
28 227 106
29 226 106
30 225 106
30 225 106
31 224 106
31 223 106
32 223 106
33 222 106
33 222 106
34 221 106
35 220 106
35 220 106
36 219 106
37 218 106
37 218 106
38 217 106
39 216 106
39 216 106
40 215 106
40 215 106
41 214 106
42 213 106
42 213 106
43 212 106
44 211 106
44 211 106
45 210 106
46 209 106
46 209 106
47 208 106
47 207 106
48 207 106
49 206 106
49 206 106
50 205 106
51 204 106
51 204 106
52 203 106
53 202 106
53 202 106
54 201 106
55 200 106
55 200 106
56 199 106
56 199 106
57 198 106
58 197 106
58 197 106
59 196 106
60 195 106
60 195 106
61 194 106
62 193 106
62 193 106
63 192 106
63 191 106
64 191 106
65 190 106
65 190 106
66 189 106
67 188 106
67 188 106
68 187 106
69 186 106
69 186 106
70 185 106
71 184 106
71 184 106
72 183 106
72 183 106
73 182 106
74 181 106
74 181 106
75 180 106
76 179 106
76 179 106
77 178 106
78 177 106
78 177 106
79 176 106
79 175 106
80 175 106
81 174 106
81 174 106
82 173 106
83 172 106
83 172 106
84 171 106
85 170 106
85 170 106
86 169 106
87 168 106
87 168 106
88 167 106
88 167 106
89 166 106
90 165 106
90 165 106
91 164 106
92 163 106
92 163 106
93 162 106
94 161 106
94 161 106
95 160 106
95 159 106
96 159 106
97 158 106
97 158 106
98 157 106
99 156 106
99 156 106
100 155 106
101 154 106
101 154 106
102 153 106
103 152 106
103 152 106
104 151 106
104 151 106
105 150 106
106 149 106
106 149 106
107 148 106
108 147 106
108 147 106
109 146 106
110 145 106
110 145 106
111 144 106
111 143 106
112 143 106
113 142 106
113 142 106
114 141 106
115 140 106
115 140 106
116 139 106
117 138 106
117 138 106
118 137 106
119 136 106
119 136 106
120 135 106
120 135 106
121 134 106
122 133 106
122 133 106
123 132 106
124 131 106
124 131 106
125 130 106
126 129 106
126 129 106
127 128 106
127 127 106
128 127 106
129 126 106
129 126 106
130 125 106
131 124 106
131 124 106
132 123 106
133 122 106
133 122 106
134 121 106
135 120 106
135 120 106
136 119 106
136 119 106
137 118 106
138 117 106
138 117 106
139 116 106
140 115 106
140 115 106
141 114 106
142 113 106
142 113 106
143 112 106
143 111 106
144 111 106
145 110 106
145 110 106
146 109 106
147 108 106
147 108 106
148 107 106
149 106 106
149 106 106
150 105 106
151 104 106
151 104 106
152 103 106
152 103 106
153 102 106
154 101 106
154 101 106
155 100 106
156 99 106
156 99 106
157 98 106
158 97 106
158 97 106
159 96 106
159 95 106
160 95 106
161 94 106
161 94 106
162 93 106
163 92 106
163 92 106
164 91 106
165 90 106
165 90 106
166 89 106
167 88 106
167 88 106
168 87 106
168 87 106
169 86 106
170 85 106
170 85 106
171 84 106
172 83 106
172 83 106
173 82 106
174 81 106
174 81 106
175 80 106
175 79 106
176 79 106
177 78 106
177 78 106
178 77 106
179 76 106
179 76 106
180 75 106
181 74 106
181 74 106
182 73 106
183 72 106
183 72 106
184 71 106
184 71 106
185 70 106
186 69 106
186 69 106
187 68 106
188 67 106
188 67 106
189 66 106
190 65 106
190 65 106
191 64 106
191 63 106
192 63 106
193 62 106
193 62 106
194 61 106
195 60 106
195 60 106
196 59 106
197 58 106
197 58 106
198 57 106
199 56 106
199 56 106
200 55 106
200 55 106
201 54 106
202 53 106
202 53 106
203 52 106
204 51 106
204 51 106
205 50 106
206 49 106
206 49 106
207 48 106
207 47 106
208 47 106
209 46 106
209 46 106
210 45 106
211 44 106
211 44 106
212 43 106
213 42 106
213 42 106
214 41 106
215 40 106
215 40 106
216 39 106
216 39 106
217 38 106
218 37 106
218 37 106
219 36 106
220 35 106
220 35 106
221 34 106
222 33 106
222 33 106
223 32 106
223 31 106
224 31 106
225 30 106
225 30 106
226 29 106
227 28 106
227 28 106
228 27 106
229 26 106
229 26 106
230 25 106
231 24 106
231 24 106
232 23 106
232 23 106
233 22 106
234 21 106
234 21 106
235 20 106
236 19 106
236 19 106
237 18 106
238 17 106
238 17 106
239 16 106
239 15 106
240 15 106
241 14 106
241 14 106
242 13 106
243 12 106
243 12 106
244 11 106
245 10 106
245 10 106
246 9 106
247 8 106
247 8 106
248 7 106
248 7 106
249 6 106
250 5 106
250 5 106
251 4 106
252 3 106
252 3 106
253 2 106
254 1 106
254 1 106
255 0 106
0 255 108
0 255 108
1 254 108
1 254 108
2 253 108
3 252 108
3 252 108
4 251 108
5 250 108
5 250 108
6 249 108
7 248 108
7 248 108
8 247 108
8 247 108
9 246 108
10 245 108
10 245 108
11 244 108
12 243 108
12 243 108
13 242 108
14 241 108
14 241 108
15 240 108
15 239 108
16 239 108
17 238 108
17 238 108
18 237 108
19 236 108
19 236 108
20 235 108
21 234 108
21 234 108
22 233 108
23 232 108
23 232 108
24 231 108
24 231 108
25 230 108
26 229 108
26 229 108
27 228 108
28 227 108
28 227 108
29 226 108
30 225 108
30 225 108
31 224 108
31 223 108
32 223 108
33 222 108
33 222 108
34 221 108
35 220 108
35 220 108
36 219 108
37 218 108
37 218 108
38 217 108
39 216 108
39 216 108
40 215 108
40 215 108
41 214 108
42 213 108
42 213 108
43 212 108
44 211 108
44 211 108
45 210 108
46 209 108
46 209 108
47 208 108
47 207 108
48 207 108
49 206 108
49 206 108
50 205 108
51 204 108
51 204 108
52 203 108
53 202 108
53 202 108
54 201 108
55 200 108
55 200 108
56 199 108
56 199 108
57 198 108
58 197 108
58 197 108
59 196 108
60 195 108
60 195 108
61 194 108
62 193 108
62 193 108
63 192 108
63 191 108
64 191 108
65 190 108
65 190 108
66 189 108
67 188 108
67 188 108
68 187 108
69 186 108
69 186 108
70 185 108
71 184 108
71 184 108
72 183 108
72 183 108
73 182 108
74 181 108
74 181 108
75 180 108
76 179 108
76 179 108
77 178 108
78 177 108
78 177 108
79 176 108
79 175 108
80 175 108
81 174 108
81 174 108
82 173 108
83 172 108
83 172 108
84 171 108
85 170 108
85 170 108
86 169 108
87 168 108
87 168 108
88 167 108
88 167 108
89 166 108
90 165 108
90 165 108
91 164 108
92 163 108
92 163 108
93 162 108
94 161 108
94 161 108
95 160 108
95 159 108
96 159 108
97 158 108
97 158 108
98 157 108
99 156 108
99 156 108
100 155 108
101 154 108
101 154 108
102 153 108
103 152 108
103 152 108
104 151 108
104 151 108
105 150 108
106 149 108
106 149 108
107 148 108
108 147 108
108 147 108
109 146 108
110 145 108
110 145 108
111 144 108
111 143 108
112 143 108
113 142 108
113 142 108
114 141 108
115 140 108
115 140 108
116 139 108
117 138 108
117 138 108
118 137 108
119 136 108
119 136 108
120 135 108
120 135 108
121 134 108
122 133 108
122 133 108
123 132 108
124 131 108
124 131 108
125 130 108
126 129 108
126 129 108
127 128 108
127 127 108
128 127 108
129 126 108
129 126 108
130 125 108
131 124 108
131 124 108
132 123 108
133 122 108
133 122 108
134 121 108
135 120 108
135 120 108
136 119 108
136 119 108
137 118 108
138 117 108
138 117 108
139 116 108
140 115 108
140 115 108
141 114 108
142 113 108
142 113 108
143 112 108
143 111 108
144 111 108
145 110 108
145 110 108
146 109 108
147 108 108
147 108 108
148 107 108
149 106 108
149 106 108
150 105 108
151 104 108
151 104 108
152 103 108
152 103 108
153 102 108
154 101 108
154 101 108
155 100 108
156 99 108
156 99 108
157 98 108
158 97 108
158 97 108
159 96 108
159 95 108
160 95 108
161 94 108
161 94 108
162 93 108
163 92 108
163 92 108
164 91 108
165 90 108
165 90 108
166 89 108
167 88 108
167 88 108
168 87 108
168 87 108
169 86 108
170 85 108
170 85 108
171 84 108
172 83 108
172 83 108
173 82 108
174 81 108
174 81 108
175 80 108
175 79 108
176 79 108
177 78 108
177 78 108
178 77 108
179 76 108
179 76 108
180 75 108
181 74 108
181 74 108
182 73 108
183 72 108
183 72 108
184 71 108
184 71 108
185 70 108
186 69 108
186 69 108
187 68 108
188 67 108
188 67 108
189 66 108
190 65 108
190 65 108
191 64 108
191 63 108
192 63 108
193 62 108
193 62 108
194 61 108
195 60 108
195 60 108
196 59 108
197 58 108
197 58 108
198 57 108
199 56 108
199 56 108
200 55 108
200 55 108
201 54 108
202 53 108
202 53 108
203 52 108
204 51 108
204 51 108
205 50 108
206 49 108
206 49 108
207 48 108
207 47 108
208 47 108
209 46 108
209 46 108
210 45 108
211 44 108
211 44 108
212 43 108
213 42 108
213 42 108
214 41 108
215 40 108
215 40 108
216 39 108
216 39 108
217 38 108
218 37 108
218 37 108
219 36 108
220 35 108
220 35 108
221 34 108
222 33 108
222 33 108
223 32 108
223 31 108
224 31 108
225 30 108
225 30 108
226 29 108
227 28 108
227 28 108
228 27 108
229 26 108
229 26 108
230 25 108
231 24 108
231 24 108
232 23 108
232 23 108
233 22 108
234 21 108
234 21 108
235 20 108
236 19 108
236 19 108
237 18 108
238 17 108
238 17 108
239 16 108
239 15 108
240 15 108
241 14 108
241 14 108
242 13 108
243 12 108
243 12 108
244 11 108
245 10 108
245 10 108
246 9 108
247 8 108
247 8 108
248 7 108
248 7 108
249 6 108
250 5 108
250 5 108
251 4 108
252 3 108
252 3 108
253 2 108
254 1 108
254 1 108
255 0 108
0 255 109
0 255 109
1 254 109
1 254 109
2 253 109
3 252 109
3 252 109
4 251 109
5 250 109
5 250 109
6 249 109
7 248 109
7 248 109
8 247 109
8 247 109
9 246 109
10 245 109
10 245 109
11 244 109
12 243 109
12 243 109
13 242 109
14 241 109
14 241 109
15 240 109
15 239 109
16 239 109
17 238 109
17 238 109
18 237 109
19 236 109
19 236 109
20 235 109
21 234 109
21 234 109
22 233 109
23 232 109
23 232 109
24 231 109
24 231 109
25 230 109
26 229 109
26 229 109
27 228 109
28 227 109
28 227 109
29 226 109
30 225 109
30 225 109
31 224 109
31 223 109
32 223 109
33 222 109
33 222 109
34 221 109
35 220 109
35 220 109
36 219 109
37 218 109
37 218 109
38 217 109
39 216 109
39 216 109
40 215 109
40 215 109
41 214 109
42 213 109
42 213 109
43 212 109
44 211 109
44 211 109
45 210 109
46 209 109
46 209 109
47 208 109
47 207 109
48 207 109
49 206 109
49 206 109
50 205 109
51 204 109
51 204 109
52 203 109
53 202 109
53 202 109
54 201 109
55 200 109
55 200 109
56 199 109
56 199 109
57 198 109
58 197 109
58 197 109
59 196 109
60 195 109
60 195 109
61 194 109
62 193 109
62 193 109
63 192 109
63 191 109
64 191 109
65 190 109
65 190 109
66 189 109
67 188 109
67 188 109
68 187 109
69 186 109
69 186 109
70 185 109
71 184 109
71 184 109
72 183 109
72 183 109
73 182 109
74 181 109
74 181 109
75 180 109
76 179 109
76 179 109
77 178 109
78 177 109
78 177 109
79 176 109
79 175 109
80 175 109
81 174 109
81 174 109
82 173 109
83 172 109
83 172 109
84 171 109
85 170 109
85 170 109
86 169 109
87 168 109
87 168 109
88 167 109
88 167 109
89 166 109
90 165 109
90 165 109
91 164 109
92 163 109
92 163 109
93 162 109
94 161 109
94 161 109
95 160 109
95 159 109
96 159 109
97 158 109
97 158 109
98 157 109
99 156 109
99 156 109
100 155 109
101 154 109
101 154 109
102 153 109
103 152 109
103 152 109
104 151 109
104 151 109
105 150 109
106 149 109
106 149 109
107 148 109
108 147 109
108 147 109
109 146 109
110 145 109
110 145 109
111 144 109
111 143 109
112 143 109
113 142 109
113 142 109
114 141 109
115 140 109
115 140 109
116 139 109
117 138 109
117 138 109
118 137 109
119 136 109
119 136 109
120 135 109
120 135 109
121 134 109
122 133 109
122 133 109
123 132 109
124 131 109
124 131 109
125 130 109
126 129 109
126 129 109
127 128 109
127 127 109
128 127 109
129 126 109
129 126 109
130 125 109
131 124 109
131 124 109
132 123 109
133 122 109
133 122 109
134 121 109
135 120 109
135 120 109
136 119 109
136 119 109
137 118 109
138 117 109
138 117 109
139 116 109
140 115 109
140 115 109
141 114 109
142 113 109
142 113 109
143 112 109
143 111 109
144 111 109
145 110 109
145 110 109
146 109 109
147 108 109
147 108 109
148 107 109
149 106 109
149 106 109
150 105 109
151 104 109
151 104 109
152 103 109
152 103 109
153 102 109
154 101 109
154 101 109
155 100 109
156 99 109
156 99 109
157 98 109
158 97 109
158 97 109
159 96 109
159 95 109
160 95 109
161 94 109
161 94 109
162 93 109
163 92 109
163 92 109
164 91 109
165 90 109
165 90 109
166 89 109
167 88 109
167 88 109
168 87 109
168 87 109
169 86 109
170 85 109
170 85 109
171 84 109
172 83 109
172 83 109
173 82 109
174 81 109
174 81 109
175 80 109
175 79 109
176 79 109
177 78 109
177 78 109
178 77 109
179 76 109
179 76 109
180 75 109
181 74 109
181 74 109
182 73 109
183 72 109
183 72 109
184 71 109
184 71 109
185 70 109
186 69 109
186 69 109
187 68 109
188 67 109
188 67 109
189 66 109
190 65 109
190 65 109
191 64 109
191 63 109
192 63 109
193 62 109
193 62 109
194 61 109
195 60 109
195 60 109
196 59 109
197 58 109
197 58 109
198 57 109
199 56 109
199 56 109
200 55 109
200 55 109
201 54 109
202 53 109
202 53 109
203 52 109
204 51 109
204 51 109
205 50 109
206 49 109
206 49 109
207 48 109
207 47 109
208 47 109
209 46 109
209 46 109
210 45 109
211 44 109
211 44 109
212 43 109
213 42 109
213 42 109
214 41 109
215 40 109
215 40 109
216 39 109
216 39 109
217 38 109
218 37 109
218 37 109
219 36 109
220 35 109
220 35 109
221 34 109
222 33 109
222 33 109
223 32 109
223 31 109
224 31 109
225 30 109
225 30 109
226 29 109
227 28 109
227 28 109
228 27 109
229 26 109
229 26 109
230 25 109
231 24 109
231 24 109
232 23 109
232 23 109
233 22 109
234 21 109
234 21 109
235 20 109
236 19 109
236 19 109
237 18 109
238 17 109
238 17 109
239 16 109
239 15 109
240 15 109
241 14 109
241 14 109
242 13 109
243 12 109
243 12 109
244 11 109
245 10 109
245 10 109
246 9 109
247 8 109
247 8 109
248 7 109
248 7 109
249 6 109
250 5 109
250 5 109
251 4 109
252 3 109
252 3 109
253 2 109
254 1 109
254 1 109
255 0 109
0 255 110
0 255 110
1 254 110
1 254 110
2 253 110
3 252 110
3 252 110
4 251 110
5 250 110
5 250 110
6 249 110
7 248 110
7 248 110
8 247 110
8 247 110
9 246 110
10 245 110
10 245 110
11 244 110
12 243 110
12 243 110
13 242 110
14 241 110
14 241 110
15 240 110
15 239 110
16 239 110
17 238 110
17 238 110
18 237 110
19 236 110
19 236 110
20 235 110
21 234 110
21 234 110
22 233 110
23 232 110
23 232 110
24 231 110
24 231 110
25 230 110
26 229 110
26 229 110
27 228 110
28 227 110
28 227 110
29 226 110
30 225 110
30 225 110
31 224 110
31 223 110
32 223 110
33 222 110
33 222 110
34 221 110
35 220 110
35 220 110
36 219 110
37 218 110
37 218 110
38 217 110
39 216 110
39 216 110
40 215 110
40 215 110
41 214 110
42 213 110
42 213 110
43 212 110
44 211 110
44 211 110
45 210 110
46 209 110
46 209 110
47 208 110
47 207 110
48 207 110
49 206 110
49 206 110
50 205 110
51 204 110
51 204 110
52 203 110
53 202 110
53 202 110
54 201 110
55 200 110
55 200 110
56 199 110
56 199 110
57 198 110
58 197 110
58 197 110
59 196 110
60 195 110
60 195 110
61 194 110
62 193 110
62 193 110
63 192 110
63 191 110
64 191 110
65 190 110
65 190 110
66 189 110
67 188 110
67 188 110
68 187 110
69 186 110
69 186 110
70 185 110
71 184 110
71 184 110
72 183 110
72 183 110
73 182 110
74 181 110
74 181 110
75 180 110
76 179 110
76 179 110
77 178 110
78 177 110
78 177 110
79 176 110
79 175 110
80 175 110
81 174 110
81 174 110
82 173 110
83 172 110
83 172 110
84 171 110
85 170 110
85 170 110
86 169 110
87 168 110
87 168 110
88 167 110
88 167 110
89 166 110
90 165 110
90 165 110
91 164 110
92 163 110
92 163 110
93 162 110
94 161 110
94 161 110
95 160 110
95 159 110
96 159 110
97 158 110
97 158 110
98 157 110
99 156 110
99 156 110
100 155 110
101 154 110
101 154 110
102 153 110
103 152 110
103 152 110
104 151 110
104 151 110
105 150 110
106 149 110
106 149 110
107 148 110
108 147 110
108 147 110
109 146 110
110 145 110
110 145 110
111 144 110
111 143 110
112 143 110
113 142 110
113 142 110
114 141 110
115 140 110
115 140 110
116 139 110
117 138 110
117 138 110
118 137 110
119 136 110
119 136 110
120 135 110
120 135 110
121 134 110
122 133 110
122 133 110
123 132 110
124 131 110
124 131 110
125 130 110
126 129 110
126 129 110
127 128 110
127 127 110
128 127 110
129 126 110
129 126 110
130 125 110
131 124 110
131 124 110
132 123 110
133 122 110
133 122 110
134 121 110
135 120 110
135 120 110
136 119 110
136 119 110
137 118 110
138 117 110
138 117 110
139 116 110
140 115 110
140 115 110
141 114 110
142 113 110
142 113 110
143 112 110
143 111 110
144 111 110
145 110 110
145 110 110
146 109 110
147 108 110
147 108 110
148 107 110
149 106 110
149 106 110
150 105 110
151 104 110
151 104 110
152 103 110
152 103 110
153 102 110
154 101 110
154 101 110
155 100 110
156 99 110
156 99 110
157 98 110
158 97 110
158 97 110
159 96 110
159 95 110
160 95 110
161 94 110
161 94 110
162 93 110
163 92 110
163 92 110
164 91 110
165 90 110
165 90 110
166 89 110
167 88 110
167 88 110
168 87 110
168 87 110
169 86 110
170 85 110
170 85 110
171 84 110
172 83 110
172 83 110
173 82 110
174 81 110
174 81 110
175 80 110
175 79 110
176 79 110
177 78 110
177 78 110
178 77 110
179 76 110
179 76 110
180 75 110
181 74 110
181 74 110
182 73 110
183 72 110
183 72 110
184 71 110
184 71 110
185 70 110
186 69 110
186 69 110
187 68 110
188 67 110
188 67 110
189 66 110
190 65 110
190 65 110
191 64 110
191 63 110
192 63 110
193 62 110
193 62 110
194 61 110
195 60 110
195 60 110
196 59 110
197 58 110
197 58 110
198 57 110
199 56 110
199 56 110
200 55 110
200 55 110
201 54 110
202 53 110
202 53 110
203 52 110
204 51 110
204 51 110
205 50 110
206 49 110
206 49 110
207 48 110
207 47 110
208 47 110
209 46 110
209 46 110
210 45 110
211 44 110
211 44 110
212 43 110
213 42 110
213 42 110
214 41 110
215 40 110
215 40 110
216 39 110
216 39 110
217 38 110
218 37 110
218 37 110
219 36 110
220 35 110
220 35 110
221 34 110
222 33 110
222 33 110
223 32 110
223 31 110
224 31 110
225 30 110
225 30 110
226 29 110
227 28 110
227 28 110
228 27 110
229 26 110
229 26 110
230 25 110
231 24 110
231 24 110
232 23 110
232 23 110
233 22 110
234 21 110
234 21 110
235 20 110
236 19 110
236 19 110
237 18 110
238 17 110
238 17 110
239 16 110
239 15 110
240 15 110
241 14 110
241 14 110
242 13 110
243 12 110
243 12 110
244 11 110
245 10 110
245 10 110
246 9 110
247 8 110
247 8 110
248 7 110
248 7 110
249 6 110
250 5 110
250 5 110
251 4 110
252 3 110
252 3 110
253 2 110
254 1 110
254 1 110
255 0 110
0 255 111
0 255 111
1 254 111
1 254 111
2 253 111
3 252 111
3 252 111
4 251 111
5 250 111
5 250 111
6 249 111
7 248 111
7 248 111
8 247 111
8 247 111
9 246 111
10 245 111
10 245 111
11 244 111
12 243 111
12 243 111
13 242 111
14 241 111
14 241 111
15 240 111
15 239 111
16 239 111
17 238 111
17 238 111
18 237 111
19 236 111
19 236 111
20 235 111
21 234 111
21 234 111
22 233 111
23 232 111
23 232 111
24 231 111
24 231 111
25 230 111
26 229 111
26 229 111
27 228 111
28 227 111
28 227 111
29 226 111
30 225 111
30 225 111
31 224 111
31 223 111
32 223 111
33 222 111
33 222 111
34 221 111
35 220 111
35 220 111
36 219 111
37 218 111
37 218 111
38 217 111
39 216 111
39 216 111
40 215 111
40 215 111
41 214 111
42 213 111
42 213 111
43 212 111
44 211 111
44 211 111
45 210 111
46 209 111
46 209 111
47 208 111
47 207 111
48 207 111
49 206 111
49 206 111
50 205 111
51 204 111
51 204 111
52 203 111
53 202 111
53 202 111
54 201 111
55 200 111
55 200 111
56 199 111
56 199 111
57 198 111
58 197 111
58 197 111
59 196 111
60 195 111
60 195 111
61 194 111
62 193 111
62 193 111
63 192 111
63 191 111
64 191 111
65 190 111
65 190 111
66 189 111
67 188 111
67 188 111
68 187 111
69 186 111
69 186 111
70 185 111
71 184 111
71 184 111
72 183 111
72 183 111
73 182 111
74 181 111
74 181 111
75 180 111
76 179 111
76 179 111
77 178 111
78 177 111
78 177 111
79 176 111
79 175 111
80 175 111
81 174 111
81 174 111
82 173 111
83 172 111
83 172 111
84 171 111
85 170 111
85 170 111
86 169 111
87 168 111
87 168 111
88 167 111
88 167 111
89 166 111
90 165 111
90 165 111
91 164 111
92 163 111
92 163 111
93 162 111
94 161 111
94 161 111
95 160 111
95 159 111
96 159 111
97 158 111
97 158 111
98 157 111
99 156 111
99 156 111
100 155 111
101 154 111
101 154 111
102 153 111
103 152 111
103 152 111
104 151 111
104 151 111
105 150 111
106 149 111
106 149 111
107 148 111
108 147 111
108 147 111
109 146 111
110 145 111
110 145 111
111 144 111
111 143 111
112 143 111
113 142 111
113 142 111
114 141 111
115 140 111
115 140 111
116 139 111
117 138 111
117 138 111
118 137 111
119 136 111
119 136 111
120 135 111
120 135 111
121 134 111
122 133 111
122 133 111
123 132 111
124 131 111
124 131 111
125 130 111
126 129 111
126 129 111
127 128 111
127 127 111
128 127 111
129 126 111
129 126 111
130 125 111
131 124 111
131 124 111
132 123 111
133 122 111
133 122 111
134 121 111
135 120 111
135 120 111
136 119 111
136 119 111
137 118 111
138 117 111
138 117 111
139 116 111
140 115 111
140 115 111
141 114 111
142 113 111
142 113 111
143 112 111
143 111 111
144 111 111
145 110 111
145 110 111
146 109 111
147 108 111
147 108 111
148 107 111
149 106 111
149 106 111
150 105 111
151 104 111
151 104 111
152 103 111
152 103 111
153 102 111
154 101 111
154 101 111
155 100 111
156 99 111
156 99 111
157 98 111
158 97 111
158 97 111
159 96 111
159 95 111
160 95 111
161 94 111
161 94 111
162 93 111
163 92 111
163 92 111
164 91 111
165 90 111
165 90 111
166 89 111
167 88 111
167 88 111
168 87 111
168 87 111
169 86 111
170 85 111
170 85 111
171 84 111
172 83 111
172 83 111
173 82 111
174 81 111
174 81 111
175 80 111
175 79 111
176 79 111
177 78 111
177 78 111
178 77 111
179 76 111
179 76 111
180 75 111
181 74 111
181 74 111
182 73 111
183 72 111
183 72 111
184 71 111
184 71 111
185 70 111
186 69 111
186 69 111
187 68 111
188 67 111
188 67 111
189 66 111
190 65 111
190 65 111
191 64 111
191 63 111
192 63 111
193 62 111
193 62 111
194 61 111
195 60 111
195 60 111
196 59 111
197 58 111
197 58 111
198 57 111
199 56 111
199 56 111
200 55 111
200 55 111
201 54 111
202 53 111
202 53 111
203 52 111
204 51 111
204 51 111
205 50 111
206 49 111
206 49 111
207 48 111
207 47 111
208 47 111
209 46 111
209 46 111
210 45 111
211 44 111
211 44 111
212 43 111
213 42 111
213 42 111
214 41 111
215 40 111
215 40 111
216 39 111
216 39 111
217 38 111
218 37 111
218 37 111
219 36 111
220 35 111
220 35 111
221 34 111
222 33 111
222 33 111
223 32 111
223 31 111
224 31 111
225 30 111
225 30 111
226 29 111
227 28 111
227 28 111
228 27 111
229 26 111
229 26 111
230 25 111
231 24 111
231 24 111
232 23 111
232 23 111
233 22 111
234 21 111
234 21 111
235 20 111
236 19 111
236 19 111
237 18 111
238 17 111
238 17 111
239 16 111
239 15 111
240 15 111
241 14 111
241 14 111
242 13 111
243 12 111
243 12 111
244 11 111
245 10 111
245 10 111
246 9 111
247 8 111
247 8 111
248 7 111
248 7 111
249 6 111
250 5 111
250 5 111
251 4 111
252 3 111
252 3 111
253 2 111
254 1 111
254 1 111
255 0 111
0 255 112
0 255 112
1 254 112
1 254 112
2 253 112
3 252 112
3 252 112
4 251 112
5 250 112
5 250 112
6 249 112
7 248 112
7 248 112
8 247 112
8 247 112
9 246 112
10 245 112
10 245 112
11 244 112
12 243 112
12 243 112
13 242 112
14 241 112
14 241 112
15 240 112
15 239 112
16 239 112
17 238 112
17 238 112
18 237 112
19 236 112
19 236 112
20 235 112
21 234 112
21 234 112
22 233 112
23 232 112
23 232 112
24 231 112
24 231 112
25 230 112
26 229 112
26 229 112
27 228 112
28 227 112
28 227 112
29 226 112
30 225 112
30 225 112
31 224 112
31 223 112
32 223 112
33 222 112
33 222 112
34 221 112
35 220 112
35 220 112
36 219 112
37 218 112
37 218 112
38 217 112
39 216 112
39 216 112
40 215 112
40 215 112
41 214 112
42 213 112
42 213 112
43 212 112
44 211 112
44 211 112
45 210 112
46 209 112
46 209 112
47 208 112
47 207 112
48 207 112
49 206 112
49 206 112
50 205 112
51 204 112
51 204 112
52 203 112
53 202 112
53 202 112
54 201 112
55 200 112
55 200 112
56 199 112
56 199 112
57 198 112
58 197 112
58 197 112
59 196 112
60 195 112
60 195 112
61 194 112
62 193 112
62 193 112
63 192 112
63 191 112
64 191 112
65 190 112
65 190 112
66 189 112
67 188 112
67 188 112
68 187 112
69 186 112
69 186 112
70 185 112
71 184 112
71 184 112
72 183 112
72 183 112
73 182 112
74 181 112
74 181 112
75 180 112
76 179 112
76 179 112
77 178 112
78 177 112
78 177 112
79 176 112
79 175 112
80 175 112
81 174 112
81 174 112
82 173 112
83 172 112
83 172 112
84 171 112
85 170 112
85 170 112
86 169 112
87 168 112
87 168 112
88 167 112
88 167 112
89 166 112
90 165 112
90 165 112
91 164 112
92 163 112
92 163 112
93 162 112
94 161 112
94 161 112
95 160 112
95 159 112
96 159 112
97 158 112
97 158 112
98 157 112
99 156 112
99 156 112
100 155 112
101 154 112
101 154 112
102 153 112
103 152 112
103 152 112
104 151 112
104 151 112
105 150 112
106 149 112
106 149 112
107 148 112
108 147 112
108 147 112
109 146 112
110 145 112
110 145 112
111 144 112
111 143 112
112 143 112
113 142 112
113 142 112
114 141 112
115 140 112
115 140 112
116 139 112
117 138 112
117 138 112
118 137 112
119 136 112
119 136 112
120 135 112
120 135 112
121 134 112
122 133 112
122 133 112
123 132 112
124 131 112
124 131 112
125 130 112
126 129 112
126 129 112
127 128 112
127 127 112
128 127 112
129 126 112
129 126 112
130 125 112
131 124 112
131 124 112
132 123 112
133 122 112
133 122 112
134 121 112
135 120 112
135 120 112
136 119 112
136 119 112
137 118 112
138 117 112
138 117 112
139 116 112
140 115 112
140 115 112
141 114 112
142 113 112
142 113 112
143 112 112
143 111 112
144 111 112
145 110 112
145 110 112
146 109 112
147 108 112
147 108 112
148 107 112
149 106 112
149 106 112
150 105 112
151 104 112
151 104 112
152 103 112
152 103 112
153 102 112
154 101 112
154 101 112
155 100 112
156 99 112
156 99 112
157 98 112
158 97 112
158 97 112
159 96 112
159 95 112
160 95 112
161 94 112
161 94 112
162 93 112
163 92 112
163 92 112
164 91 112
165 90 112
165 90 112
166 89 112
167 88 112
167 88 112
168 87 112
168 87 112
169 86 112
170 85 112
170 85 112
171 84 112
172 83 112
172 83 112
173 82 112
174 81 112
174 81 112
175 80 112
175 79 112
176 79 112
177 78 112
177 78 112
178 77 112
179 76 112
179 76 112
180 75 112
181 74 112
181 74 112
182 73 112
183 72 112
183 72 112
184 71 112
184 71 112
185 70 112
186 69 112
186 69 112
187 68 112
188 67 112
188 67 112
189 66 112
190 65 112
190 65 112
191 64 112
191 63 112
192 63 112
193 62 112
193 62 112
194 61 112
195 60 112
195 60 112
196 59 112
197 58 112
197 58 112
198 57 112
199 56 112
199 56 112
200 55 112
200 55 112
201 54 112
202 53 112
202 53 112
203 52 112
204 51 112
204 51 112
205 50 112
206 49 112
206 49 112
207 48 112
207 47 112
208 47 112
209 46 112
209 46 112
210 45 112
211 44 112
211 44 112
212 43 112
213 42 112
213 42 112
214 41 112
215 40 112
215 40 112
216 39 112
216 39 112
217 38 112
218 37 112
218 37 112
219 36 112
220 35 112
220 35 112
221 34 112
222 33 112
222 33 112
223 32 112
223 31 112
224 31 112
225 30 112
225 30 112
226 29 112
227 28 112
227 28 112
228 27 112
229 26 112
229 26 112
230 25 112
231 24 112
231 24 112
232 23 112
232 23 112
233 22 112
234 21 112
234 21 112
235 20 112
236 19 112
236 19 112
237 18 112
238 17 112
238 17 112
239 16 112
239 15 112
240 15 112
241 14 112
241 14 112
242 13 112
243 12 112
243 12 112
244 11 112
245 10 112
245 10 112
246 9 112
247 8 112
247 8 112
248 7 112
248 7 112
249 6 112
250 5 112
250 5 112
251 4 112
252 3 112
252 3 112
253 2 112
254 1 112
254 1 112
255 0 112
0 255 113
0 255 113
1 254 113
1 254 113
2 253 113
3 252 113
3 252 113
4 251 113
5 250 113
5 250 113
6 249 113
7 248 113
7 248 113
8 247 113
8 247 113
9 246 113
10 245 113
10 245 113
11 244 113
12 243 113
12 243 113
13 242 113
14 241 113
14 241 113
15 240 113
15 239 113
16 239 113
17 238 113
17 238 113
18 237 113
19 236 113
19 236 113
20 235 113
21 234 113
21 234 113
22 233 113
23 232 113
23 232 113
24 231 113
24 231 113
25 230 113
26 229 113
26 229 113
27 228 113
28 227 113
28 227 113
29 226 113
30 225 113
30 225 113
31 224 113
31 223 113
32 223 113
33 222 113
33 222 113
34 221 113
35 220 113
35 220 113
36 219 113
37 218 113
37 218 113
38 217 113
39 216 113
39 216 113
40 215 113
40 215 113
41 214 113
42 213 113
42 213 113
43 212 113
44 211 113
44 211 113
45 210 113
46 209 113
46 209 113
47 208 113
47 207 113
48 207 113
49 206 113
49 206 113
50 205 113
51 204 113
51 204 113
52 203 113
53 202 113
53 202 113
54 201 113
55 200 113
55 200 113
56 199 113
56 199 113
57 198 113
58 197 113
58 197 113
59 196 113
60 195 113
60 195 113
61 194 113
62 193 113
62 193 113
63 192 113
63 191 113
64 191 113
65 190 113
65 190 113
66 189 113
67 188 113
67 188 113
68 187 113
69 186 113
69 186 113
70 185 113
71 184 113
71 184 113
72 183 113
72 183 113
73 182 113
74 181 113
74 181 113
75 180 113
76 179 113
76 179 113
77 178 113
78 177 113
78 177 113
79 176 113
79 175 113
80 175 113
81 174 113
81 174 113
82 173 113
83 172 113
83 172 113
84 171 113
85 170 113
85 170 113
86 169 113
87 168 113
87 168 113
88 167 113
88 167 113
89 166 113
90 165 113
90 165 113
91 164 113
92 163 113
92 163 113
93 162 113
94 161 113
94 161 113
95 160 113
95 159 113
96 159 113
97 158 113
97 158 113
98 157 113
99 156 113
99 156 113
100 155 113
101 154 113
101 154 113
102 153 113
103 152 113
103 152 113
104 151 113
104 151 113
105 150 113
106 149 113
106 149 113
107 148 113
108 147 113
108 147 113
109 146 113
110 145 113
110 145 113
111 144 113
111 143 113
112 143 113
113 142 113
113 142 113
114 141 113
115 140 113
115 140 113
116 139 113
117 138 113
117 138 113
118 137 113
119 136 113
119 136 113
120 135 113
120 135 113
121 134 113
122 133 113
122 133 113
123 132 113
124 131 113
124 131 113
125 130 113
126 129 113
126 129 113
127 128 113
127 127 113
128 127 113
129 126 113
129 126 113
130 125 113
131 124 113
131 124 113
132 123 113
133 122 113
133 122 113
134 121 113
135 120 113
135 120 113
136 119 113
136 119 113
137 118 113
138 117 113
138 117 113
139 116 113
140 115 113
140 115 113
141 114 113
142 113 113
142 113 113
143 112 113
143 111 113
144 111 113
145 110 113
145 110 113
146 109 113
147 108 113
147 108 113
148 107 113
149 106 113
149 106 113
150 105 113
151 104 113
151 104 113
152 103 113
152 103 113
153 102 113
154 101 113
154 101 113
155 100 113
156 99 113
156 99 113
157 98 113
158 97 113
158 97 113
159 96 113
159 95 113
160 95 113
161 94 113
161 94 113
162 93 113
163 92 113
163 92 113
164 91 113
165 90 113
165 90 113
166 89 113
167 88 113
167 88 113
168 87 113
168 87 113
169 86 113
170 85 113
170 85 113
171 84 113
172 83 113
172 83 113
173 82 113
174 81 113
174 81 113
175 80 113
175 79 113
176 79 113
177 78 113
177 78 113
178 77 113
179 76 113
179 76 113
180 75 113
181 74 113
181 74 113
182 73 113
183 72 113
183 72 113
184 71 113
184 71 113
185 70 113
186 69 113
186 69 113
187 68 113
188 67 113
188 67 113
189 66 113
190 65 113
190 65 113
191 64 113
191 63 113
192 63 113
193 62 113
193 62 113
194 61 113
195 60 113
195 60 113
196 59 113
197 58 113
197 58 113
198 57 113
199 56 113
199 56 113
200 55 113
200 55 113
201 54 113
202 53 113
202 53 113
203 52 113
204 51 113
204 51 113
205 50 113
206 49 113
206 49 113
207 48 113
207 47 113
208 47 113
209 46 113
209 46 113
210 45 113
211 44 113
211 44 113
212 43 113
213 42 113
213 42 113
214 41 113
215 40 113
215 40 113
216 39 113
216 39 113
217 38 113
218 37 113
218 37 113
219 36 113
220 35 113
220 35 113
221 34 113
222 33 113
222 33 113
223 32 113
223 31 113
224 31 113
225 30 113
225 30 113
226 29 113
227 28 113
227 28 113
228 27 113
229 26 113
229 26 113
230 25 113
231 24 113
231 24 113
232 23 113
232 23 113
233 22 113
234 21 113
234 21 113
235 20 113
236 19 113
236 19 113
237 18 113
238 17 113
238 17 113
239 16 113
239 15 113
240 15 113
241 14 113
241 14 113
242 13 113
243 12 113
243 12 113
244 11 113
245 10 113
245 10 113
246 9 113
247 8 113
247 8 113
248 7 113
248 7 113
249 6 113
250 5 113
250 5 113
251 4 113
252 3 113
252 3 113
253 2 113
254 1 113
254 1 113
255 0 113
0 255 114
0 255 114
1 254 114
1 254 114
2 253 114
3 252 114
3 252 114
4 251 114
5 250 114
5 250 114
6 249 114
7 248 114
7 248 114
8 247 114
8 247 114
9 246 114
10 245 114
10 245 114
11 244 114
12 243 114
12 243 114
13 242 114
14 241 114
14 241 114
15 240 114
15 239 114
16 239 114
17 238 114
17 238 114
18 237 114
19 236 114
19 236 114
20 235 114
21 234 114
21 234 114
22 233 114
23 232 114
23 232 114
24 231 114
24 231 114
25 230 114
26 229 114
26 229 114
27 228 114
28 227 114
28 227 114
29 226 114
30 225 114
30 225 114
31 224 114
31 223 114
32 223 114
33 222 114
33 222 114
34 221 114
35 220 114
35 220 114
36 219 114
37 218 114
37 218 114
38 217 114
39 216 114
39 216 114
40 215 114
40 215 114
41 214 114
42 213 114
42 213 114
43 212 114
44 211 114
44 211 114
45 210 114
46 209 114
46 209 114
47 208 114
47 207 114
48 207 114
49 206 114
49 206 114
50 205 114
51 204 114
51 204 114
52 203 114
53 202 114
53 202 114
54 201 114
55 200 114
55 200 114
56 199 114
56 199 114
57 198 114
58 197 114
58 197 114
59 196 114
60 195 114
60 195 114
61 194 114
62 193 114
62 193 114
63 192 114
63 191 114
64 191 114
65 190 114
65 190 114
66 189 114
67 188 114
67 188 114
68 187 114
69 186 114
69 186 114
70 185 114
71 184 114
71 184 114
72 183 114
72 183 114
73 182 114
74 181 114
74 181 114
75 180 114
76 179 114
76 179 114
77 178 114
78 177 114
78 177 114
79 176 114
79 175 114
80 175 114
81 174 114
81 174 114
82 173 114
83 172 114
83 172 114
84 171 114
85 170 114
85 170 114
86 169 114
87 168 114
87 168 114
88 167 114
88 167 114
89 166 114
90 165 114
90 165 114
91 164 114
92 163 114
92 163 114
93 162 114
94 161 114
94 161 114
95 160 114
95 159 114
96 159 114
97 158 114
97 158 114
98 157 114
99 156 114
99 156 114
100 155 114
101 154 114
101 154 114
102 153 114
103 152 114
103 152 114
104 151 114
104 151 114
105 150 114
106 149 114
106 149 114
107 148 114
108 147 114
108 147 114
109 146 114
110 145 114
110 145 114
111 144 114
111 143 114
112 143 114
113 142 114
113 142 114
114 141 114
115 140 114
115 140 114
116 139 114
117 138 114
117 138 114
118 137 114
119 136 114
119 136 114
120 135 114
120 135 114
121 134 114
122 133 114
122 133 114
123 132 114
124 131 114
124 131 114
125 130 114
126 129 114
126 129 114
127 128 114
127 127 114
128 127 114
129 126 114
129 126 114
130 125 114
131 124 114
131 124 114
132 123 114
133 122 114
133 122 114
134 121 114
135 120 114
135 120 114
136 119 114
136 119 114
137 118 114
138 117 114
138 117 114
139 116 114
140 115 114
140 115 114
141 114 114
142 113 114
142 113 114
143 112 114
143 111 114
144 111 114
145 110 114
145 110 114
146 109 114
147 108 114
147 108 114
148 107 114
149 106 114
149 106 114
150 105 114
151 104 114
151 104 114
152 103 114
152 103 114
153 102 114
154 101 114
154 101 114
155 100 114
156 99 114
156 99 114
157 98 114
158 97 114
158 97 114
159 96 114
159 95 114
160 95 114
161 94 114
161 94 114
162 93 114
163 92 114
163 92 114
164 91 114
165 90 114
165 90 114
166 89 114
167 88 114
167 88 114
168 87 114
168 87 114
169 86 114
170 85 114
170 85 114
171 84 114
172 83 114
172 83 114
173 82 114
174 81 114
174 81 114
175 80 114
175 79 114
176 79 114
177 78 114
177 78 114
178 77 114
179 76 114
179 76 114
180 75 114
181 74 114
181 74 114
182 73 114
183 72 114
183 72 114
184 71 114
184 71 114
185 70 114
186 69 114
186 69 114
187 68 114
188 67 114
188 67 114
189 66 114
190 65 114
190 65 114
191 64 114
191 63 114
192 63 114
193 62 114
193 62 114
194 61 114
195 60 114
195 60 114
196 59 114
197 58 114
197 58 114
198 57 114
199 56 114
199 56 114
200 55 114
200 55 114
201 54 114
202 53 114
202 53 114
203 52 114
204 51 114
204 51 114
205 50 114
206 49 114
206 49 114
207 48 114
207 47 114
208 47 114
209 46 114
209 46 114
210 45 114
211 44 114
211 44 114
212 43 114
213 42 114
213 42 114
214 41 114
215 40 114
215 40 114
216 39 114
216 39 114
217 38 114
218 37 114
218 37 114
219 36 114
220 35 114
220 35 114
221 34 114
222 33 114
222 33 114
223 32 114
223 31 114
224 31 114
225 30 114
225 30 114
226 29 114
227 28 114
227 28 114
228 27 114
229 26 114
229 26 114
230 25 114
231 24 114
231 24 114
232 23 114
232 23 114
233 22 114
234 21 114
234 21 114
235 20 114
236 19 114
236 19 114
237 18 114
238 17 114
238 17 114
239 16 114
239 15 114
240 15 114
241 14 114
241 14 114
242 13 114
243 12 114
243 12 114
244 11 114
245 10 114
245 10 114
246 9 114
247 8 114
247 8 114
248 7 114
248 7 114
249 6 114
250 5 114
250 5 114
251 4 114
252 3 114
252 3 114
253 2 114
254 1 114
254 1 114
255 0 114
0 255 116
0 255 116
1 254 116
1 254 116
2 253 116
3 252 116
3 252 116
4 251 116
5 250 116
5 250 116
6 249 116
7 248 116
7 248 116
8 247 116
8 247 116
9 246 116
10 245 116
10 245 116
11 244 116
12 243 116
12 243 116
13 242 116
14 241 116
14 241 116
15 240 116
15 239 116
16 239 116
17 238 116
17 238 116
18 237 116
19 236 116
19 236 116
20 235 116
21 234 116
21 234 116
22 233 116
23 232 116
23 232 116
24 231 116
24 231 116
25 230 116
26 229 116
26 229 116
27 228 116
28 227 116
28 227 116
29 226 116
30 225 116
30 225 116
31 224 116
31 223 116
32 223 116
33 222 116
33 222 116
34 221 116
35 220 116
35 220 116
36 219 116
37 218 116
37 218 116
38 217 116
39 216 116
39 216 116
40 215 116
40 215 116
41 214 116
42 213 116
42 213 116
43 212 116
44 211 116
44 211 116
45 210 116
46 209 116
46 209 116
47 208 116
47 207 116
48 207 116
49 206 116
49 206 116
50 205 116
51 204 116
51 204 116
52 203 116
53 202 116
53 202 116
54 201 116
55 200 116
55 200 116
56 199 116
56 199 116
57 198 116
58 197 116
58 197 116
59 196 116
60 195 116
60 195 116
61 194 116
62 193 116
62 193 116
63 192 116
63 191 116
64 191 116
65 190 116
65 190 116
66 189 116
67 188 116
67 188 116
68 187 116
69 186 116
69 186 116
70 185 116
71 184 116
71 184 116
72 183 116
72 183 116
73 182 116
74 181 116
74 181 116
75 180 116
76 179 116
76 179 116
77 178 116
78 177 116
78 177 116
79 176 116
79 175 116
80 175 116
81 174 116
81 174 116
82 173 116
83 172 116
83 172 116
84 171 116
85 170 116
85 170 116
86 169 116
87 168 116
87 168 116
88 167 116
88 167 116
89 166 116
90 165 116
90 165 116
91 164 116
92 163 116
92 163 116
93 162 116
94 161 116
94 161 116
95 160 116
95 159 116
96 159 116
97 158 116
97 158 116
98 157 116
99 156 116
99 156 116
100 155 116
101 154 116
101 154 116
102 153 116
103 152 116
103 152 116
104 151 116
104 151 116
105 150 116
106 149 116
106 149 116
107 148 116
108 147 116
108 147 116
109 146 116
110 145 116
110 145 116
111 144 116
111 143 116
112 143 116
113 142 116
113 142 116
114 141 116
115 140 116
115 140 116
116 139 116
117 138 116
117 138 116
118 137 116
119 136 116
119 136 116
120 135 116
120 135 116
121 134 116
122 133 116
122 133 116
123 132 116
124 131 116
124 131 116
125 130 116
126 129 116
126 129 116
127 128 116
127 127 116
128 127 116
129 126 116
129 126 116
130 125 116
131 124 116
131 124 116
132 123 116
133 122 116
133 122 116
134 121 116
135 120 116
135 120 116
136 119 116
136 119 116
137 118 116
138 117 116
138 117 116
139 116 116
140 115 116
140 115 116
141 114 116
142 113 116
142 113 116
143 112 116
143 111 116
144 111 116
145 110 116
145 110 116
146 109 116
147 108 116
147 108 116
148 107 116
149 106 116
149 106 116
150 105 116
151 104 116
151 104 116
152 103 116
152 103 116
153 102 116
154 101 116
154 101 116
155 100 116
156 99 116
156 99 116
157 98 116
158 97 116
158 97 116
159 96 116
159 95 116
160 95 116
161 94 116
161 94 116
162 93 116
163 92 116
163 92 116
164 91 116
165 90 116
165 90 116
166 89 116
167 88 116
167 88 116
168 87 116
168 87 116
169 86 116
170 85 116
170 85 116
171 84 116
172 83 116
172 83 116
173 82 116
174 81 116
174 81 116
175 80 116
175 79 116
176 79 116
177 78 116
177 78 116
178 77 116
179 76 116
179 76 116
180 75 116
181 74 116
181 74 116
182 73 116
183 72 116
183 72 116
184 71 116
184 71 116
185 70 116
186 69 116
186 69 116
187 68 116
188 67 116
188 67 116
189 66 116
190 65 116
190 65 116
191 64 116
191 63 116
192 63 116
193 62 116
193 62 116
194 61 116
195 60 116
195 60 116
196 59 116
197 58 116
197 58 116
198 57 116
199 56 116
199 56 116
200 55 116
200 55 116
201 54 116
202 53 116
202 53 116
203 52 116
204 51 116
204 51 116
205 50 116
206 49 116
206 49 116
207 48 116
207 47 116
208 47 116
209 46 116
209 46 116
210 45 116
211 44 116
211 44 116
212 43 116
213 42 116
213 42 116
214 41 116
215 40 116
215 40 116
216 39 116
216 39 116
217 38 116
218 37 116
218 37 116
219 36 116
220 35 116
220 35 116
221 34 116
222 33 116
222 33 116
223 32 116
223 31 116
224 31 116
225 30 116
225 30 116
226 29 116
227 28 116
227 28 116
228 27 116
229 26 116
229 26 116
230 25 116
231 24 116
231 24 116
232 23 116
232 23 116
233 22 116
234 21 116
234 21 116
235 20 116
236 19 116
236 19 116
237 18 116
238 17 116
238 17 116
239 16 116
239 15 116
240 15 116
241 14 116
241 14 116
242 13 116
243 12 116
243 12 116
244 11 116
245 10 116
245 10 116
246 9 116
247 8 116
247 8 116
248 7 116
248 7 116
249 6 116
250 5 116
250 5 116
251 4 116
252 3 116
252 3 116
253 2 116
254 1 116
254 1 116
255 0 116
0 255 117
0 255 117
1 254 117
1 254 117
2 253 117
3 252 117
3 252 117
4 251 117
5 250 117
5 250 117
6 249 117
7 248 117
7 248 117
8 247 117
8 247 117
9 246 117
10 245 117
10 245 117
11 244 117
12 243 117
12 243 117
13 242 117
14 241 117
14 241 117
15 240 117
15 239 117
16 239 117
17 238 117
17 238 117
18 237 117
19 236 117
19 236 117
20 235 117
21 234 117
21 234 117
22 233 117
23 232 117
23 232 117
24 231 117
24 231 117
25 230 117
26 229 117
26 229 117
27 228 117
28 227 117
28 227 117
29 226 117
30 225 117
30 225 117
31 224 117
31 223 117
32 223 117
33 222 117
33 222 117
34 221 117
35 220 117
35 220 117
36 219 117
37 218 117
37 218 117
38 217 117
39 216 117
39 216 117
40 215 117
40 215 117
41 214 117
42 213 117
42 213 117
43 212 117
44 211 117
44 211 117
45 210 117
46 209 117
46 209 117
47 208 117
47 207 117
48 207 117
49 206 117
49 206 117
50 205 117
51 204 117
51 204 117
52 203 117
53 202 117
53 202 117
54 201 117
55 200 117
55 200 117
56 199 117
56 199 117
57 198 117
58 197 117
58 197 117
59 196 117
60 195 117
60 195 117
61 194 117
62 193 117
62 193 117
63 192 117
63 191 117
64 191 117
65 190 117
65 190 117
66 189 117
67 188 117
67 188 117
68 187 117
69 186 117
69 186 117
70 185 117
71 184 117
71 184 117
72 183 117
72 183 117
73 182 117
74 181 117
74 181 117
75 180 117
76 179 117
76 179 117
77 178 117
78 177 117
78 177 117
79 176 117
79 175 117
80 175 117
81 174 117
81 174 117
82 173 117
83 172 117
83 172 117
84 171 117
85 170 117
85 170 117
86 169 117
87 168 117
87 168 117
88 167 117
88 167 117
89 166 117
90 165 117
90 165 117
91 164 117
92 163 117
92 163 117
93 162 117
94 161 117
94 161 117
95 160 117
95 159 117
96 159 117
97 158 117
97 158 117
98 157 117
99 156 117
99 156 117
100 155 117
101 154 117
101 154 117
102 153 117
103 152 117
103 152 117
104 151 117
104 151 117
105 150 117
106 149 117
106 149 117
107 148 117
108 147 117
108 147 117
109 146 117
110 145 117
110 145 117
111 144 117
111 143 117
112 143 117
113 142 117
113 142 117
114 141 117
115 140 117
115 140 117
116 139 117
117 138 117
117 138 117
118 137 117
119 136 117
119 136 117
120 135 117
120 135 117
121 134 117
122 133 117
122 133 117
123 132 117
124 131 117
124 131 117
125 130 117
126 129 117
126 129 117
127 128 117
127 127 117
128 127 117
129 126 117
129 126 117
130 125 117
131 124 117
131 124 117
132 123 117
133 122 117
133 122 117
134 121 117
135 120 117
135 120 117
136 119 117
136 119 117
137 118 117
138 117 117
138 117 117
139 116 117
140 115 117
140 115 117
141 114 117
142 113 117
142 113 117
143 112 117
143 111 117
144 111 117
145 110 117
145 110 117
146 109 117
147 108 117
147 108 117
148 107 117
149 106 117
149 106 117
150 105 117
151 104 117
151 104 117
152 103 117
152 103 117
153 102 117
154 101 117
154 101 117
155 100 117
156 99 117
156 99 117
157 98 117
158 97 117
158 97 117
159 96 117
159 95 117
160 95 117
161 94 117
161 94 117
162 93 117
163 92 117
163 92 117
164 91 117
165 90 117
165 90 117
166 89 117
167 88 117
167 88 117
168 87 117
168 87 117
169 86 117
170 85 117
170 85 117
171 84 117
172 83 117
172 83 117
173 82 117
174 81 117
174 81 117
175 80 117
175 79 117
176 79 117
177 78 117
177 78 117
178 77 117
179 76 117
179 76 117
180 75 117
181 74 117
181 74 117
182 73 117
183 72 117
183 72 117
184 71 117
184 71 117
185 70 117
186 69 117
186 69 117
187 68 117
188 67 117
188 67 117
189 66 117
190 65 117
190 65 117
191 64 117
191 63 117
192 63 117
193 62 117
193 62 117
194 61 117
195 60 117
195 60 117
196 59 117
197 58 117
197 58 117
198 57 117
199 56 117
199 56 117
200 55 117
200 55 117
201 54 117
202 53 117
202 53 117
203 52 117
204 51 117
204 51 117
205 50 117
206 49 117
206 49 117
207 48 117
207 47 117
208 47 117
209 46 117
209 46 117
210 45 117
211 44 117
211 44 117
212 43 117
213 42 117
213 42 117
214 41 117
215 40 117
215 40 117
216 39 117
216 39 117
217 38 117
218 37 117
218 37 117
219 36 117
220 35 117
220 35 117
221 34 117
222 33 117
222 33 117
223 32 117
223 31 117
224 31 117
225 30 117
225 30 117
226 29 117
227 28 117
227 28 117
228 27 117
229 26 117
229 26 117
230 25 117
231 24 117
231 24 117
232 23 117
232 23 117
233 22 117
234 21 117
234 21 117
235 20 117
236 19 117
236 19 117
237 18 117
238 17 117
238 17 117
239 16 117
239 15 117
240 15 117
241 14 117
241 14 117
242 13 117
243 12 117
243 12 117
244 11 117
245 10 117
245 10 117
246 9 117
247 8 117
247 8 117
248 7 117
248 7 117
249 6 117
250 5 117
250 5 117
251 4 117
252 3 117
252 3 117
253 2 117
254 1 117
254 1 117
255 0 117
0 255 118
0 255 118
1 254 118
1 254 118
2 253 118
3 252 118
3 252 118
4 251 118
5 250 118
5 250 118
6 249 118
7 248 118
7 248 118
8 247 118
8 247 118
9 246 118
10 245 118
10 245 118
11 244 118
12 243 118
12 243 118
13 242 118
14 241 118
14 241 118
15 240 118
15 239 118
16 239 118
17 238 118
17 238 118
18 237 118
19 236 118
19 236 118
20 235 118
21 234 118
21 234 118
22 233 118
23 232 118
23 232 118
24 231 118
24 231 118
25 230 118
26 229 118
26 229 118
27 228 118
28 227 118
28 227 118
29 226 118
30 225 118
30 225 118
31 224 118
31 223 118
32 223 118
33 222 118
33 222 118
34 221 118
35 220 118
35 220 118
36 219 118
37 218 118
37 218 118
38 217 118
39 216 118
39 216 118
40 215 118
40 215 118
41 214 118
42 213 118
42 213 118
43 212 118
44 211 118
44 211 118
45 210 118
46 209 118
46 209 118
47 208 118
47 207 118
48 207 118
49 206 118
49 206 118
50 205 118
51 204 118
51 204 118
52 203 118
53 202 118
53 202 118
54 201 118
55 200 118
55 200 118
56 199 118
56 199 118
57 198 118
58 197 118
58 197 118
59 196 118
60 195 118
60 195 118
61 194 118
62 193 118
62 193 118
63 192 118
63 191 118
64 191 118
65 190 118
65 190 118
66 189 118
67 188 118
67 188 118
68 187 118
69 186 118
69 186 118
70 185 118
71 184 118
71 184 118
72 183 118
72 183 118
73 182 118
74 181 118
74 181 118
75 180 118
76 179 118
76 179 118
77 178 118
78 177 118
78 177 118
79 176 118
79 175 118
80 175 118
81 174 118
81 174 118
82 173 118
83 172 118
83 172 118
84 171 118
85 170 118
85 170 118
86 169 118
87 168 118
87 168 118
88 167 118
88 167 118
89 166 118
90 165 118
90 165 118
91 164 118
92 163 118
92 163 118
93 162 118
94 161 118
94 161 118
95 160 118
95 159 118
96 159 118
97 158 118
97 158 118
98 157 118
99 156 118
99 156 118
100 155 118
101 154 118
101 154 118
102 153 118
103 152 118
103 152 118
104 151 118
104 151 118
105 150 118
106 149 118
106 149 118
107 148 118
108 147 118
108 147 118
109 146 118
110 145 118
110 145 118
111 144 118
111 143 118
112 143 118
113 142 118
113 142 118
114 141 118
115 140 118
115 140 118
116 139 118
117 138 118
117 138 118
118 137 118
119 136 118
119 136 118
120 135 118
120 135 118
121 134 118
122 133 118
122 133 118
123 132 118
124 131 118
124 131 118
125 130 118
126 129 118
126 129 118
127 128 118
127 127 118
128 127 118
129 126 118
129 126 118
130 125 118
131 124 118
131 124 118
132 123 118
133 122 118
133 122 118
134 121 118
135 120 118
135 120 118
136 119 118
136 119 118
137 118 118
138 117 118
138 117 118
139 116 118
140 115 118
140 115 118
141 114 118
142 113 118
142 113 118
143 112 118
143 111 118
144 111 118
145 110 118
145 110 118
146 109 118
147 108 118
147 108 118
148 107 118
149 106 118
149 106 118
150 105 118
151 104 118
151 104 118
152 103 118
152 103 118
153 102 118
154 101 118
154 101 118
155 100 118
156 99 118
156 99 118
157 98 118
158 97 118
158 97 118
159 96 118
159 95 118
160 95 118
161 94 118
161 94 118
162 93 118
163 92 118
163 92 118
164 91 118
165 90 118
165 90 118
166 89 118
167 88 118
167 88 118
168 87 118
168 87 118
169 86 118
170 85 118
170 85 118
171 84 118
172 83 118
172 83 118
173 82 118
174 81 118
174 81 118
175 80 118
175 79 118
176 79 118
177 78 118
177 78 118
178 77 118
179 76 118
179 76 118
180 75 118
181 74 118
181 74 118
182 73 118
183 72 118
183 72 118
184 71 118
184 71 118
185 70 118
186 69 118
186 69 118
187 68 118
188 67 118
188 67 118
189 66 118
190 65 118
190 65 118
191 64 118
191 63 118
192 63 118
193 62 118
193 62 118
194 61 118
195 60 118
195 60 118
196 59 118
197 58 118
197 58 118
198 57 118
199 56 118
199 56 118
200 55 118
200 55 118
201 54 118
202 53 118
202 53 118
203 52 118
204 51 118
204 51 118
205 50 118
206 49 118
206 49 118
207 48 118
207 47 118
208 47 118
209 46 118
209 46 118
210 45 118
211 44 118
211 44 118
212 43 118
213 42 118
213 42 118
214 41 118
215 40 118
215 40 118
216 39 118
216 39 118
217 38 118
218 37 118
218 37 118
219 36 118
220 35 118
220 35 118
221 34 118
222 33 118
222 33 118
223 32 118
223 31 118
224 31 118
225 30 118
225 30 118
226 29 118
227 28 118
227 28 118
228 27 118
229 26 118
229 26 118
230 25 118
231 24 118
231 24 118
232 23 118
232 23 118
233 22 118
234 21 118
234 21 118
235 20 118
236 19 118
236 19 118
237 18 118
238 17 118
238 17 118
239 16 118
239 15 118
240 15 118
241 14 118
241 14 118
242 13 118
243 12 118
243 12 118
244 11 118
245 10 118
245 10 118
246 9 118
247 8 118
247 8 118
248 7 118
248 7 118
249 6 118
250 5 118
250 5 118
251 4 118
252 3 118
252 3 118
253 2 118
254 1 118
254 1 118
255 0 118
0 255 119
0 255 119
1 254 119
1 254 119
2 253 119
3 252 119
3 252 119
4 251 119
5 250 119
5 250 119
6 249 119
7 248 119
7 248 119
8 247 119
8 247 119
9 246 119
10 245 119
10 245 119
11 244 119
12 243 119
12 243 119
13 242 119
14 241 119
14 241 119
15 240 119
15 239 119
16 239 119
17 238 119
17 238 119
18 237 119
19 236 119
19 236 119
20 235 119
21 234 119
21 234 119
22 233 119
23 232 119
23 232 119
24 231 119
24 231 119
25 230 119
26 229 119
26 229 119
27 228 119
28 227 119
28 227 119
29 226 119
30 225 119
30 225 119
31 224 119
31 223 119
32 223 119
33 222 119
33 222 119
34 221 119
35 220 119
35 220 119
36 219 119
37 218 119
37 218 119
38 217 119
39 216 119
39 216 119
40 215 119
40 215 119
41 214 119
42 213 119
42 213 119
43 212 119
44 211 119
44 211 119
45 210 119
46 209 119
46 209 119
47 208 119
47 207 119
48 207 119
49 206 119
49 206 119
50 205 119
51 204 119
51 204 119
52 203 119
53 202 119
53 202 119
54 201 119
55 200 119
55 200 119
56 199 119
56 199 119
57 198 119
58 197 119
58 197 119
59 196 119
60 195 119
60 195 119
61 194 119
62 193 119
62 193 119
63 192 119
63 191 119
64 191 119
65 190 119
65 190 119
66 189 119
67 188 119
67 188 119
68 187 119
69 186 119
69 186 119
70 185 119
71 184 119
71 184 119
72 183 119
72 183 119
73 182 119
74 181 119
74 181 119
75 180 119
76 179 119
76 179 119
77 178 119
78 177 119
78 177 119
79 176 119
79 175 119
80 175 119
81 174 119
81 174 119
82 173 119
83 172 119
83 172 119
84 171 119
85 170 119
85 170 119
86 169 119
87 168 119
87 168 119
88 167 119
88 167 119
89 166 119
90 165 119
90 165 119
91 164 119
92 163 119
92 163 119
93 162 119
94 161 119
94 161 119
95 160 119
95 159 119
96 159 119
97 158 119
97 158 119
98 157 119
99 156 119
99 156 119
100 155 119
101 154 119
101 154 119
102 153 119
103 152 119
103 152 119
104 151 119
104 151 119
105 150 119
106 149 119
106 149 119
107 148 119
108 147 119
108 147 119
109 146 119
110 145 119
110 145 119
111 144 119
111 143 119
112 143 119
113 142 119
113 142 119
114 141 119
115 140 119
115 140 119
116 139 119
117 138 119
117 138 119
118 137 119
119 136 119
119 136 119
120 135 119
120 135 119
121 134 119
122 133 119
122 133 119
123 132 119
124 131 119
124 131 119
125 130 119
126 129 119
126 129 119
127 128 119
127 127 119
128 127 119
129 126 119
129 126 119
130 125 119
131 124 119
131 124 119
132 123 119
133 122 119
133 122 119
134 121 119
135 120 119
135 120 119
136 119 119
136 119 119
137 118 119
138 117 119
138 117 119
139 116 119
140 115 119
140 115 119
141 114 119
142 113 119
142 113 119
143 112 119
143 111 119
144 111 119
145 110 119
145 110 119
146 109 119
147 108 119
147 108 119
148 107 119
149 106 119
149 106 119
150 105 119
151 104 119
151 104 119
152 103 119
152 103 119
153 102 119
154 101 119
154 101 119
155 100 119
156 99 119
156 99 119
157 98 119
158 97 119
158 97 119
159 96 119
159 95 119
160 95 119
161 94 119
161 94 119
162 93 119
163 92 119
163 92 119
164 91 119
165 90 119
165 90 119
166 89 119
167 88 119
167 88 119
168 87 119
168 87 119
169 86 119
170 85 119
170 85 119
171 84 119
172 83 119
172 83 119
173 82 119
174 81 119
174 81 119
175 80 119
175 79 119
176 79 119
177 78 119
177 78 119
178 77 119
179 76 119
179 76 119
180 75 119
181 74 119
181 74 119
182 73 119
183 72 119
183 72 119
184 71 119
184 71 119
185 70 119
186 69 119
186 69 119
187 68 119
188 67 119
188 67 119
189 66 119
190 65 119
190 65 119
191 64 119
191 63 119
192 63 119
193 62 119
193 62 119
194 61 119
195 60 119
195 60 119
196 59 119
197 58 119
197 58 119
198 57 119
199 56 119
199 56 119
200 55 119
200 55 119
201 54 119
202 53 119
202 53 119
203 52 119
204 51 119
204 51 119
205 50 119
206 49 119
206 49 119
207 48 119
207 47 119
208 47 119
209 46 119
209 46 119
210 45 119
211 44 119
211 44 119
212 43 119
213 42 119
213 42 119
214 41 119
215 40 119
215 40 119
216 39 119
216 39 119
217 38 119
218 37 119
218 37 119
219 36 119
220 35 119
220 35 119
221 34 119
222 33 119
222 33 119
223 32 119
223 31 119
224 31 119
225 30 119
225 30 119
226 29 119
227 28 119
227 28 119
228 27 119
229 26 119
229 26 119
230 25 119
231 24 119
231 24 119
232 23 119
232 23 119
233 22 119
234 21 119
234 21 119
235 20 119
236 19 119
236 19 119
237 18 119
238 17 119
238 17 119
239 16 119
239 15 119
240 15 119
241 14 119
241 14 119
242 13 119
243 12 119
243 12 119
244 11 119
245 10 119
245 10 119
246 9 119
247 8 119
247 8 119
248 7 119
248 7 119
249 6 119
250 5 119
250 5 119
251 4 119
252 3 119
252 3 119
253 2 119
254 1 119
254 1 119
255 0 119
0 255 120
0 255 120
1 254 120
1 254 120
2 253 120
3 252 120
3 252 120
4 251 120
5 250 120
5 250 120
6 249 120
7 248 120
7 248 120
8 247 120
8 247 120
9 246 120
10 245 120
10 245 120
11 244 120
12 243 120
12 243 120
13 242 120
14 241 120
14 241 120
15 240 120
15 239 120
16 239 120
17 238 120
17 238 120
18 237 120
19 236 120
19 236 120
20 235 120
21 234 120
21 234 120
22 233 120
23 232 120
23 232 120
24 231 120
24 231 120
25 230 120
26 229 120
26 229 120
27 228 120
28 227 120
28 227 120
29 226 120
30 225 120
30 225 120
31 224 120
31 223 120
32 223 120
33 222 120
33 222 120
34 221 120
35 220 120
35 220 120
36 219 120
37 218 120
37 218 120
38 217 120
39 216 120
39 216 120
40 215 120
40 215 120
41 214 120
42 213 120
42 213 120
43 212 120
44 211 120
44 211 120
45 210 120
46 209 120
46 209 120
47 208 120
47 207 120
48 207 120
49 206 120
49 206 120
50 205 120
51 204 120
51 204 120
52 203 120
53 202 120
53 202 120
54 201 120
55 200 120
55 200 120
56 199 120
56 199 120
57 198 120
58 197 120
58 197 120
59 196 120
60 195 120
60 195 120
61 194 120
62 193 120
62 193 120
63 192 120
63 191 120
64 191 120
65 190 120
65 190 120
66 189 120
67 188 120
67 188 120
68 187 120
69 186 120
69 186 120
70 185 120
71 184 120
71 184 120
72 183 120
72 183 120
73 182 120
74 181 120
74 181 120
75 180 120
76 179 120
76 179 120
77 178 120
78 177 120
78 177 120
79 176 120
79 175 120
80 175 120
81 174 120
81 174 120
82 173 120
83 172 120
83 172 120
84 171 120
85 170 120
85 170 120
86 169 120
87 168 120
87 168 120
88 167 120
88 167 120
89 166 120
90 165 120
90 165 120
91 164 120
92 163 120
92 163 120
93 162 120
94 161 120
94 161 120
95 160 120
95 159 120
96 159 120
97 158 120
97 158 120
98 157 120
99 156 120
99 156 120
100 155 120
101 154 120
101 154 120
102 153 120
103 152 120
103 152 120
104 151 120
104 151 120
105 150 120
106 149 120
106 149 120
107 148 120
108 147 120
108 147 120
109 146 120
110 145 120
110 145 120
111 144 120
111 143 120
112 143 120
113 142 120
113 142 120
114 141 120
115 140 120
115 140 120
116 139 120
117 138 120
117 138 120
118 137 120
119 136 120
119 136 120
120 135 120
120 135 120
121 134 120
122 133 120
122 133 120
123 132 120
124 131 120
124 131 120
125 130 120
126 129 120
126 129 120
127 128 120
127 127 120
128 127 120
129 126 120
129 126 120
130 125 120
131 124 120
131 124 120
132 123 120
133 122 120
133 122 120
134 121 120
135 120 120
135 120 120
136 119 120
136 119 120
137 118 120
138 117 120
138 117 120
139 116 120
140 115 120
140 115 120
141 114 120
142 113 120
142 113 120
143 112 120
143 111 120
144 111 120
145 110 120
145 110 120
146 109 120
147 108 120
147 108 120
148 107 120
149 106 120
149 106 120
150 105 120
151 104 120
151 104 120
152 103 120
152 103 120
153 102 120
154 101 120
154 101 120
155 100 120
156 99 120
156 99 120
157 98 120
158 97 120
158 97 120
159 96 120
159 95 120
160 95 120
161 94 120
161 94 120
162 93 120
163 92 120
163 92 120
164 91 120
165 90 120
165 90 120
166 89 120
167 88 120
167 88 120
168 87 120
168 87 120
169 86 120
170 85 120
170 85 120
171 84 120
172 83 120
172 83 120
173 82 120
174 81 120
174 81 120
175 80 120
175 79 120
176 79 120
177 78 120
177 78 120
178 77 120
179 76 120
179 76 120
180 75 120
181 74 120
181 74 120
182 73 120
183 72 120
183 72 120
184 71 120
184 71 120
185 70 120
186 69 120
186 69 120
187 68 120
188 67 120
188 67 120
189 66 120
190 65 120
190 65 120
191 64 120
191 63 120
192 63 120
193 62 120
193 62 120
194 61 120
195 60 120
195 60 120
196 59 120
197 58 120
197 58 120
198 57 120
199 56 120
199 56 120
200 55 120
200 55 120
201 54 120
202 53 120
202 53 120
203 52 120
204 51 120
204 51 120
205 50 120
206 49 120
206 49 120
207 48 120
207 47 120
208 47 120
209 46 120
209 46 120
210 45 120
211 44 120
211 44 120
212 43 120
213 42 120
213 42 120
214 41 120
215 40 120
215 40 120
216 39 120
216 39 120
217 38 120
218 37 120
218 37 120
219 36 120
220 35 120
220 35 120
221 34 120
222 33 120
222 33 120
223 32 120
223 31 120
224 31 120
225 30 120
225 30 120
226 29 120
227 28 120
227 28 120
228 27 120
229 26 120
229 26 120
230 25 120
231 24 120
231 24 120
232 23 120
232 23 120
233 22 120
234 21 120
234 21 120
235 20 120
236 19 120
236 19 120
237 18 120
238 17 120
238 17 120
239 16 120
239 15 120
240 15 120
241 14 120
241 14 120
242 13 120
243 12 120
243 12 120
244 11 120
245 10 120
245 10 120
246 9 120
247 8 120
247 8 120
248 7 120
248 7 120
249 6 120
250 5 120
250 5 120
251 4 120
252 3 120
252 3 120
253 2 120
254 1 120
254 1 120
255 0 120
0 255 121
0 255 121
1 254 121
1 254 121
2 253 121
3 252 121
3 252 121
4 251 121
5 250 121
5 250 121
6 249 121
7 248 121
7 248 121
8 247 121
8 247 121
9 246 121
10 245 121
10 245 121
11 244 121
12 243 121
12 243 121
13 242 121
14 241 121
14 241 121
15 240 121
15 239 121
16 239 121
17 238 121
17 238 121
18 237 121
19 236 121
19 236 121
20 235 121
21 234 121
21 234 121
22 233 121
23 232 121
23 232 121
24 231 121
24 231 121
25 230 121
26 229 121
26 229 121
27 228 121
28 227 121
28 227 121
29 226 121
30 225 121
30 225 121
31 224 121
31 223 121
32 223 121
33 222 121
33 222 121
34 221 121
35 220 121
35 220 121
36 219 121
37 218 121
37 218 121
38 217 121
39 216 121
39 216 121
40 215 121
40 215 121
41 214 121
42 213 121
42 213 121
43 212 121
44 211 121
44 211 121
45 210 121
46 209 121
46 209 121
47 208 121
47 207 121
48 207 121
49 206 121
49 206 121
50 205 121
51 204 121
51 204 121
52 203 121
53 202 121
53 202 121
54 201 121
55 200 121
55 200 121
56 199 121
56 199 121
57 198 121
58 197 121
58 197 121
59 196 121
60 195 121
60 195 121
61 194 121
62 193 121
62 193 121
63 192 121
63 191 121
64 191 121
65 190 121
65 190 121
66 189 121
67 188 121
67 188 121
68 187 121
69 186 121
69 186 121
70 185 121
71 184 121
71 184 121
72 183 121
72 183 121
73 182 121
74 181 121
74 181 121
75 180 121
76 179 121
76 179 121
77 178 121
78 177 121
78 177 121
79 176 121
79 175 121
80 175 121
81 174 121
81 174 121
82 173 121
83 172 121
83 172 121
84 171 121
85 170 121
85 170 121
86 169 121
87 168 121
87 168 121
88 167 121
88 167 121
89 166 121
90 165 121
90 165 121
91 164 121
92 163 121
92 163 121
93 162 121
94 161 121
94 161 121
95 160 121
95 159 121
96 159 121
97 158 121
97 158 121
98 157 121
99 156 121
99 156 121
100 155 121
101 154 121
101 154 121
102 153 121
103 152 121
103 152 121
104 151 121
104 151 121
105 150 121
106 149 121
106 149 121
107 148 121
108 147 121
108 147 121
109 146 121
110 145 121
110 145 121
111 144 121
111 143 121
112 143 121
113 142 121
113 142 121
114 141 121
115 140 121
115 140 121
116 139 121
117 138 121
117 138 121
118 137 121
119 136 121
119 136 121
120 135 121
120 135 121
121 134 121
122 133 121
122 133 121
123 132 121
124 131 121
124 131 121
125 130 121
126 129 121
126 129 121
127 128 121
127 127 121
128 127 121
129 126 121
129 126 121
130 125 121
131 124 121
131 124 121
132 123 121
133 122 121
133 122 121
134 121 121
135 120 121
135 120 121
136 119 121
136 119 121
137 118 121
138 117 121
138 117 121
139 116 121
140 115 121
140 115 121
141 114 121
142 113 121
142 113 121
143 112 121
143 111 121
144 111 121
145 110 121
145 110 121
146 109 121
147 108 121
147 108 121
148 107 121
149 106 121
149 106 121
150 105 121
151 104 121
151 104 121
152 103 121
152 103 121
153 102 121
154 101 121
154 101 121
155 100 121
156 99 121
156 99 121
157 98 121
158 97 121
158 97 121
159 96 121
159 95 121
160 95 121
161 94 121
161 94 121
162 93 121
163 92 121
163 92 121
164 91 121
165 90 121
165 90 121
166 89 121
167 88 121
167 88 121
168 87 121
168 87 121
169 86 121
170 85 121
170 85 121
171 84 121
172 83 121
172 83 121
173 82 121
174 81 121
174 81 121
175 80 121
175 79 121
176 79 121
177 78 121
177 78 121
178 77 121
179 76 121
179 76 121
180 75 121
181 74 121
181 74 121
182 73 121
183 72 121
183 72 121
184 71 121
184 71 121
185 70 121
186 69 121
186 69 121
187 68 121
188 67 121
188 67 121
189 66 121
190 65 121
190 65 121
191 64 121
191 63 121
192 63 121
193 62 121
193 62 121
194 61 121
195 60 121
195 60 121
196 59 121
197 58 121
197 58 121
198 57 121
199 56 121
199 56 121
200 55 121
200 55 121
201 54 121
202 53 121
202 53 121
203 52 121
204 51 121
204 51 121
205 50 121
206 49 121
206 49 121
207 48 121
207 47 121
208 47 121
209 46 121
209 46 121
210 45 121
211 44 121
211 44 121
212 43 121
213 42 121
213 42 121
214 41 121
215 40 121
215 40 121
216 39 121
216 39 121
217 38 121
218 37 121
218 37 121
219 36 121
220 35 121
220 35 121
221 34 121
222 33 121
222 33 121
223 32 121
223 31 121
224 31 121
225 30 121
225 30 121
226 29 121
227 28 121
227 28 121
228 27 121
229 26 121
229 26 121
230 25 121
231 24 121
231 24 121
232 23 121
232 23 121
233 22 121
234 21 121
234 21 121
235 20 121
236 19 121
236 19 121
237 18 121
238 17 121
238 17 121
239 16 121
239 15 121
240 15 121
241 14 121
241 14 121
242 13 121
243 12 121
243 12 121
244 11 121
245 10 121
245 10 121
246 9 121
247 8 121
247 8 121
248 7 121
248 7 121
249 6 121
250 5 121
250 5 121
251 4 121
252 3 121
252 3 121
253 2 121
254 1 121
254 1 121
255 0 121
0 255 122
0 255 122
1 254 122
1 254 122
2 253 122
3 252 122
3 252 122
4 251 122
5 250 122
5 250 122
6 249 122
7 248 122
7 248 122
8 247 122
8 247 122
9 246 122
10 245 122
10 245 122
11 244 122
12 243 122
12 243 122
13 242 122
14 241 122
14 241 122
15 240 122
15 239 122
16 239 122
17 238 122
17 238 122
18 237 122
19 236 122
19 236 122
20 235 122
21 234 122
21 234 122
22 233 122
23 232 122
23 232 122
24 231 122
24 231 122
25 230 122
26 229 122
26 229 122
27 228 122
28 227 122
28 227 122
29 226 122
30 225 122
30 225 122
31 224 122
31 223 122
32 223 122
33 222 122
33 222 122
34 221 122
35 220 122
35 220 122
36 219 122
37 218 122
37 218 122
38 217 122
39 216 122
39 216 122
40 215 122
40 215 122
41 214 122
42 213 122
42 213 122
43 212 122
44 211 122
44 211 122
45 210 122
46 209 122
46 209 122
47 208 122
47 207 122
48 207 122
49 206 122
49 206 122
50 205 122
51 204 122
51 204 122
52 203 122
53 202 122
53 202 122
54 201 122
55 200 122
55 200 122
56 199 122
56 199 122
57 198 122
58 197 122
58 197 122
59 196 122
60 195 122
60 195 122
61 194 122
62 193 122
62 193 122
63 192 122
63 191 122
64 191 122
65 190 122
65 190 122
66 189 122
67 188 122
67 188 122
68 187 122
69 186 122
69 186 122
70 185 122
71 184 122
71 184 122
72 183 122
72 183 122
73 182 122
74 181 122
74 181 122
75 180 122
76 179 122
76 179 122
77 178 122
78 177 122
78 177 122
79 176 122
79 175 122
80 175 122
81 174 122
81 174 122
82 173 122
83 172 122
83 172 122
84 171 122
85 170 122
85 170 122
86 169 122
87 168 122
87 168 122
88 167 122
88 167 122
89 166 122
90 165 122
90 165 122
91 164 122
92 163 122
92 163 122
93 162 122
94 161 122
94 161 122
95 160 122
95 159 122
96 159 122
97 158 122
97 158 122
98 157 122
99 156 122
99 156 122
100 155 122
101 154 122
101 154 122
102 153 122
103 152 122
103 152 122
104 151 122
104 151 122
105 150 122
106 149 122
106 149 122
107 148 122
108 147 122
108 147 122
109 146 122
110 145 122
110 145 122
111 144 122
111 143 122
112 143 122
113 142 122
113 142 122
114 141 122
115 140 122
115 140 122
116 139 122
117 138 122
117 138 122
118 137 122
119 136 122
119 136 122
120 135 122
120 135 122
121 134 122
122 133 122
122 133 122
123 132 122
124 131 122
124 131 122
125 130 122
126 129 122
126 129 122
127 128 122
127 127 122
128 127 122
129 126 122
129 126 122
130 125 122
131 124 122
131 124 122
132 123 122
133 122 122
133 122 122
134 121 122
135 120 122
135 120 122
136 119 122
136 119 122
137 118 122
138 117 122
138 117 122
139 116 122
140 115 122
140 115 122
141 114 122
142 113 122
142 113 122
143 112 122
143 111 122
144 111 122
145 110 122
145 110 122
146 109 122
147 108 122
147 108 122
148 107 122
149 106 122
149 106 122
150 105 122
151 104 122
151 104 122
152 103 122
152 103 122
153 102 122
154 101 122
154 101 122
155 100 122
156 99 122
156 99 122
157 98 122
158 97 122
158 97 122
159 96 122
159 95 122
160 95 122
161 94 122
161 94 122
162 93 122
163 92 122
163 92 122
164 91 122
165 90 122
165 90 122
166 89 122
167 88 122
167 88 122
168 87 122
168 87 122
169 86 122
170 85 122
170 85 122
171 84 122
172 83 122
172 83 122
173 82 122
174 81 122
174 81 122
175 80 122
175 79 122
176 79 122
177 78 122
177 78 122
178 77 122
179 76 122
179 76 122
180 75 122
181 74 122
181 74 122
182 73 122
183 72 122
183 72 122
184 71 122
184 71 122
185 70 122
186 69 122
186 69 122
187 68 122
188 67 122
188 67 122
189 66 122
190 65 122
190 65 122
191 64 122
191 63 122
192 63 122
193 62 122
193 62 122
194 61 122
195 60 122
195 60 122
196 59 122
197 58 122
197 58 122
198 57 122
199 56 122
199 56 122
200 55 122
200 55 122
201 54 122
202 53 122
202 53 122
203 52 122
204 51 122
204 51 122
205 50 122
206 49 122
206 49 122
207 48 122
207 47 122
208 47 122
209 46 122
209 46 122
210 45 122
211 44 122
211 44 122
212 43 122
213 42 122
213 42 122
214 41 122
215 40 122
215 40 122
216 39 122
216 39 122
217 38 122
218 37 122
218 37 122
219 36 122
220 35 122
220 35 122
221 34 122
222 33 122
222 33 122
223 32 122
223 31 122
224 31 122
225 30 122
225 30 122
226 29 122
227 28 122
227 28 122
228 27 122
229 26 122
229 26 122
230 25 122
231 24 122
231 24 122
232 23 122
232 23 122
233 22 122
234 21 122
234 21 122
235 20 122
236 19 122
236 19 122
237 18 122
238 17 122
238 17 122
239 16 122
239 15 122
240 15 122
241 14 122
241 14 122
242 13 122
243 12 122
243 12 122
244 11 122
245 10 122
245 10 122
246 9 122
247 8 122
247 8 122
248 7 122
248 7 122
249 6 122
250 5 122
250 5 122
251 4 122
252 3 122
252 3 122
253 2 122
254 1 122
254 1 122
255 0 122
0 255 124
0 255 124
1 254 124
1 254 124
2 253 124
3 252 124
3 252 124
4 251 124
5 250 124
5 250 124
6 249 124
7 248 124
7 248 124
8 247 124
8 247 124
9 246 124
10 245 124
10 245 124
11 244 124
12 243 124
12 243 124
13 242 124
14 241 124
14 241 124
15 240 124
15 239 124
16 239 124
17 238 124
17 238 124
18 237 124
19 236 124
19 236 124
20 235 124
21 234 124
21 234 124
22 233 124
23 232 124
23 232 124
24 231 124
24 231 124
25 230 124
26 229 124
26 229 124
27 228 124
28 227 124
28 227 124
29 226 124
30 225 124
30 225 124
31 224 124
31 223 124
32 223 124
33 222 124
33 222 124
34 221 124
35 220 124
35 220 124
36 219 124
37 218 124
37 218 124
38 217 124
39 216 124
39 216 124
40 215 124
40 215 124
41 214 124
42 213 124
42 213 124
43 212 124
44 211 124
44 211 124
45 210 124
46 209 124
46 209 124
47 208 124
47 207 124
48 207 124
49 206 124
49 206 124
50 205 124
51 204 124
51 204 124
52 203 124
53 202 124
53 202 124
54 201 124
55 200 124
55 200 124
56 199 124
56 199 124
57 198 124
58 197 124
58 197 124
59 196 124
60 195 124
60 195 124
61 194 124
62 193 124
62 193 124
63 192 124
63 191 124
64 191 124
65 190 124
65 190 124
66 189 124
67 188 124
67 188 124
68 187 124
69 186 124
69 186 124
70 185 124
71 184 124
71 184 124
72 183 124
72 183 124
73 182 124
74 181 124
74 181 124
75 180 124
76 179 124
76 179 124
77 178 124
78 177 124
78 177 124
79 176 124
79 175 124
80 175 124
81 174 124
81 174 124
82 173 124
83 172 124
83 172 124
84 171 124
85 170 124
85 170 124
86 169 124
87 168 124
87 168 124
88 167 124
88 167 124
89 166 124
90 165 124
90 165 124
91 164 124
92 163 124
92 163 124
93 162 124
94 161 124
94 161 124
95 160 124
95 159 124
96 159 124
97 158 124
97 158 124
98 157 124
99 156 124
99 156 124
100 155 124
101 154 124
101 154 124
102 153 124
103 152 124
103 152 124
104 151 124
104 151 124
105 150 124
106 149 124
106 149 124
107 148 124
108 147 124
108 147 124
109 146 124
110 145 124
110 145 124
111 144 124
111 143 124
112 143 124
113 142 124
113 142 124
114 141 124
115 140 124
115 140 124
116 139 124
117 138 124
117 138 124
118 137 124
119 136 124
119 136 124
120 135 124
120 135 124
121 134 124
122 133 124
122 133 124
123 132 124
124 131 124
124 131 124
125 130 124
126 129 124
126 129 124
127 128 124
127 127 124
128 127 124
129 126 124
129 126 124
130 125 124
131 124 124
131 124 124
132 123 124
133 122 124
133 122 124
134 121 124
135 120 124
135 120 124
136 119 124
136 119 124
137 118 124
138 117 124
138 117 124
139 116 124
140 115 124
140 115 124
141 114 124
142 113 124
142 113 124
143 112 124
143 111 124
144 111 124
145 110 124
145 110 124
146 109 124
147 108 124
147 108 124
148 107 124
149 106 124
149 106 124
150 105 124
151 104 124
151 104 124
152 103 124
152 103 124
153 102 124
154 101 124
154 101 124
155 100 124
156 99 124
156 99 124
157 98 124
158 97 124
158 97 124
159 96 124
159 95 124
160 95 124
161 94 124
161 94 124
162 93 124
163 92 124
163 92 124
164 91 124
165 90 124
165 90 124
166 89 124
167 88 124
167 88 124
168 87 124
168 87 124
169 86 124
170 85 124
170 85 124
171 84 124
172 83 124
172 83 124
173 82 124
174 81 124
174 81 124
175 80 124
175 79 124
176 79 124
177 78 124
177 78 124
178 77 124
179 76 124
179 76 124
180 75 124
181 74 124
181 74 124
182 73 124
183 72 124
183 72 124
184 71 124
184 71 124
185 70 124
186 69 124
186 69 124
187 68 124
188 67 124
188 67 124
189 66 124
190 65 124
190 65 124
191 64 124
191 63 124
192 63 124
193 62 124
193 62 124
194 61 124
195 60 124
195 60 124
196 59 124
197 58 124
197 58 124
198 57 124
199 56 124
199 56 124
200 55 124
200 55 124
201 54 124
202 53 124
202 53 124
203 52 124
204 51 124
204 51 124
205 50 124
206 49 124
206 49 124
207 48 124
207 47 124
208 47 124
209 46 124
209 46 124
210 45 124
211 44 124
211 44 124
212 43 124
213 42 124
213 42 124
214 41 124
215 40 124
215 40 124
216 39 124
216 39 124
217 38 124
218 37 124
218 37 124
219 36 124
220 35 124
220 35 124
221 34 124
222 33 124
222 33 124
223 32 124
223 31 124
224 31 124
225 30 124
225 30 124
226 29 124
227 28 124
227 28 124
228 27 124
229 26 124
229 26 124
230 25 124
231 24 124
231 24 124
232 23 124
232 23 124
233 22 124
234 21 124
234 21 124
235 20 124
236 19 124
236 19 124
237 18 124
238 17 124
238 17 124
239 16 124
239 15 124
240 15 124
241 14 124
241 14 124
242 13 124
243 12 124
243 12 124
244 11 124
245 10 124
245 10 124
246 9 124
247 8 124
247 8 124
248 7 124
248 7 124
249 6 124
250 5 124
250 5 124
251 4 124
252 3 124
252 3 124
253 2 124
254 1 124
254 1 124
255 0 124
0 255 125
0 255 125
1 254 125
1 254 125
2 253 125
3 252 125
3 252 125
4 251 125
5 250 125
5 250 125
6 249 125
7 248 125
7 248 125
8 247 125
8 247 125
9 246 125
10 245 125
10 245 125
11 244 125
12 243 125
12 243 125
13 242 125
14 241 125
14 241 125
15 240 125
15 239 125
16 239 125
17 238 125
17 238 125
18 237 125
19 236 125
19 236 125
20 235 125
21 234 125
21 234 125
22 233 125
23 232 125
23 232 125
24 231 125
24 231 125
25 230 125
26 229 125
26 229 125
27 228 125
28 227 125
28 227 125
29 226 125
30 225 125
30 225 125
31 224 125
31 223 125
32 223 125
33 222 125
33 222 125
34 221 125
35 220 125
35 220 125
36 219 125
37 218 125
37 218 125
38 217 125
39 216 125
39 216 125
40 215 125
40 215 125
41 214 125
42 213 125
42 213 125
43 212 125
44 211 125
44 211 125
45 210 125
46 209 125
46 209 125
47 208 125
47 207 125
48 207 125
49 206 125
49 206 125
50 205 125
51 204 125
51 204 125
52 203 125
53 202 125
53 202 125
54 201 125
55 200 125
55 200 125
56 199 125
56 199 125
57 198 125
58 197 125
58 197 125
59 196 125
60 195 125
60 195 125
61 194 125
62 193 125
62 193 125
63 192 125
63 191 125
64 191 125
65 190 125
65 190 125
66 189 125
67 188 125
67 188 125
68 187 125
69 186 125
69 186 125
70 185 125
71 184 125
71 184 125
72 183 125
72 183 125
73 182 125
74 181 125
74 181 125
75 180 125
76 179 125
76 179 125
77 178 125
78 177 125
78 177 125
79 176 125
79 175 125
80 175 125
81 174 125
81 174 125
82 173 125
83 172 125
83 172 125
84 171 125
85 170 125
85 170 125
86 169 125
87 168 125
87 168 125
88 167 125
88 167 125
89 166 125
90 165 125
90 165 125
91 164 125
92 163 125
92 163 125
93 162 125
94 161 125
94 161 125
95 160 125
95 159 125
96 159 125
97 158 125
97 158 125
98 157 125
99 156 125
99 156 125
100 155 125
101 154 125
101 154 125
102 153 125
103 152 125
103 152 125
104 151 125
104 151 125
105 150 125
106 149 125
106 149 125
107 148 125
108 147 125
108 147 125
109 146 125
110 145 125
110 145 125
111 144 125
111 143 125
112 143 125
113 142 125
113 142 125
114 141 125
115 140 125
115 140 125
116 139 125
117 138 125
117 138 125
118 137 125
119 136 125
119 136 125
120 135 125
120 135 125
121 134 125
122 133 125
122 133 125
123 132 125
124 131 125
124 131 125
125 130 125
126 129 125
126 129 125
127 128 125
127 127 125
128 127 125
129 126 125
129 126 125
130 125 125
131 124 125
131 124 125
132 123 125
133 122 125
133 122 125
134 121 125
135 120 125
135 120 125
136 119 125
136 119 125
137 118 125
138 117 125
138 117 125
139 116 125
140 115 125
140 115 125
141 114 125
142 113 125
142 113 125
143 112 125
143 111 125
144 111 125
145 110 125
145 110 125
146 109 125
147 108 125
147 108 125
148 107 125
149 106 125
149 106 125
150 105 125
151 104 125
151 104 125
152 103 125
152 103 125
153 102 125
154 101 125
154 101 125
155 100 125
156 99 125
156 99 125
157 98 125
158 97 125
158 97 125
159 96 125
159 95 125
160 95 125
161 94 125
161 94 125
162 93 125
163 92 125
163 92 125
164 91 125
165 90 125
165 90 125
166 89 125
167 88 125
167 88 125
168 87 125
168 87 125
169 86 125
170 85 125
170 85 125
171 84 125
172 83 125
172 83 125
173 82 125
174 81 125
174 81 125
175 80 125
175 79 125
176 79 125
177 78 125
177 78 125
178 77 125
179 76 125
179 76 125
180 75 125
181 74 125
181 74 125
182 73 125
183 72 125
183 72 125
184 71 125
184 71 125
185 70 125
186 69 125
186 69 125
187 68 125
188 67 125
188 67 125
189 66 125
190 65 125
190 65 125
191 64 125
191 63 125
192 63 125
193 62 125
193 62 125
194 61 125
195 60 125
195 60 125
196 59 125
197 58 125
197 58 125
198 57 125
199 56 125
199 56 125
200 55 125
200 55 125
201 54 125
202 53 125
202 53 125
203 52 125
204 51 125
204 51 125
205 50 125
206 49 125
206 49 125
207 48 125
207 47 125
208 47 125
209 46 125
209 46 125
210 45 125
211 44 125
211 44 125
212 43 125
213 42 125
213 42 125
214 41 125
215 40 125
215 40 125
216 39 125
216 39 125
217 38 125
218 37 125
218 37 125
219 36 125
220 35 125
220 35 125
221 34 125
222 33 125
222 33 125
223 32 125
223 31 125
224 31 125
225 30 125
225 30 125
226 29 125
227 28 125
227 28 125
228 27 125
229 26 125
229 26 125
230 25 125
231 24 125
231 24 125
232 23 125
232 23 125
233 22 125
234 21 125
234 21 125
235 20 125
236 19 125
236 19 125
237 18 125
238 17 125
238 17 125
239 16 125
239 15 125
240 15 125
241 14 125
241 14 125
242 13 125
243 12 125
243 12 125
244 11 125
245 10 125
245 10 125
246 9 125
247 8 125
247 8 125
248 7 125
248 7 125
249 6 125
250 5 125
250 5 125
251 4 125
252 3 125
252 3 125
253 2 125
254 1 125
254 1 125
255 0 125
0 255 126
0 255 126
1 254 126
1 254 126
2 253 126
3 252 126
3 252 126
4 251 126
5 250 126
5 250 126
6 249 126
7 248 126
7 248 126
8 247 126
8 247 126
9 246 126
10 245 126
10 245 126
11 244 126
12 243 126
12 243 126
13 242 126
14 241 126
14 241 126
15 240 126
15 239 126
16 239 126
17 238 126
17 238 126
18 237 126
19 236 126
19 236 126
20 235 126
21 234 126
21 234 126
22 233 126
23 232 126
23 232 126
24 231 126
24 231 126
25 230 126
26 229 126
26 229 126
27 228 126
28 227 126
28 227 126
29 226 126
30 225 126
30 225 126
31 224 126
31 223 126
32 223 126
33 222 126
33 222 126
34 221 126
35 220 126
35 220 126
36 219 126
37 218 126
37 218 126
38 217 126
39 216 126
39 216 126
40 215 126
40 215 126
41 214 126
42 213 126
42 213 126
43 212 126
44 211 126
44 211 126
45 210 126
46 209 126
46 209 126
47 208 126
47 207 126
48 207 126
49 206 126
49 206 126
50 205 126
51 204 126
51 204 126
52 203 126
53 202 126
53 202 126
54 201 126
55 200 126
55 200 126
56 199 126
56 199 126
57 198 126
58 197 126
58 197 126
59 196 126
60 195 126
60 195 126
61 194 126
62 193 126
62 193 126
63 192 126
63 191 126
64 191 126
65 190 126
65 190 126
66 189 126
67 188 126
67 188 126
68 187 126
69 186 126
69 186 126
70 185 126
71 184 126
71 184 126
72 183 126
72 183 126
73 182 126
74 181 126
74 181 126
75 180 126
76 179 126
76 179 126
77 178 126
78 177 126
78 177 126
79 176 126
79 175 126
80 175 126
81 174 126
81 174 126
82 173 126
83 172 126
83 172 126
84 171 126
85 170 126
85 170 126
86 169 126
87 168 126
87 168 126
88 167 126
88 167 126
89 166 126
90 165 126
90 165 126
91 164 126
92 163 126
92 163 126
93 162 126
94 161 126
94 161 126
95 160 126
95 159 126
96 159 126
97 158 126
97 158 126
98 157 126
99 156 126
99 156 126
100 155 126
101 154 126
101 154 126
102 153 126
103 152 126
103 152 126
104 151 126
104 151 126
105 150 126
106 149 126
106 149 126
107 148 126
108 147 126
108 147 126
109 146 126
110 145 126
110 145 126
111 144 126
111 143 126
112 143 126
113 142 126
113 142 126
114 141 126
115 140 126
115 140 126
116 139 126
117 138 126
117 138 126
118 137 126
119 136 126
119 136 126
120 135 126
120 135 126
121 134 126
122 133 126
122 133 126
123 132 126
124 131 126
124 131 126
125 130 126
126 129 126
126 129 126
127 128 126
127 127 126
128 127 126
129 126 126
129 126 126
130 125 126
131 124 126
131 124 126
132 123 126
133 122 126
133 122 126
134 121 126
135 120 126
135 120 126
136 119 126
136 119 126
137 118 126
138 117 126
138 117 126
139 116 126
140 115 126
140 115 126
141 114 126
142 113 126
142 113 126
143 112 126
143 111 126
144 111 126
145 110 126
145 110 126
146 109 126
147 108 126
147 108 126
148 107 126
149 106 126
149 106 126
150 105 126
151 104 126
151 104 126
152 103 126
152 103 126
153 102 126
154 101 126
154 101 126
155 100 126
156 99 126
156 99 126
157 98 126
158 97 126
158 97 126
159 96 126
159 95 126
160 95 126
161 94 126
161 94 126
162 93 126
163 92 126
163 92 126
164 91 126
165 90 126
165 90 126
166 89 126
167 88 126
167 88 126
168 87 126
168 87 126
169 86 126
170 85 126
170 85 126
171 84 126
172 83 126
172 83 126
173 82 126
174 81 126
174 81 126
175 80 126
175 79 126
176 79 126
177 78 126
177 78 126
178 77 126
179 76 126
179 76 126
180 75 126
181 74 126
181 74 126
182 73 126
183 72 126
183 72 126
184 71 126
184 71 126
185 70 126
186 69 126
186 69 126
187 68 126
188 67 126
188 67 126
189 66 126
190 65 126
190 65 126
191 64 126
191 63 126
192 63 126
193 62 126
193 62 126
194 61 126
195 60 126
195 60 126
196 59 126
197 58 126
197 58 126
198 57 126
199 56 126
199 56 126
200 55 126
200 55 126
201 54 126
202 53 126
202 53 126
203 52 126
204 51 126
204 51 126
205 50 126
206 49 126
206 49 126
207 48 126
207 47 126
208 47 126
209 46 126
209 46 126
210 45 126
211 44 126
211 44 126
212 43 126
213 42 126
213 42 126
214 41 126
215 40 126
215 40 126
216 39 126
216 39 126
217 38 126
218 37 126
218 37 126
219 36 126
220 35 126
220 35 126
221 34 126
222 33 126
222 33 126
223 32 126
223 31 126
224 31 126
225 30 126
225 30 126
226 29 126
227 28 126
227 28 126
228 27 126
229 26 126
229 26 126
230 25 126
231 24 126
231 24 126
232 23 126
232 23 126
233 22 126
234 21 126
234 21 126
235 20 126
236 19 126
236 19 126
237 18 126
238 17 126
238 17 126
239 16 126
239 15 126
240 15 126
241 14 126
241 14 126
242 13 126
243 12 126
243 12 126
244 11 126
245 10 126
245 10 126
246 9 126
247 8 126
247 8 126
248 7 126
248 7 126
249 6 126
250 5 126
250 5 126
251 4 126
252 3 126
252 3 126
253 2 126
254 1 126
254 1 126
255 0 126
0 255 127
0 255 127
1 254 127
1 254 127
2 253 127
3 252 127
3 252 127
4 251 127
5 250 127
5 250 127
6 249 127
7 248 127
7 248 127
8 247 127
8 247 127
9 246 127
10 245 127
10 245 127
11 244 127
12 243 127
12 243 127
13 242 127
14 241 127
14 241 127
15 240 127
15 239 127
16 239 127
17 238 127
17 238 127
18 237 127
19 236 127
19 236 127
20 235 127
21 234 127
21 234 127
22 233 127
23 232 127
23 232 127
24 231 127
24 231 127
25 230 127
26 229 127
26 229 127
27 228 127
28 227 127
28 227 127
29 226 127
30 225 127
30 225 127
31 224 127
31 223 127
32 223 127
33 222 127
33 222 127
34 221 127
35 220 127
35 220 127
36 219 127
37 218 127
37 218 127
38 217 127
39 216 127
39 216 127
40 215 127
40 215 127
41 214 127
42 213 127
42 213 127
43 212 127
44 211 127
44 211 127
45 210 127
46 209 127
46 209 127
47 208 127
47 207 127
48 207 127
49 206 127
49 206 127
50 205 127
51 204 127
51 204 127
52 203 127
53 202 127
53 202 127
54 201 127
55 200 127
55 200 127
56 199 127
56 199 127
57 198 127
58 197 127
58 197 127
59 196 127
60 195 127
60 195 127
61 194 127
62 193 127
62 193 127
63 192 127
63 191 127
64 191 127
65 190 127
65 190 127
66 189 127
67 188 127
67 188 127
68 187 127
69 186 127
69 186 127
70 185 127
71 184 127
71 184 127
72 183 127
72 183 127
73 182 127
74 181 127
74 181 127
75 180 127
76 179 127
76 179 127
77 178 127
78 177 127
78 177 127
79 176 127
79 175 127
80 175 127
81 174 127
81 174 127
82 173 127
83 172 127
83 172 127
84 171 127
85 170 127
85 170 127
86 169 127
87 168 127
87 168 127
88 167 127
88 167 127
89 166 127
90 165 127
90 165 127
91 164 127
92 163 127
92 163 127
93 162 127
94 161 127
94 161 127
95 160 127
95 159 127
96 159 127
97 158 127
97 158 127
98 157 127
99 156 127
99 156 127
100 155 127
101 154 127
101 154 127
102 153 127
103 152 127
103 152 127
104 151 127
104 151 127
105 150 127
106 149 127
106 149 127
107 148 127
108 147 127
108 147 127
109 146 127
110 145 127
110 145 127
111 144 127
111 143 127
112 143 127
113 142 127
113 142 127
114 141 127
115 140 127
115 140 127
116 139 127
117 138 127
117 138 127
118 137 127
119 136 127
119 136 127
120 135 127
120 135 127
121 134 127
122 133 127
122 133 127
123 132 127
124 131 127
124 131 127
125 130 127
126 129 127
126 129 127
127 128 127
127 127 127
128 127 127
129 126 127
129 126 127
130 125 127
131 124 127
131 124 127
132 123 127
133 122 127
133 122 127
134 121 127
135 120 127
135 120 127
136 119 127
136 119 127
137 118 127
138 117 127
138 117 127
139 116 127
140 115 127
140 115 127
141 114 127
142 113 127
142 113 127
143 112 127
143 111 127
144 111 127
145 110 127
145 110 127
146 109 127
147 108 127
147 108 127
148 107 127
149 106 127
149 106 127
150 105 127
151 104 127
151 104 127
152 103 127
152 103 127
153 102 127
154 101 127
154 101 127
155 100 127
156 99 127
156 99 127
157 98 127
158 97 127
158 97 127
159 96 127
159 95 127
160 95 127
161 94 127
161 94 127
162 93 127
163 92 127
163 92 127
164 91 127
165 90 127
165 90 127
166 89 127
167 88 127
167 88 127
168 87 127
168 87 127
169 86 127
170 85 127
170 85 127
171 84 127
172 83 127
172 83 127
173 82 127
174 81 127
174 81 127
175 80 127
175 79 127
176 79 127
177 78 127
177 78 127
178 77 127
179 76 127
179 76 127
180 75 127
181 74 127
181 74 127
182 73 127
183 72 127
183 72 127
184 71 127
184 71 127
185 70 127
186 69 127
186 69 127
187 68 127
188 67 127
188 67 127
189 66 127
190 65 127
190 65 127
191 64 127
191 63 127
192 63 127
193 62 127
193 62 127
194 61 127
195 60 127
195 60 127
196 59 127
197 58 127
197 58 127
198 57 127
199 56 127
199 56 127
200 55 127
200 55 127
201 54 127
202 53 127
202 53 127
203 52 127
204 51 127
204 51 127
205 50 127
206 49 127
206 49 127
207 48 127
207 47 127
208 47 127
209 46 127
209 46 127
210 45 127
211 44 127
211 44 127
212 43 127
213 42 127
213 42 127
214 41 127
215 40 127
215 40 127
216 39 127
216 39 127
217 38 127
218 37 127
218 37 127
219 36 127
220 35 127
220 35 127
221 34 127
222 33 127
222 33 127
223 32 127
223 31 127
224 31 127
225 30 127
225 30 127
226 29 127
227 28 127
227 28 127
228 27 127
229 26 127
229 26 127
230 25 127
231 24 127
231 24 127
232 23 127
232 23 127
233 22 127
234 21 127
234 21 127
235 20 127
236 19 127
236 19 127
237 18 127
238 17 127
238 17 127
239 16 127
239 15 127
240 15 127
241 14 127
241 14 127
242 13 127
243 12 127
243 12 127
244 11 127
245 10 127
245 10 127
246 9 127
247 8 127
247 8 127
248 7 127
248 7 127
249 6 127
250 5 127
250 5 127
251 4 127
252 3 127
252 3 127
253 2 127
254 1 127
254 1 127
255 0 127
0 255 128
0 255 128
1 254 128
1 254 128
2 253 128
3 252 128
3 252 128
4 251 128
5 250 128
5 250 128
6 249 128
7 248 128
7 248 128
8 247 128
8 247 128
9 246 128
10 245 128
10 245 128
11 244 128
12 243 128
12 243 128
13 242 128
14 241 128
14 241 128
15 240 128
15 239 128
16 239 128
17 238 128
17 238 128
18 237 128
19 236 128
19 236 128
20 235 128
21 234 128
21 234 128
22 233 128
23 232 128
23 232 128
24 231 128
24 231 128
25 230 128
26 229 128
26 229 128
27 228 128
28 227 128
28 227 128
29 226 128
30 225 128
30 225 128
31 224 128
31 223 128
32 223 128
33 222 128
33 222 128
34 221 128
35 220 128
35 220 128
36 219 128
37 218 128
37 218 128
38 217 128
39 216 128
39 216 128
40 215 128
40 215 128
41 214 128
42 213 128
42 213 128
43 212 128
44 211 128
44 211 128
45 210 128
46 209 128
46 209 128
47 208 128
47 207 128
48 207 128
49 206 128
49 206 128
50 205 128
51 204 128
51 204 128
52 203 128
53 202 128
53 202 128
54 201 128
55 200 128
55 200 128
56 199 128
56 199 128
57 198 128
58 197 128
58 197 128
59 196 128
60 195 128
60 195 128
61 194 128
62 193 128
62 193 128
63 192 128
63 191 128
64 191 128
65 190 128
65 190 128
66 189 128
67 188 128
67 188 128
68 187 128
69 186 128
69 186 128
70 185 128
71 184 128
71 184 128
72 183 128
72 183 128
73 182 128
74 181 128
74 181 128
75 180 128
76 179 128
76 179 128
77 178 128
78 177 128
78 177 128
79 176 128
79 175 128
80 175 128
81 174 128
81 174 128
82 173 128
83 172 128
83 172 128
84 171 128
85 170 128
85 170 128
86 169 128
87 168 128
87 168 128
88 167 128
88 167 128
89 166 128
90 165 128
90 165 128
91 164 128
92 163 128
92 163 128
93 162 128
94 161 128
94 161 128
95 160 128
95 159 128
96 159 128
97 158 128
97 158 128
98 157 128
99 156 128
99 156 128
100 155 128
101 154 128
101 154 128
102 153 128
103 152 128
103 152 128
104 151 128
104 151 128
105 150 128
106 149 128
106 149 128
107 148 128
108 147 128
108 147 128
109 146 128
110 145 128
110 145 128
111 144 128
111 143 128
112 143 128
113 142 128
113 142 128
114 141 128
115 140 128
115 140 128
116 139 128
117 138 128
117 138 128
118 137 128
119 136 128
119 136 128
120 135 128
120 135 128
121 134 128
122 133 128
122 133 128
123 132 128
124 131 128
124 131 128
125 130 128
126 129 128
126 129 128
127 128 128
127 127 128
128 127 128
129 126 128
129 126 128
130 125 128
131 124 128
131 124 128
132 123 128
133 122 128
133 122 128
134 121 128
135 120 128
135 120 128
136 119 128
136 119 128
137 118 128
138 117 128
138 117 128
139 116 128
140 115 128
140 115 128
141 114 128
142 113 128
142 113 128
143 112 128
143 111 128
144 111 128
145 110 128
145 110 128
146 109 128
147 108 128
147 108 128
148 107 128
149 106 128
149 106 128
150 105 128
151 104 128
151 104 128
152 103 128
152 103 128
153 102 128
154 101 128
154 101 128
155 100 128
156 99 128
156 99 128
157 98 128
158 97 128
158 97 128
159 96 128
159 95 128
160 95 128
161 94 128
161 94 128
162 93 128
163 92 128
163 92 128
164 91 128
165 90 128
165 90 128
166 89 128
167 88 128
167 88 128
168 87 128
168 87 128
169 86 128
170 85 128
170 85 128
171 84 128
172 83 128
172 83 128
173 82 128
174 81 128
174 81 128
175 80 128
175 79 128
176 79 128
177 78 128
177 78 128
178 77 128
179 76 128
179 76 128
180 75 128
181 74 128
181 74 128
182 73 128
183 72 128
183 72 128
184 71 128
184 71 128
185 70 128
186 69 128
186 69 128
187 68 128
188 67 128
188 67 128
189 66 128
190 65 128
190 65 128
191 64 128
191 63 128
192 63 128
193 62 128
193 62 128
194 61 128
195 60 128
195 60 128
196 59 128
197 58 128
197 58 128
198 57 128
199 56 128
199 56 128
200 55 128
200 55 128
201 54 128
202 53 128
202 53 128
203 52 128
204 51 128
204 51 128
205 50 128
206 49 128
206 49 128
207 48 128
207 47 128
208 47 128
209 46 128
209 46 128
210 45 128
211 44 128
211 44 128
212 43 128
213 42 128
213 42 128
214 41 128
215 40 128
215 40 128
216 39 128
216 39 128
217 38 128
218 37 128
218 37 128
219 36 128
220 35 128
220 35 128
221 34 128
222 33 128
222 33 128
223 32 128
223 31 128
224 31 128
225 30 128
225 30 128
226 29 128
227 28 128
227 28 128
228 27 128
229 26 128
229 26 128
230 25 128
231 24 128
231 24 128
232 23 128
232 23 128
233 22 128
234 21 128
234 21 128
235 20 128
236 19 128
236 19 128
237 18 128
238 17 128
238 17 128
239 16 128
239 15 128
240 15 128
241 14 128
241 14 128
242 13 128
243 12 128
243 12 128
244 11 128
245 10 128
245 10 128
246 9 128
247 8 128
247 8 128
248 7 128
248 7 128
249 6 128
250 5 128
250 5 128
251 4 128
252 3 128
252 3 128
253 2 128
254 1 128
254 1 128
255 0 128
0 255 129
0 255 129
1 254 129
1 254 129
2 253 129
3 252 129
3 252 129
4 251 129
5 250 129
5 250 129
6 249 129
7 248 129
7 248 129
8 247 129
8 247 129
9 246 129
10 245 129
10 245 129
11 244 129
12 243 129
12 243 129
13 242 129
14 241 129
14 241 129
15 240 129
15 239 129
16 239 129
17 238 129
17 238 129
18 237 129
19 236 129
19 236 129
20 235 129
21 234 129
21 234 129
22 233 129
23 232 129
23 232 129
24 231 129
24 231 129
25 230 129
26 229 129
26 229 129
27 228 129
28 227 129
28 227 129
29 226 129
30 225 129
30 225 129
31 224 129
31 223 129
32 223 129
33 222 129
33 222 129
34 221 129
35 220 129
35 220 129
36 219 129
37 218 129
37 218 129
38 217 129
39 216 129
39 216 129
40 215 129
40 215 129
41 214 129
42 213 129
42 213 129
43 212 129
44 211 129
44 211 129
45 210 129
46 209 129
46 209 129
47 208 129
47 207 129
48 207 129
49 206 129
49 206 129
50 205 129
51 204 129
51 204 129
52 203 129
53 202 129
53 202 129
54 201 129
55 200 129
55 200 129
56 199 129
56 199 129
57 198 129
58 197 129
58 197 129
59 196 129
60 195 129
60 195 129
61 194 129
62 193 129
62 193 129
63 192 129
63 191 129
64 191 129
65 190 129
65 190 129
66 189 129
67 188 129
67 188 129
68 187 129
69 186 129
69 186 129
70 185 129
71 184 129
71 184 129
72 183 129
72 183 129
73 182 129
74 181 129
74 181 129
75 180 129
76 179 129
76 179 129
77 178 129
78 177 129
78 177 129
79 176 129
79 175 129
80 175 129
81 174 129
81 174 129
82 173 129
83 172 129
83 172 129
84 171 129
85 170 129
85 170 129
86 169 129
87 168 129
87 168 129
88 167 129
88 167 129
89 166 129
90 165 129
90 165 129
91 164 129
92 163 129
92 163 129
93 162 129
94 161 129
94 161 129
95 160 129
95 159 129
96 159 129
97 158 129
97 158 129
98 157 129
99 156 129
99 156 129
100 155 129
101 154 129
101 154 129
102 153 129
103 152 129
103 152 129
104 151 129
104 151 129
105 150 129
106 149 129
106 149 129
107 148 129
108 147 129
108 147 129
109 146 129
110 145 129
110 145 129
111 144 129
111 143 129
112 143 129
113 142 129
113 142 129
114 141 129
115 140 129
115 140 129
116 139 129
117 138 129
117 138 129
118 137 129
119 136 129
119 136 129
120 135 129
120 135 129
121 134 129
122 133 129
122 133 129
123 132 129
124 131 129
124 131 129
125 130 129
126 129 129
126 129 129
127 128 129
127 127 129
128 127 129
129 126 129
129 126 129
130 125 129
131 124 129
131 124 129
132 123 129
133 122 129
133 122 129
134 121 129
135 120 129
135 120 129
136 119 129
136 119 129
137 118 129
138 117 129
138 117 129
139 116 129
140 115 129
140 115 129
141 114 129
142 113 129
142 113 129
143 112 129
143 111 129
144 111 129
145 110 129
145 110 129
146 109 129
147 108 129
147 108 129
148 107 129
149 106 129
149 106 129
150 105 129
151 104 129
151 104 129
152 103 129
152 103 129
153 102 129
154 101 129
154 101 129
155 100 129
156 99 129
156 99 129
157 98 129
158 97 129
158 97 129
159 96 129
159 95 129
160 95 129
161 94 129
161 94 129
162 93 129
163 92 129
163 92 129
164 91 129
165 90 129
165 90 129
166 89 129
167 88 129
167 88 129
168 87 129
168 87 129
169 86 129
170 85 129
170 85 129
171 84 129
172 83 129
172 83 129
173 82 129
174 81 129
174 81 129
175 80 129
175 79 129
176 79 129
177 78 129
177 78 129
178 77 129
179 76 129
179 76 129
180 75 129
181 74 129
181 74 129
182 73 129
183 72 129
183 72 129
184 71 129
184 71 129
185 70 129
186 69 129
186 69 129
187 68 129
188 67 129
188 67 129
189 66 129
190 65 129
190 65 129
191 64 129
191 63 129
192 63 129
193 62 129
193 62 129
194 61 129
195 60 129
195 60 129
196 59 129
197 58 129
197 58 129
198 57 129
199 56 129
199 56 129
200 55 129
200 55 129
201 54 129
202 53 129
202 53 129
203 52 129
204 51 129
204 51 129
205 50 129
206 49 129
206 49 129
207 48 129
207 47 129
208 47 129
209 46 129
209 46 129
210 45 129
211 44 129
211 44 129
212 43 129
213 42 129
213 42 129
214 41 129
215 40 129
215 40 129
216 39 129
216 39 129
217 38 129
218 37 129
218 37 129
219 36 129
220 35 129
220 35 129
221 34 129
222 33 129
222 33 129
223 32 129
223 31 129
224 31 129
225 30 129
225 30 129
226 29 129
227 28 129
227 28 129
228 27 129
229 26 129
229 26 129
230 25 129
231 24 129
231 24 129
232 23 129
232 23 129
233 22 129
234 21 129
234 21 129
235 20 129
236 19 129
236 19 129
237 18 129
238 17 129
238 17 129
239 16 129
239 15 129
240 15 129
241 14 129
241 14 129
242 13 129
243 12 129
243 12 129
244 11 129
245 10 129
245 10 129
246 9 129
247 8 129
247 8 129
248 7 129
248 7 129
249 6 129
250 5 129
250 5 129
251 4 129
252 3 129
252 3 129
253 2 129
254 1 129
254 1 129
255 0 129
0 255 130
0 255 130
1 254 130
1 254 130
2 253 130
3 252 130
3 252 130
4 251 130
5 250 130
5 250 130
6 249 130
7 248 130
7 248 130
8 247 130
8 247 130
9 246 130
10 245 130
10 245 130
11 244 130
12 243 130
12 243 130
13 242 130
14 241 130
14 241 130
15 240 130
15 239 130
16 239 130
17 238 130
17 238 130
18 237 130
19 236 130
19 236 130
20 235 130
21 234 130
21 234 130
22 233 130
23 232 130
23 232 130
24 231 130
24 231 130
25 230 130
26 229 130
26 229 130
27 228 130
28 227 130
28 227 130
29 226 130
30 225 130
30 225 130
31 224 130
31 223 130
32 223 130
33 222 130
33 222 130
34 221 130
35 220 130
35 220 130
36 219 130
37 218 130
37 218 130
38 217 130
39 216 130
39 216 130
40 215 130
40 215 130
41 214 130
42 213 130
42 213 130
43 212 130
44 211 130
44 211 130
45 210 130
46 209 130
46 209 130
47 208 130
47 207 130
48 207 130
49 206 130
49 206 130
50 205 130
51 204 130
51 204 130
52 203 130
53 202 130
53 202 130
54 201 130
55 200 130
55 200 130
56 199 130
56 199 130
57 198 130
58 197 130
58 197 130
59 196 130
60 195 130
60 195 130
61 194 130
62 193 130
62 193 130
63 192 130
63 191 130
64 191 130
65 190 130
65 190 130
66 189 130
67 188 130
67 188 130
68 187 130
69 186 130
69 186 130
70 185 130
71 184 130
71 184 130
72 183 130
72 183 130
73 182 130
74 181 130
74 181 130
75 180 130
76 179 130
76 179 130
77 178 130
78 177 130
78 177 130
79 176 130
79 175 130
80 175 130
81 174 130
81 174 130
82 173 130
83 172 130
83 172 130
84 171 130
85 170 130
85 170 130
86 169 130
87 168 130
87 168 130
88 167 130
88 167 130
89 166 130
90 165 130
90 165 130
91 164 130
92 163 130
92 163 130
93 162 130
94 161 130
94 161 130
95 160 130
95 159 130
96 159 130
97 158 130
97 158 130
98 157 130
99 156 130
99 156 130
100 155 130
101 154 130
101 154 130
102 153 130
103 152 130
103 152 130
104 151 130
104 151 130
105 150 130
106 149 130
106 149 130
107 148 130
108 147 130
108 147 130
109 146 130
110 145 130
110 145 130
111 144 130
111 143 130
112 143 130
113 142 130
113 142 130
114 141 130
115 140 130
115 140 130
116 139 130
117 138 130
117 138 130
118 137 130
119 136 130
119 136 130
120 135 130
120 135 130
121 134 130
122 133 130
122 133 130
123 132 130
124 131 130
124 131 130
125 130 130
126 129 130
126 129 130
127 128 130
127 127 130
128 127 130
129 126 130
129 126 130
130 125 130
131 124 130
131 124 130
132 123 130
133 122 130
133 122 130
134 121 130
135 120 130
135 120 130
136 119 130
136 119 130
137 118 130
138 117 130
138 117 130
139 116 130
140 115 130
140 115 130
141 114 130
142 113 130
142 113 130
143 112 130
143 111 130
144 111 130
145 110 130
145 110 130
146 109 130
147 108 130
147 108 130
148 107 130
149 106 130
149 106 130
150 105 130
151 104 130
151 104 130
152 103 130
152 103 130
153 102 130
154 101 130
154 101 130
155 100 130
156 99 130
156 99 130
157 98 130
158 97 130
158 97 130
159 96 130
159 95 130
160 95 130
161 94 130
161 94 130
162 93 130
163 92 130
163 92 130
164 91 130
165 90 130
165 90 130
166 89 130
167 88 130
167 88 130
168 87 130
168 87 130
169 86 130
170 85 130
170 85 130
171 84 130
172 83 130
172 83 130
173 82 130
174 81 130
174 81 130
175 80 130
175 79 130
176 79 130
177 78 130
177 78 130
178 77 130
179 76 130
179 76 130
180 75 130
181 74 130
181 74 130
182 73 130
183 72 130
183 72 130
184 71 130
184 71 130
185 70 130
186 69 130
186 69 130
187 68 130
188 67 130
188 67 130
189 66 130
190 65 130
190 65 130
191 64 130
191 63 130
192 63 130
193 62 130
193 62 130
194 61 130
195 60 130
195 60 130
196 59 130
197 58 130
197 58 130
198 57 130
199 56 130
199 56 130
200 55 130
200 55 130
201 54 130
202 53 130
202 53 130
203 52 130
204 51 130
204 51 130
205 50 130
206 49 130
206 49 130
207 48 130
207 47 130
208 47 130
209 46 130
209 46 130
210 45 130
211 44 130
211 44 130
212 43 130
213 42 130
213 42 130
214 41 130
215 40 130
215 40 130
216 39 130
216 39 130
217 38 130
218 37 130
218 37 130
219 36 130
220 35 130
220 35 130
221 34 130
222 33 130
222 33 130
223 32 130
223 31 130
224 31 130
225 30 130
225 30 130
226 29 130
227 28 130
227 28 130
228 27 130
229 26 130
229 26 130
230 25 130
231 24 130
231 24 130
232 23 130
232 23 130
233 22 130
234 21 130
234 21 130
235 20 130
236 19 130
236 19 130
237 18 130
238 17 130
238 17 130
239 16 130
239 15 130
240 15 130
241 14 130
241 14 130
242 13 130
243 12 130
243 12 130
244 11 130
245 10 130
245 10 130
246 9 130
247 8 130
247 8 130
248 7 130
248 7 130
249 6 130
250 5 130
250 5 130
251 4 130
252 3 130
252 3 130
253 2 130
254 1 130
254 1 130
255 0 130
0 255 131
0 255 131
1 254 131
1 254 131
2 253 131
3 252 131
3 252 131
4 251 131
5 250 131
5 250 131
6 249 131
7 248 131
7 248 131
8 247 131
8 247 131
9 246 131
10 245 131
10 245 131
11 244 131
12 243 131
12 243 131
13 242 131
14 241 131
14 241 131
15 240 131
15 239 131
16 239 131
17 238 131
17 238 131
18 237 131
19 236 131
19 236 131
20 235 131
21 234 131
21 234 131
22 233 131
23 232 131
23 232 131
24 231 131
24 231 131
25 230 131
26 229 131
26 229 131
27 228 131
28 227 131
28 227 131
29 226 131
30 225 131
30 225 131
31 224 131
31 223 131
32 223 131
33 222 131
33 222 131
34 221 131
35 220 131
35 220 131
36 219 131
37 218 131
37 218 131
38 217 131
39 216 131
39 216 131
40 215 131
40 215 131
41 214 131
42 213 131
42 213 131
43 212 131
44 211 131
44 211 131
45 210 131
46 209 131
46 209 131
47 208 131
47 207 131
48 207 131
49 206 131
49 206 131
50 205 131
51 204 131
51 204 131
52 203 131
53 202 131
53 202 131
54 201 131
55 200 131
55 200 131
56 199 131
56 199 131
57 198 131
58 197 131
58 197 131
59 196 131
60 195 131
60 195 131
61 194 131
62 193 131
62 193 131
63 192 131
63 191 131
64 191 131
65 190 131
65 190 131
66 189 131
67 188 131
67 188 131
68 187 131
69 186 131
69 186 131
70 185 131
71 184 131
71 184 131
72 183 131
72 183 131
73 182 131
74 181 131
74 181 131
75 180 131
76 179 131
76 179 131
77 178 131
78 177 131
78 177 131
79 176 131
79 175 131
80 175 131
81 174 131
81 174 131
82 173 131
83 172 131
83 172 131
84 171 131
85 170 131
85 170 131
86 169 131
87 168 131
87 168 131
88 167 131
88 167 131
89 166 131
90 165 131
90 165 131
91 164 131
92 163 131
92 163 131
93 162 131
94 161 131
94 161 131
95 160 131
95 159 131
96 159 131
97 158 131
97 158 131
98 157 131
99 156 131
99 156 131
100 155 131
101 154 131
101 154 131
102 153 131
103 152 131
103 152 131
104 151 131
104 151 131
105 150 131
106 149 131
106 149 131
107 148 131
108 147 131
108 147 131
109 146 131
110 145 131
110 145 131
111 144 131
111 143 131
112 143 131
113 142 131
113 142 131
114 141 131
115 140 131
115 140 131
116 139 131
117 138 131
117 138 131
118 137 131
119 136 131
119 136 131
120 135 131
120 135 131
121 134 131
122 133 131
122 133 131
123 132 131
124 131 131
124 131 131
125 130 131
126 129 131
126 129 131
127 128 131
127 127 131
128 127 131
129 126 131
129 126 131
130 125 131
131 124 131
131 124 131
132 123 131
133 122 131
133 122 131
134 121 131
135 120 131
135 120 131
136 119 131
136 119 131
137 118 131
138 117 131
138 117 131
139 116 131
140 115 131
140 115 131
141 114 131
142 113 131
142 113 131
143 112 131
143 111 131
144 111 131
145 110 131
145 110 131
146 109 131
147 108 131
147 108 131
148 107 131
149 106 131
149 106 131
150 105 131
151 104 131
151 104 131
152 103 131
152 103 131
153 102 131
154 101 131
154 101 131
155 100 131
156 99 131
156 99 131
157 98 131
158 97 131
158 97 131
159 96 131
159 95 131
160 95 131
161 94 131
161 94 131
162 93 131
163 92 131
163 92 131
164 91 131
165 90 131
165 90 131
166 89 131
167 88 131
167 88 131
168 87 131
168 87 131
169 86 131
170 85 131
170 85 131
171 84 131
172 83 131
172 83 131
173 82 131
174 81 131
174 81 131
175 80 131
175 79 131
176 79 131
177 78 131
177 78 131
178 77 131
179 76 131
179 76 131
180 75 131
181 74 131
181 74 131
182 73 131
183 72 131
183 72 131
184 71 131
184 71 131
185 70 131
186 69 131
186 69 131
187 68 131
188 67 131
188 67 131
189 66 131
190 65 131
190 65 131
191 64 131
191 63 131
192 63 131
193 62 131
193 62 131
194 61 131
195 60 131
195 60 131
196 59 131
197 58 131
197 58 131
198 57 131
199 56 131
199 56 131
200 55 131
200 55 131
201 54 131
202 53 131
202 53 131
203 52 131
204 51 131
204 51 131
205 50 131
206 49 131
206 49 131
207 48 131
207 47 131
208 47 131
209 46 131
209 46 131
210 45 131
211 44 131
211 44 131
212 43 131
213 42 131
213 42 131
214 41 131
215 40 131
215 40 131
216 39 131
216 39 131
217 38 131
218 37 131
218 37 131
219 36 131
220 35 131
220 35 131
221 34 131
222 33 131
222 33 131
223 32 131
223 31 131
224 31 131
225 30 131
225 30 131
226 29 131
227 28 131
227 28 131
228 27 131
229 26 131
229 26 131
230 25 131
231 24 131
231 24 131
232 23 131
232 23 131
233 22 131
234 21 131
234 21 131
235 20 131
236 19 131
236 19 131
237 18 131
238 17 131
238 17 131
239 16 131
239 15 131
240 15 131
241 14 131
241 14 131
242 13 131
243 12 131
243 12 131
244 11 131
245 10 131
245 10 131
246 9 131
247 8 131
247 8 131
248 7 131
248 7 131
249 6 131
250 5 131
250 5 131
251 4 131
252 3 131
252 3 131
253 2 131
254 1 131
254 1 131
255 0 131
0 255 133
0 255 133
1 254 133
1 254 133
2 253 133
3 252 133
3 252 133
4 251 133
5 250 133
5 250 133
6 249 133
7 248 133
7 248 133
8 247 133
8 247 133
9 246 133
10 245 133
10 245 133
11 244 133
12 243 133
12 243 133
13 242 133
14 241 133
14 241 133
15 240 133
15 239 133
16 239 133
17 238 133
17 238 133
18 237 133
19 236 133
19 236 133
20 235 133
21 234 133
21 234 133
22 233 133
23 232 133
23 232 133
24 231 133
24 231 133
25 230 133
26 229 133
26 229 133
27 228 133
28 227 133
28 227 133
29 226 133
30 225 133
30 225 133
31 224 133
31 223 133
32 223 133
33 222 133
33 222 133
34 221 133
35 220 133
35 220 133
36 219 133
37 218 133
37 218 133
38 217 133
39 216 133
39 216 133
40 215 133
40 215 133
41 214 133
42 213 133
42 213 133
43 212 133
44 211 133
44 211 133
45 210 133
46 209 133
46 209 133
47 208 133
47 207 133
48 207 133
49 206 133
49 206 133
50 205 133
51 204 133
51 204 133
52 203 133
53 202 133
53 202 133
54 201 133
55 200 133
55 200 133
56 199 133
56 199 133
57 198 133
58 197 133
58 197 133
59 196 133
60 195 133
60 195 133
61 194 133
62 193 133
62 193 133
63 192 133
63 191 133
64 191 133
65 190 133
65 190 133
66 189 133
67 188 133
67 188 133
68 187 133
69 186 133
69 186 133
70 185 133
71 184 133
71 184 133
72 183 133
72 183 133
73 182 133
74 181 133
74 181 133
75 180 133
76 179 133
76 179 133
77 178 133
78 177 133
78 177 133
79 176 133
79 175 133
80 175 133
81 174 133
81 174 133
82 173 133
83 172 133
83 172 133
84 171 133
85 170 133
85 170 133
86 169 133
87 168 133
87 168 133
88 167 133
88 167 133
89 166 133
90 165 133
90 165 133
91 164 133
92 163 133
92 163 133
93 162 133
94 161 133
94 161 133
95 160 133
95 159 133
96 159 133
97 158 133
97 158 133
98 157 133
99 156 133
99 156 133
100 155 133
101 154 133
101 154 133
102 153 133
103 152 133
103 152 133
104 151 133
104 151 133
105 150 133
106 149 133
106 149 133
107 148 133
108 147 133
108 147 133
109 146 133
110 145 133
110 145 133
111 144 133
111 143 133
112 143 133
113 142 133
113 142 133
114 141 133
115 140 133
115 140 133
116 139 133
117 138 133
117 138 133
118 137 133
119 136 133
119 136 133
120 135 133
120 135 133
121 134 133
122 133 133
122 133 133
123 132 133
124 131 133
124 131 133
125 130 133
126 129 133
126 129 133
127 128 133
127 127 133
128 127 133
129 126 133
129 126 133
130 125 133
131 124 133
131 124 133
132 123 133
133 122 133
133 122 133
134 121 133
135 120 133
135 120 133
136 119 133
136 119 133
137 118 133
138 117 133
138 117 133
139 116 133
140 115 133
140 115 133
141 114 133
142 113 133
142 113 133
143 112 133
143 111 133
144 111 133
145 110 133
145 110 133
146 109 133
147 108 133
147 108 133
148 107 133
149 106 133
149 106 133
150 105 133
151 104 133
151 104 133
152 103 133
152 103 133
153 102 133
154 101 133
154 101 133
155 100 133
156 99 133
156 99 133
157 98 133
158 97 133
158 97 133
159 96 133
159 95 133
160 95 133
161 94 133
161 94 133
162 93 133
163 92 133
163 92 133
164 91 133
165 90 133
165 90 133
166 89 133
167 88 133
167 88 133
168 87 133
168 87 133
169 86 133
170 85 133
170 85 133
171 84 133
172 83 133
172 83 133
173 82 133
174 81 133
174 81 133
175 80 133
175 79 133
176 79 133
177 78 133
177 78 133
178 77 133
179 76 133
179 76 133
180 75 133
181 74 133
181 74 133
182 73 133
183 72 133
183 72 133
184 71 133
184 71 133
185 70 133
186 69 133
186 69 133
187 68 133
188 67 133
188 67 133
189 66 133
190 65 133
190 65 133
191 64 133
191 63 133
192 63 133
193 62 133
193 62 133
194 61 133
195 60 133
195 60 133
196 59 133
197 58 133
197 58 133
198 57 133
199 56 133
199 56 133
200 55 133
200 55 133
201 54 133
202 53 133
202 53 133
203 52 133
204 51 133
204 51 133
205 50 133
206 49 133
206 49 133
207 48 133
207 47 133
208 47 133
209 46 133
209 46 133
210 45 133
211 44 133
211 44 133
212 43 133
213 42 133
213 42 133
214 41 133
215 40 133
215 40 133
216 39 133
216 39 133
217 38 133
218 37 133
218 37 133
219 36 133
220 35 133
220 35 133
221 34 133
222 33 133
222 33 133
223 32 133
223 31 133
224 31 133
225 30 133
225 30 133
226 29 133
227 28 133
227 28 133
228 27 133
229 26 133
229 26 133
230 25 133
231 24 133
231 24 133
232 23 133
232 23 133
233 22 133
234 21 133
234 21 133
235 20 133
236 19 133
236 19 133
237 18 133
238 17 133
238 17 133
239 16 133
239 15 133
240 15 133
241 14 133
241 14 133
242 13 133
243 12 133
243 12 133
244 11 133
245 10 133
245 10 133
246 9 133
247 8 133
247 8 133
248 7 133
248 7 133
249 6 133
250 5 133
250 5 133
251 4 133
252 3 133
252 3 133
253 2 133
254 1 133
254 1 133
255 0 133
0 255 134
0 255 134
1 254 134
1 254 134
2 253 134
3 252 134
3 252 134
4 251 134
5 250 134
5 250 134
6 249 134
7 248 134
7 248 134
8 247 134
8 247 134
9 246 134
10 245 134
10 245 134
11 244 134
12 243 134
12 243 134
13 242 134
14 241 134
14 241 134
15 240 134
15 239 134
16 239 134
17 238 134
17 238 134
18 237 134
19 236 134
19 236 134
20 235 134
21 234 134
21 234 134
22 233 134
23 232 134
23 232 134
24 231 134
24 231 134
25 230 134
26 229 134
26 229 134
27 228 134
28 227 134
28 227 134
29 226 134
30 225 134
30 225 134
31 224 134
31 223 134
32 223 134
33 222 134
33 222 134
34 221 134
35 220 134
35 220 134
36 219 134
37 218 134
37 218 134
38 217 134
39 216 134
39 216 134
40 215 134
40 215 134
41 214 134
42 213 134
42 213 134
43 212 134
44 211 134
44 211 134
45 210 134
46 209 134
46 209 134
47 208 134
47 207 134
48 207 134
49 206 134
49 206 134
50 205 134
51 204 134
51 204 134
52 203 134
53 202 134
53 202 134
54 201 134
55 200 134
55 200 134
56 199 134
56 199 134
57 198 134
58 197 134
58 197 134
59 196 134
60 195 134
60 195 134
61 194 134
62 193 134
62 193 134
63 192 134
63 191 134
64 191 134
65 190 134
65 190 134
66 189 134
67 188 134
67 188 134
68 187 134
69 186 134
69 186 134
70 185 134
71 184 134
71 184 134
72 183 134
72 183 134
73 182 134
74 181 134
74 181 134
75 180 134
76 179 134
76 179 134
77 178 134
78 177 134
78 177 134
79 176 134
79 175 134
80 175 134
81 174 134
81 174 134
82 173 134
83 172 134
83 172 134
84 171 134
85 170 134
85 170 134
86 169 134
87 168 134
87 168 134
88 167 134
88 167 134
89 166 134
90 165 134
90 165 134
91 164 134
92 163 134
92 163 134
93 162 134
94 161 134
94 161 134
95 160 134
95 159 134
96 159 134
97 158 134
97 158 134
98 157 134
99 156 134
99 156 134
100 155 134
101 154 134
101 154 134
102 153 134
103 152 134
103 152 134
104 151 134
104 151 134
105 150 134
106 149 134
106 149 134
107 148 134
108 147 134
108 147 134
109 146 134
110 145 134
110 145 134
111 144 134
111 143 134
112 143 134
113 142 134
113 142 134
114 141 134
115 140 134
115 140 134
116 139 134
117 138 134
117 138 134
118 137 134
119 136 134
119 136 134
120 135 134
120 135 134
121 134 134
122 133 134
122 133 134
123 132 134
124 131 134
124 131 134
125 130 134
126 129 134
126 129 134
127 128 134
127 127 134
128 127 134
129 126 134
129 126 134
130 125 134
131 124 134
131 124 134
132 123 134
133 122 134
133 122 134
134 121 134
135 120 134
135 120 134
136 119 134
136 119 134
137 118 134
138 117 134
138 117 134
139 116 134
140 115 134
140 115 134
141 114 134
142 113 134
142 113 134
143 112 134
143 111 134
144 111 134
145 110 134
145 110 134
146 109 134
147 108 134
147 108 134
148 107 134
149 106 134
149 106 134
150 105 134
151 104 134
151 104 134
152 103 134
152 103 134
153 102 134
154 101 134
154 101 134
155 100 134
156 99 134
156 99 134
157 98 134
158 97 134
158 97 134
159 96 134
159 95 134
160 95 134
161 94 134
161 94 134
162 93 134
163 92 134
163 92 134
164 91 134
165 90 134
165 90 134
166 89 134
167 88 134
167 88 134
168 87 134
168 87 134
169 86 134
170 85 134
170 85 134
171 84 134
172 83 134
172 83 134
173 82 134
174 81 134
174 81 134
175 80 134
175 79 134
176 79 134
177 78 134
177 78 134
178 77 134
179 76 134
179 76 134
180 75 134
181 74 134
181 74 134
182 73 134
183 72 134
183 72 134
184 71 134
184 71 134
185 70 134
186 69 134
186 69 134
187 68 134
188 67 134
188 67 134
189 66 134
190 65 134
190 65 134
191 64 134
191 63 134
192 63 134
193 62 134
193 62 134
194 61 134
195 60 134
195 60 134
196 59 134
197 58 134
197 58 134
198 57 134
199 56 134
199 56 134
200 55 134
200 55 134
201 54 134
202 53 134
202 53 134
203 52 134
204 51 134
204 51 134
205 50 134
206 49 134
206 49 134
207 48 134
207 47 134
208 47 134
209 46 134
209 46 134
210 45 134
211 44 134
211 44 134
212 43 134
213 42 134
213 42 134
214 41 134
215 40 134
215 40 134
216 39 134
216 39 134
217 38 134
218 37 134
218 37 134
219 36 134
220 35 134
220 35 134
221 34 134
222 33 134
222 33 134
223 32 134
223 31 134
224 31 134
225 30 134
225 30 134
226 29 134
227 28 134
227 28 134
228 27 134
229 26 134
229 26 134
230 25 134
231 24 134
231 24 134
232 23 134
232 23 134
233 22 134
234 21 134
234 21 134
235 20 134
236 19 134
236 19 134
237 18 134
238 17 134
238 17 134
239 16 134
239 15 134
240 15 134
241 14 134
241 14 134
242 13 134
243 12 134
243 12 134
244 11 134
245 10 134
245 10 134
246 9 134
247 8 134
247 8 134
248 7 134
248 7 134
249 6 134
250 5 134
250 5 134
251 4 134
252 3 134
252 3 134
253 2 134
254 1 134
254 1 134
255 0 134
0 255 135
0 255 135
1 254 135
1 254 135
2 253 135
3 252 135
3 252 135
4 251 135
5 250 135
5 250 135
6 249 135
7 248 135
7 248 135
8 247 135
8 247 135
9 246 135
10 245 135
10 245 135
11 244 135
12 243 135
12 243 135
13 242 135
14 241 135
14 241 135
15 240 135
15 239 135
16 239 135
17 238 135
17 238 135
18 237 135
19 236 135
19 236 135
20 235 135
21 234 135
21 234 135
22 233 135
23 232 135
23 232 135
24 231 135
24 231 135
25 230 135
26 229 135
26 229 135
27 228 135
28 227 135
28 227 135
29 226 135
30 225 135
30 225 135
31 224 135
31 223 135
32 223 135
33 222 135
33 222 135
34 221 135
35 220 135
35 220 135
36 219 135
37 218 135
37 218 135
38 217 135
39 216 135
39 216 135
40 215 135
40 215 135
41 214 135
42 213 135
42 213 135
43 212 135
44 211 135
44 211 135
45 210 135
46 209 135
46 209 135
47 208 135
47 207 135
48 207 135
49 206 135
49 206 135
50 205 135
51 204 135
51 204 135
52 203 135
53 202 135
53 202 135
54 201 135
55 200 135
55 200 135
56 199 135
56 199 135
57 198 135
58 197 135
58 197 135
59 196 135
60 195 135
60 195 135
61 194 135
62 193 135
62 193 135
63 192 135
63 191 135
64 191 135
65 190 135
65 190 135
66 189 135
67 188 135
67 188 135
68 187 135
69 186 135
69 186 135
70 185 135
71 184 135
71 184 135
72 183 135
72 183 135
73 182 135
74 181 135
74 181 135
75 180 135
76 179 135
76 179 135
77 178 135
78 177 135
78 177 135
79 176 135
79 175 135
80 175 135
81 174 135
81 174 135
82 173 135
83 172 135
83 172 135
84 171 135
85 170 135
85 170 135
86 169 135
87 168 135
87 168 135
88 167 135
88 167 135
89 166 135
90 165 135
90 165 135
91 164 135
92 163 135
92 163 135
93 162 135
94 161 135
94 161 135
95 160 135
95 159 135
96 159 135
97 158 135
97 158 135
98 157 135
99 156 135
99 156 135
100 155 135
101 154 135
101 154 135
102 153 135
103 152 135
103 152 135
104 151 135
104 151 135
105 150 135
106 149 135
106 149 135
107 148 135
108 147 135
108 147 135
109 146 135
110 145 135
110 145 135
111 144 135
111 143 135
112 143 135
113 142 135
113 142 135
114 141 135
115 140 135
115 140 135
116 139 135
117 138 135
117 138 135
118 137 135
119 136 135
119 136 135
120 135 135
120 135 135
121 134 135
122 133 135
122 133 135
123 132 135
124 131 135
124 131 135
125 130 135
126 129 135
126 129 135
127 128 135
127 127 135
128 127 135
129 126 135
129 126 135
130 125 135
131 124 135
131 124 135
132 123 135
133 122 135
133 122 135
134 121 135
135 120 135
135 120 135
136 119 135
136 119 135
137 118 135
138 117 135
138 117 135
139 116 135
140 115 135
140 115 135
141 114 135
142 113 135
142 113 135
143 112 135
143 111 135
144 111 135
145 110 135
145 110 135
146 109 135
147 108 135
147 108 135
148 107 135
149 106 135
149 106 135
150 105 135
151 104 135
151 104 135
152 103 135
152 103 135
153 102 135
154 101 135
154 101 135
155 100 135
156 99 135
156 99 135
157 98 135
158 97 135
158 97 135
159 96 135
159 95 135
160 95 135
161 94 135
161 94 135
162 93 135
163 92 135
163 92 135
164 91 135
165 90 135
165 90 135
166 89 135
167 88 135
167 88 135
168 87 135
168 87 135
169 86 135
170 85 135
170 85 135
171 84 135
172 83 135
172 83 135
173 82 135
174 81 135
174 81 135
175 80 135
175 79 135
176 79 135
177 78 135
177 78 135
178 77 135
179 76 135
179 76 135
180 75 135
181 74 135
181 74 135
182 73 135
183 72 135
183 72 135
184 71 135
184 71 135
185 70 135
186 69 135
186 69 135
187 68 135
188 67 135
188 67 135
189 66 135
190 65 135
190 65 135
191 64 135
191 63 135
192 63 135
193 62 135
193 62 135
194 61 135
195 60 135
195 60 135
196 59 135
197 58 135
197 58 135
198 57 135
199 56 135
199 56 135
200 55 135
200 55 135
201 54 135
202 53 135
202 53 135
203 52 135
204 51 135
204 51 135
205 50 135
206 49 135
206 49 135
207 48 135
207 47 135
208 47 135
209 46 135
209 46 135
210 45 135
211 44 135
211 44 135
212 43 135
213 42 135
213 42 135
214 41 135
215 40 135
215 40 135
216 39 135
216 39 135
217 38 135
218 37 135
218 37 135
219 36 135
220 35 135
220 35 135
221 34 135
222 33 135
222 33 135
223 32 135
223 31 135
224 31 135
225 30 135
225 30 135
226 29 135
227 28 135
227 28 135
228 27 135
229 26 135
229 26 135
230 25 135
231 24 135
231 24 135
232 23 135
232 23 135
233 22 135
234 21 135
234 21 135
235 20 135
236 19 135
236 19 135
237 18 135
238 17 135
238 17 135
239 16 135
239 15 135
240 15 135
241 14 135
241 14 135
242 13 135
243 12 135
243 12 135
244 11 135
245 10 135
245 10 135
246 9 135
247 8 135
247 8 135
248 7 135
248 7 135
249 6 135
250 5 135
250 5 135
251 4 135
252 3 135
252 3 135
253 2 135
254 1 135
254 1 135
255 0 135
0 255 136
0 255 136
1 254 136
1 254 136
2 253 136
3 252 136
3 252 136
4 251 136
5 250 136
5 250 136
6 249 136
7 248 136
7 248 136
8 247 136
8 247 136
9 246 136
10 245 136
10 245 136
11 244 136
12 243 136
12 243 136
13 242 136
14 241 136
14 241 136
15 240 136
15 239 136
16 239 136
17 238 136
17 238 136
18 237 136
19 236 136
19 236 136
20 235 136
21 234 136
21 234 136
22 233 136
23 232 136
23 232 136
24 231 136
24 231 136
25 230 136
26 229 136
26 229 136
27 228 136
28 227 136
28 227 136
29 226 136
30 225 136
30 225 136
31 224 136
31 223 136
32 223 136
33 222 136
33 222 136
34 221 136
35 220 136
35 220 136
36 219 136
37 218 136
37 218 136
38 217 136
39 216 136
39 216 136
40 215 136
40 215 136
41 214 136
42 213 136
42 213 136
43 212 136
44 211 136
44 211 136
45 210 136
46 209 136
46 209 136
47 208 136
47 207 136
48 207 136
49 206 136
49 206 136
50 205 136
51 204 136
51 204 136
52 203 136
53 202 136
53 202 136
54 201 136
55 200 136
55 200 136
56 199 136
56 199 136
57 198 136
58 197 136
58 197 136
59 196 136
60 195 136
60 195 136
61 194 136
62 193 136
62 193 136
63 192 136
63 191 136
64 191 136
65 190 136
65 190 136
66 189 136
67 188 136
67 188 136
68 187 136
69 186 136
69 186 136
70 185 136
71 184 136
71 184 136
72 183 136
72 183 136
73 182 136
74 181 136
74 181 136
75 180 136
76 179 136
76 179 136
77 178 136
78 177 136
78 177 136
79 176 136
79 175 136
80 175 136
81 174 136
81 174 136
82 173 136
83 172 136
83 172 136
84 171 136
85 170 136
85 170 136
86 169 136
87 168 136
87 168 136
88 167 136
88 167 136
89 166 136
90 165 136
90 165 136
91 164 136
92 163 136
92 163 136
93 162 136
94 161 136
94 161 136
95 160 136
95 159 136
96 159 136
97 158 136
97 158 136
98 157 136
99 156 136
99 156 136
100 155 136
101 154 136
101 154 136
102 153 136
103 152 136
103 152 136
104 151 136
104 151 136
105 150 136
106 149 136
106 149 136
107 148 136
108 147 136
108 147 136
109 146 136
110 145 136
110 145 136
111 144 136
111 143 136
112 143 136
113 142 136
113 142 136
114 141 136
115 140 136
115 140 136
116 139 136
117 138 136
117 138 136
118 137 136
119 136 136
119 136 136
120 135 136
120 135 136
121 134 136
122 133 136
122 133 136
123 132 136
124 131 136
124 131 136
125 130 136
126 129 136
126 129 136
127 128 136
127 127 136
128 127 136
129 126 136
129 126 136
130 125 136
131 124 136
131 124 136
132 123 136
133 122 136
133 122 136
134 121 136
135 120 136
135 120 136
136 119 136
136 119 136
137 118 136
138 117 136
138 117 136
139 116 136
140 115 136
140 115 136
141 114 136
142 113 136
142 113 136
143 112 136
143 111 136
144 111 136
145 110 136
145 110 136
146 109 136
147 108 136
147 108 136
148 107 136
149 106 136
149 106 136
150 105 136
151 104 136
151 104 136
152 103 136
152 103 136
153 102 136
154 101 136
154 101 136
155 100 136
156 99 136
156 99 136
157 98 136
158 97 136
158 97 136
159 96 136
159 95 136
160 95 136
161 94 136
161 94 136
162 93 136
163 92 136
163 92 136
164 91 136
165 90 136
165 90 136
166 89 136
167 88 136
167 88 136
168 87 136
168 87 136
169 86 136
170 85 136
170 85 136
171 84 136
172 83 136
172 83 136
173 82 136
174 81 136
174 81 136
175 80 136
175 79 136
176 79 136
177 78 136
177 78 136
178 77 136
179 76 136
179 76 136
180 75 136
181 74 136
181 74 136
182 73 136
183 72 136
183 72 136
184 71 136
184 71 136
185 70 136
186 69 136
186 69 136
187 68 136
188 67 136
188 67 136
189 66 136
190 65 136
190 65 136
191 64 136
191 63 136
192 63 136
193 62 136
193 62 136
194 61 136
195 60 136
195 60 136
196 59 136
197 58 136
197 58 136
198 57 136
199 56 136
199 56 136
200 55 136
200 55 136
201 54 136
202 53 136
202 53 136
203 52 136
204 51 136
204 51 136
205 50 136
206 49 136
206 49 136
207 48 136
207 47 136
208 47 136
209 46 136
209 46 136
210 45 136
211 44 136
211 44 136
212 43 136
213 42 136
213 42 136
214 41 136
215 40 136
215 40 136
216 39 136
216 39 136
217 38 136
218 37 136
218 37 136
219 36 136
220 35 136
220 35 136
221 34 136
222 33 136
222 33 136
223 32 136
223 31 136
224 31 136
225 30 136
225 30 136
226 29 136
227 28 136
227 28 136
228 27 136
229 26 136
229 26 136
230 25 136
231 24 136
231 24 136
232 23 136
232 23 136
233 22 136
234 21 136
234 21 136
235 20 136
236 19 136
236 19 136
237 18 136
238 17 136
238 17 136
239 16 136
239 15 136
240 15 136
241 14 136
241 14 136
242 13 136
243 12 136
243 12 136
244 11 136
245 10 136
245 10 136
246 9 136
247 8 136
247 8 136
248 7 136
248 7 136
249 6 136
250 5 136
250 5 136
251 4 136
252 3 136
252 3 136
253 2 136
254 1 136
254 1 136
255 0 136
0 255 137
0 255 137
1 254 137
1 254 137
2 253 137
3 252 137
3 252 137
4 251 137
5 250 137
5 250 137
6 249 137
7 248 137
7 248 137
8 247 137
8 247 137
9 246 137
10 245 137
10 245 137
11 244 137
12 243 137
12 243 137
13 242 137
14 241 137
14 241 137
15 240 137
15 239 137
16 239 137
17 238 137
17 238 137
18 237 137
19 236 137
19 236 137
20 235 137
21 234 137
21 234 137
22 233 137
23 232 137
23 232 137
24 231 137
24 231 137
25 230 137
26 229 137
26 229 137
27 228 137
28 227 137
28 227 137
29 226 137
30 225 137
30 225 137
31 224 137
31 223 137
32 223 137
33 222 137
33 222 137
34 221 137
35 220 137
35 220 137
36 219 137
37 218 137
37 218 137
38 217 137
39 216 137
39 216 137
40 215 137
40 215 137
41 214 137
42 213 137
42 213 137
43 212 137
44 211 137
44 211 137
45 210 137
46 209 137
46 209 137
47 208 137
47 207 137
48 207 137
49 206 137
49 206 137
50 205 137
51 204 137
51 204 137
52 203 137
53 202 137
53 202 137
54 201 137
55 200 137
55 200 137
56 199 137
56 199 137
57 198 137
58 197 137
58 197 137
59 196 137
60 195 137
60 195 137
61 194 137
62 193 137
62 193 137
63 192 137
63 191 137
64 191 137
65 190 137
65 190 137
66 189 137
67 188 137
67 188 137
68 187 137
69 186 137
69 186 137
70 185 137
71 184 137
71 184 137
72 183 137
72 183 137
73 182 137
74 181 137
74 181 137
75 180 137
76 179 137
76 179 137
77 178 137
78 177 137
78 177 137
79 176 137
79 175 137
80 175 137
81 174 137
81 174 137
82 173 137
83 172 137
83 172 137
84 171 137
85 170 137
85 170 137
86 169 137
87 168 137
87 168 137
88 167 137
88 167 137
89 166 137
90 165 137
90 165 137
91 164 137
92 163 137
92 163 137
93 162 137
94 161 137
94 161 137
95 160 137
95 159 137
96 159 137
97 158 137
97 158 137
98 157 137
99 156 137
99 156 137
100 155 137
101 154 137
101 154 137
102 153 137
103 152 137
103 152 137
104 151 137
104 151 137
105 150 137
106 149 137
106 149 137
107 148 137
108 147 137
108 147 137
109 146 137
110 145 137
110 145 137
111 144 137
111 143 137
112 143 137
113 142 137
113 142 137
114 141 137
115 140 137
115 140 137
116 139 137
117 138 137
117 138 137
118 137 137
119 136 137
119 136 137
120 135 137
120 135 137
121 134 137
122 133 137
122 133 137
123 132 137
124 131 137
124 131 137
125 130 137
126 129 137
126 129 137
127 128 137
127 127 137
128 127 137
129 126 137
129 126 137
130 125 137
131 124 137
131 124 137
132 123 137
133 122 137
133 122 137
134 121 137
135 120 137
135 120 137
136 119 137
136 119 137
137 118 137
138 117 137
138 117 137
139 116 137
140 115 137
140 115 137
141 114 137
142 113 137
142 113 137
143 112 137
143 111 137
144 111 137
145 110 137
145 110 137
146 109 137
147 108 137
147 108 137
148 107 137
149 106 137
149 106 137
150 105 137
151 104 137
151 104 137
152 103 137
152 103 137
153 102 137
154 101 137
154 101 137
155 100 137
156 99 137
156 99 137
157 98 137
158 97 137
158 97 137
159 96 137
159 95 137
160 95 137
161 94 137
161 94 137
162 93 137
163 92 137
163 92 137
164 91 137
165 90 137
165 90 137
166 89 137
167 88 137
167 88 137
168 87 137
168 87 137
169 86 137
170 85 137
170 85 137
171 84 137
172 83 137
172 83 137
173 82 137
174 81 137
174 81 137
175 80 137
175 79 137
176 79 137
177 78 137
177 78 137
178 77 137
179 76 137
179 76 137
180 75 137
181 74 137
181 74 137
182 73 137
183 72 137
183 72 137
184 71 137
184 71 137
185 70 137
186 69 137
186 69 137
187 68 137
188 67 137
188 67 137
189 66 137
190 65 137
190 65 137
191 64 137
191 63 137
192 63 137
193 62 137
193 62 137
194 61 137
195 60 137
195 60 137
196 59 137
197 58 137
197 58 137
198 57 137
199 56 137
199 56 137
200 55 137
200 55 137
201 54 137
202 53 137
202 53 137
203 52 137
204 51 137
204 51 137
205 50 137
206 49 137
206 49 137
207 48 137
207 47 137
208 47 137
209 46 137
209 46 137
210 45 137
211 44 137
211 44 137
212 43 137
213 42 137
213 42 137
214 41 137
215 40 137
215 40 137
216 39 137
216 39 137
217 38 137
218 37 137
218 37 137
219 36 137
220 35 137
220 35 137
221 34 137
222 33 137
222 33 137
223 32 137
223 31 137
224 31 137
225 30 137
225 30 137
226 29 137
227 28 137
227 28 137
228 27 137
229 26 137
229 26 137
230 25 137
231 24 137
231 24 137
232 23 137
232 23 137
233 22 137
234 21 137
234 21 137
235 20 137
236 19 137
236 19 137
237 18 137
238 17 137
238 17 137
239 16 137
239 15 137
240 15 137
241 14 137
241 14 137
242 13 137
243 12 137
243 12 137
244 11 137
245 10 137
245 10 137
246 9 137
247 8 137
247 8 137
248 7 137
248 7 137
249 6 137
250 5 137
250 5 137
251 4 137
252 3 137
252 3 137
253 2 137
254 1 137
254 1 137
255 0 137
0 255 138
0 255 138
1 254 138
1 254 138
2 253 138
3 252 138
3 252 138
4 251 138
5 250 138
5 250 138
6 249 138
7 248 138
7 248 138
8 247 138
8 247 138
9 246 138
10 245 138
10 245 138
11 244 138
12 243 138
12 243 138
13 242 138
14 241 138
14 241 138
15 240 138
15 239 138
16 239 138
17 238 138
17 238 138
18 237 138
19 236 138
19 236 138
20 235 138
21 234 138
21 234 138
22 233 138
23 232 138
23 232 138
24 231 138
24 231 138
25 230 138
26 229 138
26 229 138
27 228 138
28 227 138
28 227 138
29 226 138
30 225 138
30 225 138
31 224 138
31 223 138
32 223 138
33 222 138
33 222 138
34 221 138
35 220 138
35 220 138
36 219 138
37 218 138
37 218 138
38 217 138
39 216 138
39 216 138
40 215 138
40 215 138
41 214 138
42 213 138
42 213 138
43 212 138
44 211 138
44 211 138
45 210 138
46 209 138
46 209 138
47 208 138
47 207 138
48 207 138
49 206 138
49 206 138
50 205 138
51 204 138
51 204 138
52 203 138
53 202 138
53 202 138
54 201 138
55 200 138
55 200 138
56 199 138
56 199 138
57 198 138
58 197 138
58 197 138
59 196 138
60 195 138
60 195 138
61 194 138
62 193 138
62 193 138
63 192 138
63 191 138
64 191 138
65 190 138
65 190 138
66 189 138
67 188 138
67 188 138
68 187 138
69 186 138
69 186 138
70 185 138
71 184 138
71 184 138
72 183 138
72 183 138
73 182 138
74 181 138
74 181 138
75 180 138
76 179 138
76 179 138
77 178 138
78 177 138
78 177 138
79 176 138
79 175 138
80 175 138
81 174 138
81 174 138
82 173 138
83 172 138
83 172 138
84 171 138
85 170 138
85 170 138
86 169 138
87 168 138
87 168 138
88 167 138
88 167 138
89 166 138
90 165 138
90 165 138
91 164 138
92 163 138
92 163 138
93 162 138
94 161 138
94 161 138
95 160 138
95 159 138
96 159 138
97 158 138
97 158 138
98 157 138
99 156 138
99 156 138
100 155 138
101 154 138
101 154 138
102 153 138
103 152 138
103 152 138
104 151 138
104 151 138
105 150 138
106 149 138
106 149 138
107 148 138
108 147 138
108 147 138
109 146 138
110 145 138
110 145 138
111 144 138
111 143 138
112 143 138
113 142 138
113 142 138
114 141 138
115 140 138
115 140 138
116 139 138
117 138 138
117 138 138
118 137 138
119 136 138
119 136 138
120 135 138
120 135 138
121 134 138
122 133 138
122 133 138
123 132 138
124 131 138
124 131 138
125 130 138
126 129 138
126 129 138
127 128 138
127 127 138
128 127 138
129 126 138
129 126 138
130 125 138
131 124 138
131 124 138
132 123 138
133 122 138
133 122 138
134 121 138
135 120 138
135 120 138
136 119 138
136 119 138
137 118 138
138 117 138
138 117 138
139 116 138
140 115 138
140 115 138
141 114 138
142 113 138
142 113 138
143 112 138
143 111 138
144 111 138
145 110 138
145 110 138
146 109 138
147 108 138
147 108 138
148 107 138
149 106 138
149 106 138
150 105 138
151 104 138
151 104 138
152 103 138
152 103 138
153 102 138
154 101 138
154 101 138
155 100 138
156 99 138
156 99 138
157 98 138
158 97 138
158 97 138
159 96 138
159 95 138
160 95 138
161 94 138
161 94 138
162 93 138
163 92 138
163 92 138
164 91 138
165 90 138
165 90 138
166 89 138
167 88 138
167 88 138
168 87 138
168 87 138
169 86 138
170 85 138
170 85 138
171 84 138
172 83 138
172 83 138
173 82 138
174 81 138
174 81 138
175 80 138
175 79 138
176 79 138
177 78 138
177 78 138
178 77 138
179 76 138
179 76 138
180 75 138
181 74 138
181 74 138
182 73 138
183 72 138
183 72 138
184 71 138
184 71 138
185 70 138
186 69 138
186 69 138
187 68 138
188 67 138
188 67 138
189 66 138
190 65 138
190 65 138
191 64 138
191 63 138
192 63 138
193 62 138
193 62 138
194 61 138
195 60 138
195 60 138
196 59 138
197 58 138
197 58 138
198 57 138
199 56 138
199 56 138
200 55 138
200 55 138
201 54 138
202 53 138
202 53 138
203 52 138
204 51 138
204 51 138
205 50 138
206 49 138
206 49 138
207 48 138
207 47 138
208 47 138
209 46 138
209 46 138
210 45 138
211 44 138
211 44 138
212 43 138
213 42 138
213 42 138
214 41 138
215 40 138
215 40 138
216 39 138
216 39 138
217 38 138
218 37 138
218 37 138
219 36 138
220 35 138
220 35 138
221 34 138
222 33 138
222 33 138
223 32 138
223 31 138
224 31 138
225 30 138
225 30 138
226 29 138
227 28 138
227 28 138
228 27 138
229 26 138
229 26 138
230 25 138
231 24 138
231 24 138
232 23 138
232 23 138
233 22 138
234 21 138
234 21 138
235 20 138
236 19 138
236 19 138
237 18 138
238 17 138
238 17 138
239 16 138
239 15 138
240 15 138
241 14 138
241 14 138
242 13 138
243 12 138
243 12 138
244 11 138
245 10 138
245 10 138
246 9 138
247 8 138
247 8 138
248 7 138
248 7 138
249 6 138
250 5 138
250 5 138
251 4 138
252 3 138
252 3 138
253 2 138
254 1 138
254 1 138
255 0 138
0 255 139
0 255 139
1 254 139
1 254 139
2 253 139
3 252 139
3 252 139
4 251 139
5 250 139
5 250 139
6 249 139
7 248 139
7 248 139
8 247 139
8 247 139
9 246 139
10 245 139
10 245 139
11 244 139
12 243 139
12 243 139
13 242 139
14 241 139
14 241 139
15 240 139
15 239 139
16 239 139
17 238 139
17 238 139
18 237 139
19 236 139
19 236 139
20 235 139
21 234 139
21 234 139
22 233 139
23 232 139
23 232 139
24 231 139
24 231 139
25 230 139
26 229 139
26 229 139
27 228 139
28 227 139
28 227 139
29 226 139
30 225 139
30 225 139
31 224 139
31 223 139
32 223 139
33 222 139
33 222 139
34 221 139
35 220 139
35 220 139
36 219 139
37 218 139
37 218 139
38 217 139
39 216 139
39 216 139
40 215 139
40 215 139
41 214 139
42 213 139
42 213 139
43 212 139
44 211 139
44 211 139
45 210 139
46 209 139
46 209 139
47 208 139
47 207 139
48 207 139
49 206 139
49 206 139
50 205 139
51 204 139
51 204 139
52 203 139
53 202 139
53 202 139
54 201 139
55 200 139
55 200 139
56 199 139
56 199 139
57 198 139
58 197 139
58 197 139
59 196 139
60 195 139
60 195 139
61 194 139
62 193 139
62 193 139
63 192 139
63 191 139
64 191 139
65 190 139
65 190 139
66 189 139
67 188 139
67 188 139
68 187 139
69 186 139
69 186 139
70 185 139
71 184 139
71 184 139
72 183 139
72 183 139
73 182 139
74 181 139
74 181 139
75 180 139
76 179 139
76 179 139
77 178 139
78 177 139
78 177 139
79 176 139
79 175 139
80 175 139
81 174 139
81 174 139
82 173 139
83 172 139
83 172 139
84 171 139
85 170 139
85 170 139
86 169 139
87 168 139
87 168 139
88 167 139
88 167 139
89 166 139
90 165 139
90 165 139
91 164 139
92 163 139
92 163 139
93 162 139
94 161 139
94 161 139
95 160 139
95 159 139
96 159 139
97 158 139
97 158 139
98 157 139
99 156 139
99 156 139
100 155 139
101 154 139
101 154 139
102 153 139
103 152 139
103 152 139
104 151 139
104 151 139
105 150 139
106 149 139
106 149 139
107 148 139
108 147 139
108 147 139
109 146 139
110 145 139
110 145 139
111 144 139
111 143 139
112 143 139
113 142 139
113 142 139
114 141 139
115 140 139
115 140 139
116 139 139
117 138 139
117 138 139
118 137 139
119 136 139
119 136 139
120 135 139
120 135 139
121 134 139
122 133 139
122 133 139
123 132 139
124 131 139
124 131 139
125 130 139
126 129 139
126 129 139
127 128 139
127 127 139
128 127 139
129 126 139
129 126 139
130 125 139
131 124 139
131 124 139
132 123 139
133 122 139
133 122 139
134 121 139
135 120 139
135 120 139
136 119 139
136 119 139
137 118 139
138 117 139
138 117 139
139 116 139
140 115 139
140 115 139
141 114 139
142 113 139
142 113 139
143 112 139
143 111 139
144 111 139
145 110 139
145 110 139
146 109 139
147 108 139
147 108 139
148 107 139
149 106 139
149 106 139
150 105 139
151 104 139
151 104 139
152 103 139
152 103 139
153 102 139
154 101 139
154 101 139
155 100 139
156 99 139
156 99 139
157 98 139
158 97 139
158 97 139
159 96 139
159 95 139
160 95 139
161 94 139
161 94 139
162 93 139
163 92 139
163 92 139
164 91 139
165 90 139
165 90 139
166 89 139
167 88 139
167 88 139
168 87 139
168 87 139
169 86 139
170 85 139
170 85 139
171 84 139
172 83 139
172 83 139
173 82 139
174 81 139
174 81 139
175 80 139
175 79 139
176 79 139
177 78 139
177 78 139
178 77 139
179 76 139
179 76 139
180 75 139
181 74 139
181 74 139
182 73 139
183 72 139
183 72 139
184 71 139
184 71 139
185 70 139
186 69 139
186 69 139
187 68 139
188 67 139
188 67 139
189 66 139
190 65 139
190 65 139
191 64 139
191 63 139
192 63 139
193 62 139
193 62 139
194 61 139
195 60 139
195 60 139
196 59 139
197 58 139
197 58 139
198 57 139
199 56 139
199 56 139
200 55 139
200 55 139
201 54 139
202 53 139
202 53 139
203 52 139
204 51 139
204 51 139
205 50 139
206 49 139
206 49 139
207 48 139
207 47 139
208 47 139
209 46 139
209 46 139
210 45 139
211 44 139
211 44 139
212 43 139
213 42 139
213 42 139
214 41 139
215 40 139
215 40 139
216 39 139
216 39 139
217 38 139
218 37 139
218 37 139
219 36 139
220 35 139
220 35 139
221 34 139
222 33 139
222 33 139
223 32 139
223 31 139
224 31 139
225 30 139
225 30 139
226 29 139
227 28 139
227 28 139
228 27 139
229 26 139
229 26 139
230 25 139
231 24 139
231 24 139
232 23 139
232 23 139
233 22 139
234 21 139
234 21 139
235 20 139
236 19 139
236 19 139
237 18 139
238 17 139
238 17 139
239 16 139
239 15 139
240 15 139
241 14 139
241 14 139
242 13 139
243 12 139
243 12 139
244 11 139
245 10 139
245 10 139
246 9 139
247 8 139
247 8 139
248 7 139
248 7 139
249 6 139
250 5 139
250 5 139
251 4 139
252 3 139
252 3 139
253 2 139
254 1 139
254 1 139
255 0 139
0 255 141
0 255 141
1 254 141
1 254 141
2 253 141
3 252 141
3 252 141
4 251 141
5 250 141
5 250 141
6 249 141
7 248 141
7 248 141
8 247 141
8 247 141
9 246 141
10 245 141
10 245 141
11 244 141
12 243 141
12 243 141
13 242 141
14 241 141
14 241 141
15 240 141
15 239 141
16 239 141
17 238 141
17 238 141
18 237 141
19 236 141
19 236 141
20 235 141
21 234 141
21 234 141
22 233 141
23 232 141
23 232 141
24 231 141
24 231 141
25 230 141
26 229 141
26 229 141
27 228 141
28 227 141
28 227 141
29 226 141
30 225 141
30 225 141
31 224 141
31 223 141
32 223 141
33 222 141
33 222 141
34 221 141
35 220 141
35 220 141
36 219 141
37 218 141
37 218 141
38 217 141
39 216 141
39 216 141
40 215 141
40 215 141
41 214 141
42 213 141
42 213 141
43 212 141
44 211 141
44 211 141
45 210 141
46 209 141
46 209 141
47 208 141
47 207 141
48 207 141
49 206 141
49 206 141
50 205 141
51 204 141
51 204 141
52 203 141
53 202 141
53 202 141
54 201 141
55 200 141
55 200 141
56 199 141
56 199 141
57 198 141
58 197 141
58 197 141
59 196 141
60 195 141
60 195 141
61 194 141
62 193 141
62 193 141
63 192 141
63 191 141
64 191 141
65 190 141
65 190 141
66 189 141
67 188 141
67 188 141
68 187 141
69 186 141
69 186 141
70 185 141
71 184 141
71 184 141
72 183 141
72 183 141
73 182 141
74 181 141
74 181 141
75 180 141
76 179 141
76 179 141
77 178 141
78 177 141
78 177 141
79 176 141
79 175 141
80 175 141
81 174 141
81 174 141
82 173 141
83 172 141
83 172 141
84 171 141
85 170 141
85 170 141
86 169 141
87 168 141
87 168 141
88 167 141
88 167 141
89 166 141
90 165 141
90 165 141
91 164 141
92 163 141
92 163 141
93 162 141
94 161 141
94 161 141
95 160 141
95 159 141
96 159 141
97 158 141
97 158 141
98 157 141
99 156 141
99 156 141
100 155 141
101 154 141
101 154 141
102 153 141
103 152 141
103 152 141
104 151 141
104 151 141
105 150 141
106 149 141
106 149 141
107 148 141
108 147 141
108 147 141
109 146 141
110 145 141
110 145 141
111 144 141
111 143 141
112 143 141
113 142 141
113 142 141
114 141 141
115 140 141
115 140 141
116 139 141
117 138 141
117 138 141
118 137 141
119 136 141
119 136 141
120 135 141
120 135 141
121 134 141
122 133 141
122 133 141
123 132 141
124 131 141
124 131 141
125 130 141
126 129 141
126 129 141
127 128 141
127 127 141
128 127 141
129 126 141
129 126 141
130 125 141
131 124 141
131 124 141
132 123 141
133 122 141
133 122 141
134 121 141
135 120 141
135 120 141
136 119 141
136 119 141
137 118 141
138 117 141
138 117 141
139 116 141
140 115 141
140 115 141
141 114 141
142 113 141
142 113 141
143 112 141
143 111 141
144 111 141
145 110 141
145 110 141
146 109 141
147 108 141
147 108 141
148 107 141
149 106 141
149 106 141
150 105 141
151 104 141
151 104 141
152 103 141
152 103 141
153 102 141
154 101 141
154 101 141
155 100 141
156 99 141
156 99 141
157 98 141
158 97 141
158 97 141
159 96 141
159 95 141
160 95 141
161 94 141
161 94 141
162 93 141
163 92 141
163 92 141
164 91 141
165 90 141
165 90 141
166 89 141
167 88 141
167 88 141
168 87 141
168 87 141
169 86 141
170 85 141
170 85 141
171 84 141
172 83 141
172 83 141
173 82 141
174 81 141
174 81 141
175 80 141
175 79 141
176 79 141
177 78 141
177 78 141
178 77 141
179 76 141
179 76 141
180 75 141
181 74 141
181 74 141
182 73 141
183 72 141
183 72 141
184 71 141
184 71 141
185 70 141
186 69 141
186 69 141
187 68 141
188 67 141
188 67 141
189 66 141
190 65 141
190 65 141
191 64 141
191 63 141
192 63 141
193 62 141
193 62 141
194 61 141
195 60 141
195 60 141
196 59 141
197 58 141
197 58 141
198 57 141
199 56 141
199 56 141
200 55 141
200 55 141
201 54 141
202 53 141
202 53 141
203 52 141
204 51 141
204 51 141
205 50 141
206 49 141
206 49 141
207 48 141
207 47 141
208 47 141
209 46 141
209 46 141
210 45 141
211 44 141
211 44 141
212 43 141
213 42 141
213 42 141
214 41 141
215 40 141
215 40 141
216 39 141
216 39 141
217 38 141
218 37 141
218 37 141
219 36 141
220 35 141
220 35 141
221 34 141
222 33 141
222 33 141
223 32 141
223 31 141
224 31 141
225 30 141
225 30 141
226 29 141
227 28 141
227 28 141
228 27 141
229 26 141
229 26 141
230 25 141
231 24 141
231 24 141
232 23 141
232 23 141
233 22 141
234 21 141
234 21 141
235 20 141
236 19 141
236 19 141
237 18 141
238 17 141
238 17 141
239 16 141
239 15 141
240 15 141
241 14 141
241 14 141
242 13 141
243 12 141
243 12 141
244 11 141
245 10 141
245 10 141
246 9 141
247 8 141
247 8 141
248 7 141
248 7 141
249 6 141
250 5 141
250 5 141
251 4 141
252 3 141
252 3 141
253 2 141
254 1 141
254 1 141
255 0 141
0 255 142
0 255 142
1 254 142
1 254 142
2 253 142
3 252 142
3 252 142
4 251 142
5 250 142
5 250 142
6 249 142
7 248 142
7 248 142
8 247 142
8 247 142
9 246 142
10 245 142
10 245 142
11 244 142
12 243 142
12 243 142
13 242 142
14 241 142
14 241 142
15 240 142
15 239 142
16 239 142
17 238 142
17 238 142
18 237 142
19 236 142
19 236 142
20 235 142
21 234 142
21 234 142
22 233 142
23 232 142
23 232 142
24 231 142
24 231 142
25 230 142
26 229 142
26 229 142
27 228 142
28 227 142
28 227 142
29 226 142
30 225 142
30 225 142
31 224 142
31 223 142
32 223 142
33 222 142
33 222 142
34 221 142
35 220 142
35 220 142
36 219 142
37 218 142
37 218 142
38 217 142
39 216 142
39 216 142
40 215 142
40 215 142
41 214 142
42 213 142
42 213 142
43 212 142
44 211 142
44 211 142
45 210 142
46 209 142
46 209 142
47 208 142
47 207 142
48 207 142
49 206 142
49 206 142
50 205 142
51 204 142
51 204 142
52 203 142
53 202 142
53 202 142
54 201 142
55 200 142
55 200 142
56 199 142
56 199 142
57 198 142
58 197 142
58 197 142
59 196 142
60 195 142
60 195 142
61 194 142
62 193 142
62 193 142
63 192 142
63 191 142
64 191 142
65 190 142
65 190 142
66 189 142
67 188 142
67 188 142
68 187 142
69 186 142
69 186 142
70 185 142
71 184 142
71 184 142
72 183 142
72 183 142
73 182 142
74 181 142
74 181 142
75 180 142
76 179 142
76 179 142
77 178 142
78 177 142
78 177 142
79 176 142
79 175 142
80 175 142
81 174 142
81 174 142
82 173 142
83 172 142
83 172 142
84 171 142
85 170 142
85 170 142
86 169 142
87 168 142
87 168 142
88 167 142
88 167 142
89 166 142
90 165 142
90 165 142
91 164 142
92 163 142
92 163 142
93 162 142
94 161 142
94 161 142
95 160 142
95 159 142
96 159 142
97 158 142
97 158 142
98 157 142
99 156 142
99 156 142
100 155 142
101 154 142
101 154 142
102 153 142
103 152 142
103 152 142
104 151 142
104 151 142
105 150 142
106 149 142
106 149 142
107 148 142
108 147 142
108 147 142
109 146 142
110 145 142
110 145 142
111 144 142
111 143 142
112 143 142
113 142 142
113 142 142
114 141 142
115 140 142
115 140 142
116 139 142
117 138 142
117 138 142
118 137 142
119 136 142
119 136 142
120 135 142
120 135 142
121 134 142
122 133 142
122 133 142
123 132 142
124 131 142
124 131 142
125 130 142
126 129 142
126 129 142
127 128 142
127 127 142
128 127 142
129 126 142
129 126 142
130 125 142
131 124 142
131 124 142
132 123 142
133 122 142
133 122 142
134 121 142
135 120 142
135 120 142
136 119 142
136 119 142
137 118 142
138 117 142
138 117 142
139 116 142
140 115 142
140 115 142
141 114 142
142 113 142
142 113 142
143 112 142
143 111 142
144 111 142
145 110 142
145 110 142
146 109 142
147 108 142
147 108 142
148 107 142
149 106 142
149 106 142
150 105 142
151 104 142
151 104 142
152 103 142
152 103 142
153 102 142
154 101 142
154 101 142
155 100 142
156 99 142
156 99 142
157 98 142
158 97 142
158 97 142
159 96 142
159 95 142
160 95 142
161 94 142
161 94 142
162 93 142
163 92 142
163 92 142
164 91 142
165 90 142
165 90 142
166 89 142
167 88 142
167 88 142
168 87 142
168 87 142
169 86 142
170 85 142
170 85 142
171 84 142
172 83 142
172 83 142
173 82 142
174 81 142
174 81 142
175 80 142
175 79 142
176 79 142
177 78 142
177 78 142
178 77 142
179 76 142
179 76 142
180 75 142
181 74 142
181 74 142
182 73 142
183 72 142
183 72 142
184 71 142
184 71 142
185 70 142
186 69 142
186 69 142
187 68 142
188 67 142
188 67 142
189 66 142
190 65 142
190 65 142
191 64 142
191 63 142
192 63 142
193 62 142
193 62 142
194 61 142
195 60 142
195 60 142
196 59 142
197 58 142
197 58 142
198 57 142
199 56 142
199 56 142
200 55 142
200 55 142
201 54 142
202 53 142
202 53 142
203 52 142
204 51 142
204 51 142
205 50 142
206 49 142
206 49 142
207 48 142
207 47 142
208 47 142
209 46 142
209 46 142
210 45 142
211 44 142
211 44 142
212 43 142
213 42 142
213 42 142
214 41 142
215 40 142
215 40 142
216 39 142
216 39 142
217 38 142
218 37 142
218 37 142
219 36 142
220 35 142
220 35 142
221 34 142
222 33 142
222 33 142
223 32 142
223 31 142
224 31 142
225 30 142
225 30 142
226 29 142
227 28 142
227 28 142
228 27 142
229 26 142
229 26 142
230 25 142
231 24 142
231 24 142
232 23 142
232 23 142
233 22 142
234 21 142
234 21 142
235 20 142
236 19 142
236 19 142
237 18 142
238 17 142
238 17 142
239 16 142
239 15 142
240 15 142
241 14 142
241 14 142
242 13 142
243 12 142
243 12 142
244 11 142
245 10 142
245 10 142
246 9 142
247 8 142
247 8 142
248 7 142
248 7 142
249 6 142
250 5 142
250 5 142
251 4 142
252 3 142
252 3 142
253 2 142
254 1 142
254 1 142
255 0 142
0 255 143
0 255 143
1 254 143
1 254 143
2 253 143
3 252 143
3 252 143
4 251 143
5 250 143
5 250 143
6 249 143
7 248 143
7 248 143
8 247 143
8 247 143
9 246 143
10 245 143
10 245 143
11 244 143
12 243 143
12 243 143
13 242 143
14 241 143
14 241 143
15 240 143
15 239 143
16 239 143
17 238 143
17 238 143
18 237 143
19 236 143
19 236 143
20 235 143
21 234 143
21 234 143
22 233 143
23 232 143
23 232 143
24 231 143
24 231 143
25 230 143
26 229 143
26 229 143
27 228 143
28 227 143
28 227 143
29 226 143
30 225 143
30 225 143
31 224 143
31 223 143
32 223 143
33 222 143
33 222 143
34 221 143
35 220 143
35 220 143
36 219 143
37 218 143
37 218 143
38 217 143
39 216 143
39 216 143
40 215 143
40 215 143
41 214 143
42 213 143
42 213 143
43 212 143
44 211 143
44 211 143
45 210 143
46 209 143
46 209 143
47 208 143
47 207 143
48 207 143
49 206 143
49 206 143
50 205 143
51 204 143
51 204 143
52 203 143
53 202 143
53 202 143
54 201 143
55 200 143
55 200 143
56 199 143
56 199 143
57 198 143
58 197 143
58 197 143
59 196 143
60 195 143
60 195 143
61 194 143
62 193 143
62 193 143
63 192 143
63 191 143
64 191 143
65 190 143
65 190 143
66 189 143
67 188 143
67 188 143
68 187 143
69 186 143
69 186 143
70 185 143
71 184 143
71 184 143
72 183 143
72 183 143
73 182 143
74 181 143
74 181 143
75 180 143
76 179 143
76 179 143
77 178 143
78 177 143
78 177 143
79 176 143
79 175 143
80 175 143
81 174 143
81 174 143
82 173 143
83 172 143
83 172 143
84 171 143
85 170 143
85 170 143
86 169 143
87 168 143
87 168 143
88 167 143
88 167 143
89 166 143
90 165 143
90 165 143
91 164 143
92 163 143
92 163 143
93 162 143
94 161 143
94 161 143
95 160 143
95 159 143
96 159 143
97 158 143
97 158 143
98 157 143
99 156 143
99 156 143
100 155 143
101 154 143
101 154 143
102 153 143
103 152 143
103 152 143
104 151 143
104 151 143
105 150 143
106 149 143
106 149 143
107 148 143
108 147 143
108 147 143
109 146 143
110 145 143
110 145 143
111 144 143
111 143 143
112 143 143
113 142 143
113 142 143
114 141 143
115 140 143
115 140 143
116 139 143
117 138 143
117 138 143
118 137 143
119 136 143
119 136 143
120 135 143
120 135 143
121 134 143
122 133 143
122 133 143
123 132 143
124 131 143
124 131 143
125 130 143
126 129 143
126 129 143
127 128 143
127 127 143
128 127 143
129 126 143
129 126 143
130 125 143
131 124 143
131 124 143
132 123 143
133 122 143
133 122 143
134 121 143
135 120 143
135 120 143
136 119 143
136 119 143
137 118 143
138 117 143
138 117 143
139 116 143
140 115 143
140 115 143
141 114 143
142 113 143
142 113 143
143 112 143
143 111 143
144 111 143
145 110 143
145 110 143
146 109 143
147 108 143
147 108 143
148 107 143
149 106 143
149 106 143
150 105 143
151 104 143
151 104 143
152 103 143
152 103 143
153 102 143
154 101 143
154 101 143
155 100 143
156 99 143
156 99 143
157 98 143
158 97 143
158 97 143
159 96 143
159 95 143
160 95 143
161 94 143
161 94 143
162 93 143
163 92 143
163 92 143
164 91 143
165 90 143
165 90 143
166 89 143
167 88 143
167 88 143
168 87 143
168 87 143
169 86 143
170 85 143
170 85 143
171 84 143
172 83 143
172 83 143
173 82 143
174 81 143
174 81 143
175 80 143
175 79 143
176 79 143
177 78 143
177 78 143
178 77 143
179 76 143
179 76 143
180 75 143
181 74 143
181 74 143
182 73 143
183 72 143
183 72 143
184 71 143
184 71 143
185 70 143
186 69 143
186 69 143
187 68 143
188 67 143
188 67 143
189 66 143
190 65 143
190 65 143
191 64 143
191 63 143
192 63 143
193 62 143
193 62 143
194 61 143
195 60 143
195 60 143
196 59 143
197 58 143
197 58 143
198 57 143
199 56 143
199 56 143
200 55 143
200 55 143
201 54 143
202 53 143
202 53 143
203 52 143
204 51 143
204 51 143
205 50 143
206 49 143
206 49 143
207 48 143
207 47 143
208 47 143
209 46 143
209 46 143
210 45 143
211 44 143
211 44 143
212 43 143
213 42 143
213 42 143
214 41 143
215 40 143
215 40 143
216 39 143
216 39 143
217 38 143
218 37 143
218 37 143
219 36 143
220 35 143
220 35 143
221 34 143
222 33 143
222 33 143
223 32 143
223 31 143
224 31 143
225 30 143
225 30 143
226 29 143
227 28 143
227 28 143
228 27 143
229 26 143
229 26 143
230 25 143
231 24 143
231 24 143
232 23 143
232 23 143
233 22 143
234 21 143
234 21 143
235 20 143
236 19 143
236 19 143
237 18 143
238 17 143
238 17 143
239 16 143
239 15 143
240 15 143
241 14 143
241 14 143
242 13 143
243 12 143
243 12 143
244 11 143
245 10 143
245 10 143
246 9 143
247 8 143
247 8 143
248 7 143
248 7 143
249 6 143
250 5 143
250 5 143
251 4 143
252 3 143
252 3 143
253 2 143
254 1 143
254 1 143
255 0 143
0 255 144
0 255 144
1 254 144
1 254 144
2 253 144
3 252 144
3 252 144
4 251 144
5 250 144
5 250 144
6 249 144
7 248 144
7 248 144
8 247 144
8 247 144
9 246 144
10 245 144
10 245 144
11 244 144
12 243 144
12 243 144
13 242 144
14 241 144
14 241 144
15 240 144
15 239 144
16 239 144
17 238 144
17 238 144
18 237 144
19 236 144
19 236 144
20 235 144
21 234 144
21 234 144
22 233 144
23 232 144
23 232 144
24 231 144
24 231 144
25 230 144
26 229 144
26 229 144
27 228 144
28 227 144
28 227 144
29 226 144
30 225 144
30 225 144
31 224 144
31 223 144
32 223 144
33 222 144
33 222 144
34 221 144
35 220 144
35 220 144
36 219 144
37 218 144
37 218 144
38 217 144
39 216 144
39 216 144
40 215 144
40 215 144
41 214 144
42 213 144
42 213 144
43 212 144
44 211 144
44 211 144
45 210 144
46 209 144
46 209 144
47 208 144
47 207 144
48 207 144
49 206 144
49 206 144
50 205 144
51 204 144
51 204 144
52 203 144
53 202 144
53 202 144
54 201 144
55 200 144
55 200 144
56 199 144
56 199 144
57 198 144
58 197 144
58 197 144
59 196 144
60 195 144
60 195 144
61 194 144
62 193 144
62 193 144
63 192 144
63 191 144
64 191 144
65 190 144
65 190 144
66 189 144
67 188 144
67 188 144
68 187 144
69 186 144
69 186 144
70 185 144
71 184 144
71 184 144
72 183 144
72 183 144
73 182 144
74 181 144
74 181 144
75 180 144
76 179 144
76 179 144
77 178 144
78 177 144
78 177 144
79 176 144
79 175 144
80 175 144
81 174 144
81 174 144
82 173 144
83 172 144
83 172 144
84 171 144
85 170 144
85 170 144
86 169 144
87 168 144
87 168 144
88 167 144
88 167 144
89 166 144
90 165 144
90 165 144
91 164 144
92 163 144
92 163 144
93 162 144
94 161 144
94 161 144
95 160 144
95 159 144
96 159 144
97 158 144
97 158 144
98 157 144
99 156 144
99 156 144
100 155 144
101 154 144
101 154 144
102 153 144
103 152 144
103 152 144
104 151 144
104 151 144
105 150 144
106 149 144
106 149 144
107 148 144
108 147 144
108 147 144
109 146 144
110 145 144
110 145 144
111 144 144
111 143 144
112 143 144
113 142 144
113 142 144
114 141 144
115 140 144
115 140 144
116 139 144
117 138 144
117 138 144
118 137 144
119 136 144
119 136 144
120 135 144
120 135 144
121 134 144
122 133 144
122 133 144
123 132 144
124 131 144
124 131 144
125 130 144
126 129 144
126 129 144
127 128 144
127 127 144
128 127 144
129 126 144
129 126 144
130 125 144
131 124 144
131 124 144
132 123 144
133 122 144
133 122 144
134 121 144
135 120 144
135 120 144
136 119 144
136 119 144
137 118 144
138 117 144
138 117 144
139 116 144
140 115 144
140 115 144
141 114 144
142 113 144
142 113 144
143 112 144
143 111 144
144 111 144
145 110 144
145 110 144
146 109 144
147 108 144
147 108 144
148 107 144
149 106 144
149 106 144
150 105 144
151 104 144
151 104 144
152 103 144
152 103 144
153 102 144
154 101 144
154 101 144
155 100 144
156 99 144
156 99 144
157 98 144
158 97 144
158 97 144
159 96 144
159 95 144
160 95 144
161 94 144
161 94 144
162 93 144
163 92 144
163 92 144
164 91 144
165 90 144
165 90 144
166 89 144
167 88 144
167 88 144
168 87 144
168 87 144
169 86 144
170 85 144
170 85 144
171 84 144
172 83 144
172 83 144
173 82 144
174 81 144
174 81 144
175 80 144
175 79 144
176 79 144
177 78 144
177 78 144
178 77 144
179 76 144
179 76 144
180 75 144
181 74 144
181 74 144
182 73 144
183 72 144
183 72 144
184 71 144
184 71 144
185 70 144
186 69 144
186 69 144
187 68 144
188 67 144
188 67 144
189 66 144
190 65 144
190 65 144
191 64 144
191 63 144
192 63 144
193 62 144
193 62 144
194 61 144
195 60 144
195 60 144
196 59 144
197 58 144
197 58 144
198 57 144
199 56 144
199 56 144
200 55 144
200 55 144
201 54 144
202 53 144
202 53 144
203 52 144
204 51 144
204 51 144
205 50 144
206 49 144
206 49 144
207 48 144
207 47 144
208 47 144
209 46 144
209 46 144
210 45 144
211 44 144
211 44 144
212 43 144
213 42 144
213 42 144
214 41 144
215 40 144
215 40 144
216 39 144
216 39 144
217 38 144
218 37 144
218 37 144
219 36 144
220 35 144
220 35 144
221 34 144
222 33 144
222 33 144
223 32 144
223 31 144
224 31 144
225 30 144
225 30 144
226 29 144
227 28 144
227 28 144
228 27 144
229 26 144
229 26 144
230 25 144
231 24 144
231 24 144
232 23 144
232 23 144
233 22 144
234 21 144
234 21 144
235 20 144
236 19 144
236 19 144
237 18 144
238 17 144
238 17 144
239 16 144
239 15 144
240 15 144
241 14 144
241 14 144
242 13 144
243 12 144
243 12 144
244 11 144
245 10 144
245 10 144
246 9 144
247 8 144
247 8 144
248 7 144
248 7 144
249 6 144
250 5 144
250 5 144
251 4 144
252 3 144
252 3 144
253 2 144
254 1 144
254 1 144
255 0 144
0 255 145
0 255 145
1 254 145
1 254 145
2 253 145
3 252 145
3 252 145
4 251 145
5 250 145
5 250 145
6 249 145
7 248 145
7 248 145
8 247 145
8 247 145
9 246 145
10 245 145
10 245 145
11 244 145
12 243 145
12 243 145
13 242 145
14 241 145
14 241 145
15 240 145
15 239 145
16 239 145
17 238 145
17 238 145
18 237 145
19 236 145
19 236 145
20 235 145
21 234 145
21 234 145
22 233 145
23 232 145
23 232 145
24 231 145
24 231 145
25 230 145
26 229 145
26 229 145
27 228 145
28 227 145
28 227 145
29 226 145
30 225 145
30 225 145
31 224 145
31 223 145
32 223 145
33 222 145
33 222 145
34 221 145
35 220 145
35 220 145
36 219 145
37 218 145
37 218 145
38 217 145
39 216 145
39 216 145
40 215 145
40 215 145
41 214 145
42 213 145
42 213 145
43 212 145
44 211 145
44 211 145
45 210 145
46 209 145
46 209 145
47 208 145
47 207 145
48 207 145
49 206 145
49 206 145
50 205 145
51 204 145
51 204 145
52 203 145
53 202 145
53 202 145
54 201 145
55 200 145
55 200 145
56 199 145
56 199 145
57 198 145
58 197 145
58 197 145
59 196 145
60 195 145
60 195 145
61 194 145
62 193 145
62 193 145
63 192 145
63 191 145
64 191 145
65 190 145
65 190 145
66 189 145
67 188 145
67 188 145
68 187 145
69 186 145
69 186 145
70 185 145
71 184 145
71 184 145
72 183 145
72 183 145
73 182 145
74 181 145
74 181 145
75 180 145
76 179 145
76 179 145
77 178 145
78 177 145
78 177 145
79 176 145
79 175 145
80 175 145
81 174 145
81 174 145
82 173 145
83 172 145
83 172 145
84 171 145
85 170 145
85 170 145
86 169 145
87 168 145
87 168 145
88 167 145
88 167 145
89 166 145
90 165 145
90 165 145
91 164 145
92 163 145
92 163 145
93 162 145
94 161 145
94 161 145
95 160 145
95 159 145
96 159 145
97 158 145
97 158 145
98 157 145
99 156 145
99 156 145
100 155 145
101 154 145
101 154 145
102 153 145
103 152 145
103 152 145
104 151 145
104 151 145
105 150 145
106 149 145
106 149 145
107 148 145
108 147 145
108 147 145
109 146 145
110 145 145
110 145 145
111 144 145
111 143 145
112 143 145
113 142 145
113 142 145
114 141 145
115 140 145
115 140 145
116 139 145
117 138 145
117 138 145
118 137 145
119 136 145
119 136 145
120 135 145
120 135 145
121 134 145
122 133 145
122 133 145
123 132 145
124 131 145
124 131 145
125 130 145
126 129 145
126 129 145
127 128 145
127 127 145
128 127 145
129 126 145
129 126 145
130 125 145
131 124 145
131 124 145
132 123 145
133 122 145
133 122 145
134 121 145
135 120 145
135 120 145
136 119 145
136 119 145
137 118 145
138 117 145
138 117 145
139 116 145
140 115 145
140 115 145
141 114 145
142 113 145
142 113 145
143 112 145
143 111 145
144 111 145
145 110 145
145 110 145
146 109 145
147 108 145
147 108 145
148 107 145
149 106 145
149 106 145
150 105 145
151 104 145
151 104 145
152 103 145
152 103 145
153 102 145
154 101 145
154 101 145
155 100 145
156 99 145
156 99 145
157 98 145
158 97 145
158 97 145
159 96 145
159 95 145
160 95 145
161 94 145
161 94 145
162 93 145
163 92 145
163 92 145
164 91 145
165 90 145
165 90 145
166 89 145
167 88 145
167 88 145
168 87 145
168 87 145
169 86 145
170 85 145
170 85 145
171 84 145
172 83 145
172 83 145
173 82 145
174 81 145
174 81 145
175 80 145
175 79 145
176 79 145
177 78 145
177 78 145
178 77 145
179 76 145
179 76 145
180 75 145
181 74 145
181 74 145
182 73 145
183 72 145
183 72 145
184 71 145
184 71 145
185 70 145
186 69 145
186 69 145
187 68 145
188 67 145
188 67 145
189 66 145
190 65 145
190 65 145
191 64 145
191 63 145
192 63 145
193 62 145
193 62 145
194 61 145
195 60 145
195 60 145
196 59 145
197 58 145
197 58 145
198 57 145
199 56 145
199 56 145
200 55 145
200 55 145
201 54 145
202 53 145
202 53 145
203 52 145
204 51 145
204 51 145
205 50 145
206 49 145
206 49 145
207 48 145
207 47 145
208 47 145
209 46 145
209 46 145
210 45 145
211 44 145
211 44 145
212 43 145
213 42 145
213 42 145
214 41 145
215 40 145
215 40 145
216 39 145
216 39 145
217 38 145
218 37 145
218 37 145
219 36 145
220 35 145
220 35 145
221 34 145
222 33 145
222 33 145
223 32 145
223 31 145
224 31 145
225 30 145
225 30 145
226 29 145
227 28 145
227 28 145
228 27 145
229 26 145
229 26 145
230 25 145
231 24 145
231 24 145
232 23 145
232 23 145
233 22 145
234 21 145
234 21 145
235 20 145
236 19 145
236 19 145
237 18 145
238 17 145
238 17 145
239 16 145
239 15 145
240 15 145
241 14 145
241 14 145
242 13 145
243 12 145
243 12 145
244 11 145
245 10 145
245 10 145
246 9 145
247 8 145
247 8 145
248 7 145
248 7 145
249 6 145
250 5 145
250 5 145
251 4 145
252 3 145
252 3 145
253 2 145
254 1 145
254 1 145
255 0 145
0 255 146
0 255 146
1 254 146
1 254 146
2 253 146
3 252 146
3 252 146
4 251 146
5 250 146
5 250 146
6 249 146
7 248 146
7 248 146
8 247 146
8 247 146
9 246 146
10 245 146
10 245 146
11 244 146
12 243 146
12 243 146
13 242 146
14 241 146
14 241 146
15 240 146
15 239 146
16 239 146
17 238 146
17 238 146
18 237 146
19 236 146
19 236 146
20 235 146
21 234 146
21 234 146
22 233 146
23 232 146
23 232 146
24 231 146
24 231 146
25 230 146
26 229 146
26 229 146
27 228 146
28 227 146
28 227 146
29 226 146
30 225 146
30 225 146
31 224 146
31 223 146
32 223 146
33 222 146
33 222 146
34 221 146
35 220 146
35 220 146
36 219 146
37 218 146
37 218 146
38 217 146
39 216 146
39 216 146
40 215 146
40 215 146
41 214 146
42 213 146
42 213 146
43 212 146
44 211 146
44 211 146
45 210 146
46 209 146
46 209 146
47 208 146
47 207 146
48 207 146
49 206 146
49 206 146
50 205 146
51 204 146
51 204 146
52 203 146
53 202 146
53 202 146
54 201 146
55 200 146
55 200 146
56 199 146
56 199 146
57 198 146
58 197 146
58 197 146
59 196 146
60 195 146
60 195 146
61 194 146
62 193 146
62 193 146
63 192 146
63 191 146
64 191 146
65 190 146
65 190 146
66 189 146
67 188 146
67 188 146
68 187 146
69 186 146
69 186 146
70 185 146
71 184 146
71 184 146
72 183 146
72 183 146
73 182 146
74 181 146
74 181 146
75 180 146
76 179 146
76 179 146
77 178 146
78 177 146
78 177 146
79 176 146
79 175 146
80 175 146
81 174 146
81 174 146
82 173 146
83 172 146
83 172 146
84 171 146
85 170 146
85 170 146
86 169 146
87 168 146
87 168 146
88 167 146
88 167 146
89 166 146
90 165 146
90 165 146
91 164 146
92 163 146
92 163 146
93 162 146
94 161 146
94 161 146
95 160 146
95 159 146
96 159 146
97 158 146
97 158 146
98 157 146
99 156 146
99 156 146
100 155 146
101 154 146
101 154 146
102 153 146
103 152 146
103 152 146
104 151 146
104 151 146
105 150 146
106 149 146
106 149 146
107 148 146
108 147 146
108 147 146
109 146 146
110 145 146
110 145 146
111 144 146
111 143 146
112 143 146
113 142 146
113 142 146
114 141 146
115 140 146
115 140 146
116 139 146
117 138 146
117 138 146
118 137 146
119 136 146
119 136 146
120 135 146
120 135 146
121 134 146
122 133 146
122 133 146
123 132 146
124 131 146
124 131 146
125 130 146
126 129 146
126 129 146
127 128 146
127 127 146
128 127 146
129 126 146
129 126 146
130 125 146
131 124 146
131 124 146
132 123 146
133 122 146
133 122 146
134 121 146
135 120 146
135 120 146
136 119 146
136 119 146
137 118 146
138 117 146
138 117 146
139 116 146
140 115 146
140 115 146
141 114 146
142 113 146
142 113 146
143 112 146
143 111 146
144 111 146
145 110 146
145 110 146
146 109 146
147 108 146
147 108 146
148 107 146
149 106 146
149 106 146
150 105 146
151 104 146
151 104 146
152 103 146
152 103 146
153 102 146
154 101 146
154 101 146
155 100 146
156 99 146
156 99 146
157 98 146
158 97 146
158 97 146
159 96 146
159 95 146
160 95 146
161 94 146
161 94 146
162 93 146
163 92 146
163 92 146
164 91 146
165 90 146
165 90 146
166 89 146
167 88 146
167 88 146
168 87 146
168 87 146
169 86 146
170 85 146
170 85 146
171 84 146
172 83 146
172 83 146
173 82 146
174 81 146
174 81 146
175 80 146
175 79 146
176 79 146
177 78 146
177 78 146
178 77 146
179 76 146
179 76 146
180 75 146
181 74 146
181 74 146
182 73 146
183 72 146
183 72 146
184 71 146
184 71 146
185 70 146
186 69 146
186 69 146
187 68 146
188 67 146
188 67 146
189 66 146
190 65 146
190 65 146
191 64 146
191 63 146
192 63 146
193 62 146
193 62 146
194 61 146
195 60 146
195 60 146
196 59 146
197 58 146
197 58 146
198 57 146
199 56 146
199 56 146
200 55 146
200 55 146
201 54 146
202 53 146
202 53 146
203 52 146
204 51 146
204 51 146
205 50 146
206 49 146
206 49 146
207 48 146
207 47 146
208 47 146
209 46 146
209 46 146
210 45 146
211 44 146
211 44 146
212 43 146
213 42 146
213 42 146
214 41 146
215 40 146
215 40 146
216 39 146
216 39 146
217 38 146
218 37 146
218 37 146
219 36 146
220 35 146
220 35 146
221 34 146
222 33 146
222 33 146
223 32 146
223 31 146
224 31 146
225 30 146
225 30 146
226 29 146
227 28 146
227 28 146
228 27 146
229 26 146
229 26 146
230 25 146
231 24 146
231 24 146
232 23 146
232 23 146
233 22 146
234 21 146
234 21 146
235 20 146
236 19 146
236 19 146
237 18 146
238 17 146
238 17 146
239 16 146
239 15 146
240 15 146
241 14 146
241 14 146
242 13 146
243 12 146
243 12 146
244 11 146
245 10 146
245 10 146
246 9 146
247 8 146
247 8 146
248 7 146
248 7 146
249 6 146
250 5 146
250 5 146
251 4 146
252 3 146
252 3 146
253 2 146
254 1 146
254 1 146
255 0 146
0 255 147
0 255 147
1 254 147
1 254 147
2 253 147
3 252 147
3 252 147
4 251 147
5 250 147
5 250 147
6 249 147
7 248 147
7 248 147
8 247 147
8 247 147
9 246 147
10 245 147
10 245 147
11 244 147
12 243 147
12 243 147
13 242 147
14 241 147
14 241 147
15 240 147
15 239 147
16 239 147
17 238 147
17 238 147
18 237 147
19 236 147
19 236 147
20 235 147
21 234 147
21 234 147
22 233 147
23 232 147
23 232 147
24 231 147
24 231 147
25 230 147
26 229 147
26 229 147
27 228 147
28 227 147
28 227 147
29 226 147
30 225 147
30 225 147
31 224 147
31 223 147
32 223 147
33 222 147
33 222 147
34 221 147
35 220 147
35 220 147
36 219 147
37 218 147
37 218 147
38 217 147
39 216 147
39 216 147
40 215 147
40 215 147
41 214 147
42 213 147
42 213 147
43 212 147
44 211 147
44 211 147
45 210 147
46 209 147
46 209 147
47 208 147
47 207 147
48 207 147
49 206 147
49 206 147
50 205 147
51 204 147
51 204 147
52 203 147
53 202 147
53 202 147
54 201 147
55 200 147
55 200 147
56 199 147
56 199 147
57 198 147
58 197 147
58 197 147
59 196 147
60 195 147
60 195 147
61 194 147
62 193 147
62 193 147
63 192 147
63 191 147
64 191 147
65 190 147
65 190 147
66 189 147
67 188 147
67 188 147
68 187 147
69 186 147
69 186 147
70 185 147
71 184 147
71 184 147
72 183 147
72 183 147
73 182 147
74 181 147
74 181 147
75 180 147
76 179 147
76 179 147
77 178 147
78 177 147
78 177 147
79 176 147
79 175 147
80 175 147
81 174 147
81 174 147
82 173 147
83 172 147
83 172 147
84 171 147
85 170 147
85 170 147
86 169 147
87 168 147
87 168 147
88 167 147
88 167 147
89 166 147
90 165 147
90 165 147
91 164 147
92 163 147
92 163 147
93 162 147
94 161 147
94 161 147
95 160 147
95 159 147
96 159 147
97 158 147
97 158 147
98 157 147
99 156 147
99 156 147
100 155 147
101 154 147
101 154 147
102 153 147
103 152 147
103 152 147
104 151 147
104 151 147
105 150 147
106 149 147
106 149 147
107 148 147
108 147 147
108 147 147
109 146 147
110 145 147
110 145 147
111 144 147
111 143 147
112 143 147
113 142 147
113 142 147
114 141 147
115 140 147
115 140 147
116 139 147
117 138 147
117 138 147
118 137 147
119 136 147
119 136 147
120 135 147
120 135 147
121 134 147
122 133 147
122 133 147
123 132 147
124 131 147
124 131 147
125 130 147
126 129 147
126 129 147
127 128 147
127 127 147
128 127 147
129 126 147
129 126 147
130 125 147
131 124 147
131 124 147
132 123 147
133 122 147
133 122 147
134 121 147
135 120 147
135 120 147
136 119 147
136 119 147
137 118 147
138 117 147
138 117 147
139 116 147
140 115 147
140 115 147
141 114 147
142 113 147
142 113 147
143 112 147
143 111 147
144 111 147
145 110 147
145 110 147
146 109 147
147 108 147
147 108 147
148 107 147
149 106 147
149 106 147
150 105 147
151 104 147
151 104 147
152 103 147
152 103 147
153 102 147
154 101 147
154 101 147
155 100 147
156 99 147
156 99 147
157 98 147
158 97 147
158 97 147
159 96 147
159 95 147
160 95 147
161 94 147
161 94 147
162 93 147
163 92 147
163 92 147
164 91 147
165 90 147
165 90 147
166 89 147
167 88 147
167 88 147
168 87 147
168 87 147
169 86 147
170 85 147
170 85 147
171 84 147
172 83 147
172 83 147
173 82 147
174 81 147
174 81 147
175 80 147
175 79 147
176 79 147
177 78 147
177 78 147
178 77 147
179 76 147
179 76 147
180 75 147
181 74 147
181 74 147
182 73 147
183 72 147
183 72 147
184 71 147
184 71 147
185 70 147
186 69 147
186 69 147
187 68 147
188 67 147
188 67 147
189 66 147
190 65 147
190 65 147
191 64 147
191 63 147
192 63 147
193 62 147
193 62 147
194 61 147
195 60 147
195 60 147
196 59 147
197 58 147
197 58 147
198 57 147
199 56 147
199 56 147
200 55 147
200 55 147
201 54 147
202 53 147
202 53 147
203 52 147
204 51 147
204 51 147
205 50 147
206 49 147
206 49 147
207 48 147
207 47 147
208 47 147
209 46 147
209 46 147
210 45 147
211 44 147
211 44 147
212 43 147
213 42 147
213 42 147
214 41 147
215 40 147
215 40 147
216 39 147
216 39 147
217 38 147
218 37 147
218 37 147
219 36 147
220 35 147
220 35 147
221 34 147
222 33 147
222 33 147
223 32 147
223 31 147
224 31 147
225 30 147
225 30 147
226 29 147
227 28 147
227 28 147
228 27 147
229 26 147
229 26 147
230 25 147
231 24 147
231 24 147
232 23 147
232 23 147
233 22 147
234 21 147
234 21 147
235 20 147
236 19 147
236 19 147
237 18 147
238 17 147
238 17 147
239 16 147
239 15 147
240 15 147
241 14 147
241 14 147
242 13 147
243 12 147
243 12 147
244 11 147
245 10 147
245 10 147
246 9 147
247 8 147
247 8 147
248 7 147
248 7 147
249 6 147
250 5 147
250 5 147
251 4 147
252 3 147
252 3 147
253 2 147
254 1 147
254 1 147
255 0 147
0 255 149
0 255 149
1 254 149
1 254 149
2 253 149
3 252 149
3 252 149
4 251 149
5 250 149
5 250 149
6 249 149
7 248 149
7 248 149
8 247 149
8 247 149
9 246 149
10 245 149
10 245 149
11 244 149
12 243 149
12 243 149
13 242 149
14 241 149
14 241 149
15 240 149
15 239 149
16 239 149
17 238 149
17 238 149
18 237 149
19 236 149
19 236 149
20 235 149
21 234 149
21 234 149
22 233 149
23 232 149
23 232 149
24 231 149
24 231 149
25 230 149
26 229 149
26 229 149
27 228 149
28 227 149
28 227 149
29 226 149
30 225 149
30 225 149
31 224 149
31 223 149
32 223 149
33 222 149
33 222 149
34 221 149
35 220 149
35 220 149
36 219 149
37 218 149
37 218 149
38 217 149
39 216 149
39 216 149
40 215 149
40 215 149
41 214 149
42 213 149
42 213 149
43 212 149
44 211 149
44 211 149
45 210 149
46 209 149
46 209 149
47 208 149
47 207 149
48 207 149
49 206 149
49 206 149
50 205 149
51 204 149
51 204 149
52 203 149
53 202 149
53 202 149
54 201 149
55 200 149
55 200 149
56 199 149
56 199 149
57 198 149
58 197 149
58 197 149
59 196 149
60 195 149
60 195 149
61 194 149
62 193 149
62 193 149
63 192 149
63 191 149
64 191 149
65 190 149
65 190 149
66 189 149
67 188 149
67 188 149
68 187 149
69 186 149
69 186 149
70 185 149
71 184 149
71 184 149
72 183 149
72 183 149
73 182 149
74 181 149
74 181 149
75 180 149
76 179 149
76 179 149
77 178 149
78 177 149
78 177 149
79 176 149
79 175 149
80 175 149
81 174 149
81 174 149
82 173 149
83 172 149
83 172 149
84 171 149
85 170 149
85 170 149
86 169 149
87 168 149
87 168 149
88 167 149
88 167 149
89 166 149
90 165 149
90 165 149
91 164 149
92 163 149
92 163 149
93 162 149
94 161 149
94 161 149
95 160 149
95 159 149
96 159 149
97 158 149
97 158 149
98 157 149
99 156 149
99 156 149
100 155 149
101 154 149
101 154 149
102 153 149
103 152 149
103 152 149
104 151 149
104 151 149
105 150 149
106 149 149
106 149 149
107 148 149
108 147 149
108 147 149
109 146 149
110 145 149
110 145 149
111 144 149
111 143 149
112 143 149
113 142 149
113 142 149
114 141 149
115 140 149
115 140 149
116 139 149
117 138 149
117 138 149
118 137 149
119 136 149
119 136 149
120 135 149
120 135 149
121 134 149
122 133 149
122 133 149
123 132 149
124 131 149
124 131 149
125 130 149
126 129 149
126 129 149
127 128 149
127 127 149
128 127 149
129 126 149
129 126 149
130 125 149
131 124 149
131 124 149
132 123 149
133 122 149
133 122 149
134 121 149
135 120 149
135 120 149
136 119 149
136 119 149
137 118 149
138 117 149
138 117 149
139 116 149
140 115 149
140 115 149
141 114 149
142 113 149
142 113 149
143 112 149
143 111 149
144 111 149
145 110 149
145 110 149
146 109 149
147 108 149
147 108 149
148 107 149
149 106 149
149 106 149
150 105 149
151 104 149
151 104 149
152 103 149
152 103 149
153 102 149
154 101 149
154 101 149
155 100 149
156 99 149
156 99 149
157 98 149
158 97 149
158 97 149
159 96 149
159 95 149
160 95 149
161 94 149
161 94 149
162 93 149
163 92 149
163 92 149
164 91 149
165 90 149
165 90 149
166 89 149
167 88 149
167 88 149
168 87 149
168 87 149
169 86 149
170 85 149
170 85 149
171 84 149
172 83 149
172 83 149
173 82 149
174 81 149
174 81 149
175 80 149
175 79 149
176 79 149
177 78 149
177 78 149
178 77 149
179 76 149
179 76 149
180 75 149
181 74 149
181 74 149
182 73 149
183 72 149
183 72 149
184 71 149
184 71 149
185 70 149
186 69 149
186 69 149
187 68 149
188 67 149
188 67 149
189 66 149
190 65 149
190 65 149
191 64 149
191 63 149
192 63 149
193 62 149
193 62 149
194 61 149
195 60 149
195 60 149
196 59 149
197 58 149
197 58 149
198 57 149
199 56 149
199 56 149
200 55 149
200 55 149
201 54 149
202 53 149
202 53 149
203 52 149
204 51 149
204 51 149
205 50 149
206 49 149
206 49 149
207 48 149
207 47 149
208 47 149
209 46 149
209 46 149
210 45 149
211 44 149
211 44 149
212 43 149
213 42 149
213 42 149
214 41 149
215 40 149
215 40 149
216 39 149
216 39 149
217 38 149
218 37 149
218 37 149
219 36 149
220 35 149
220 35 149
221 34 149
222 33 149
222 33 149
223 32 149
223 31 149
224 31 149
225 30 149
225 30 149
226 29 149
227 28 149
227 28 149
228 27 149
229 26 149
229 26 149
230 25 149
231 24 149
231 24 149
232 23 149
232 23 149
233 22 149
234 21 149
234 21 149
235 20 149
236 19 149
236 19 149
237 18 149
238 17 149
238 17 149
239 16 149
239 15 149
240 15 149
241 14 149
241 14 149
242 13 149
243 12 149
243 12 149
244 11 149
245 10 149
245 10 149
246 9 149
247 8 149
247 8 149
248 7 149
248 7 149
249 6 149
250 5 149
250 5 149
251 4 149
252 3 149
252 3 149
253 2 149
254 1 149
254 1 149
255 0 149
0 255 150
0 255 150
1 254 150
1 254 150
2 253 150
3 252 150
3 252 150
4 251 150
5 250 150
5 250 150
6 249 150
7 248 150
7 248 150
8 247 150
8 247 150
9 246 150
10 245 150
10 245 150
11 244 150
12 243 150
12 243 150
13 242 150
14 241 150
14 241 150
15 240 150
15 239 150
16 239 150
17 238 150
17 238 150
18 237 150
19 236 150
19 236 150
20 235 150
21 234 150
21 234 150
22 233 150
23 232 150
23 232 150
24 231 150
24 231 150
25 230 150
26 229 150
26 229 150
27 228 150
28 227 150
28 227 150
29 226 150
30 225 150
30 225 150
31 224 150
31 223 150
32 223 150
33 222 150
33 222 150
34 221 150
35 220 150
35 220 150
36 219 150
37 218 150
37 218 150
38 217 150
39 216 150
39 216 150
40 215 150
40 215 150
41 214 150
42 213 150
42 213 150
43 212 150
44 211 150
44 211 150
45 210 150
46 209 150
46 209 150
47 208 150
47 207 150
48 207 150
49 206 150
49 206 150
50 205 150
51 204 150
51 204 150
52 203 150
53 202 150
53 202 150
54 201 150
55 200 150
55 200 150
56 199 150
56 199 150
57 198 150
58 197 150
58 197 150
59 196 150
60 195 150
60 195 150
61 194 150
62 193 150
62 193 150
63 192 150
63 191 150
64 191 150
65 190 150
65 190 150
66 189 150
67 188 150
67 188 150
68 187 150
69 186 150
69 186 150
70 185 150
71 184 150
71 184 150
72 183 150
72 183 150
73 182 150
74 181 150
74 181 150
75 180 150
76 179 150
76 179 150
77 178 150
78 177 150
78 177 150
79 176 150
79 175 150
80 175 150
81 174 150
81 174 150
82 173 150
83 172 150
83 172 150
84 171 150
85 170 150
85 170 150
86 169 150
87 168 150
87 168 150
88 167 150
88 167 150
89 166 150
90 165 150
90 165 150
91 164 150
92 163 150
92 163 150
93 162 150
94 161 150
94 161 150
95 160 150
95 159 150
96 159 150
97 158 150
97 158 150
98 157 150
99 156 150
99 156 150
100 155 150
101 154 150
101 154 150
102 153 150
103 152 150
103 152 150
104 151 150
104 151 150
105 150 150
106 149 150
106 149 150
107 148 150
108 147 150
108 147 150
109 146 150
110 145 150
110 145 150
111 144 150
111 143 150
112 143 150
113 142 150
113 142 150
114 141 150
115 140 150
115 140 150
116 139 150
117 138 150
117 138 150
118 137 150
119 136 150
119 136 150
120 135 150
120 135 150
121 134 150
122 133 150
122 133 150
123 132 150
124 131 150
124 131 150
125 130 150
126 129 150
126 129 150
127 128 150
127 127 150
128 127 150
129 126 150
129 126 150
130 125 150
131 124 150
131 124 150
132 123 150
133 122 150
133 122 150
134 121 150
135 120 150
135 120 150
136 119 150
136 119 150
137 118 150
138 117 150
138 117 150
139 116 150
140 115 150
140 115 150
141 114 150
142 113 150
142 113 150
143 112 150
143 111 150
144 111 150
145 110 150
145 110 150
146 109 150
147 108 150
147 108 150
148 107 150
149 106 150
149 106 150
150 105 150
151 104 150
151 104 150
152 103 150
152 103 150
153 102 150
154 101 150
154 101 150
155 100 150
156 99 150
156 99 150
157 98 150
158 97 150
158 97 150
159 96 150
159 95 150
160 95 150
161 94 150
161 94 150
162 93 150
163 92 150
163 92 150
164 91 150
165 90 150
165 90 150
166 89 150
167 88 150
167 88 150
168 87 150
168 87 150
169 86 150
170 85 150
170 85 150
171 84 150
172 83 150
172 83 150
173 82 150
174 81 150
174 81 150
175 80 150
175 79 150
176 79 150
177 78 150
177 78 150
178 77 150
179 76 150
179 76 150
180 75 150
181 74 150
181 74 150
182 73 150
183 72 150
183 72 150
184 71 150
184 71 150
185 70 150
186 69 150
186 69 150
187 68 150
188 67 150
188 67 150
189 66 150
190 65 150
190 65 150
191 64 150
191 63 150
192 63 150
193 62 150
193 62 150
194 61 150
195 60 150
195 60 150
196 59 150
197 58 150
197 58 150
198 57 150
199 56 150
199 56 150
200 55 150
200 55 150
201 54 150
202 53 150
202 53 150
203 52 150
204 51 150
204 51 150
205 50 150
206 49 150
206 49 150
207 48 150
207 47 150
208 47 150
209 46 150
209 46 150
210 45 150
211 44 150
211 44 150
212 43 150
213 42 150
213 42 150
214 41 150
215 40 150
215 40 150
216 39 150
216 39 150
217 38 150
218 37 150
218 37 150
219 36 150
220 35 150
220 35 150
221 34 150
222 33 150
222 33 150
223 32 150
223 31 150
224 31 150
225 30 150
225 30 150
226 29 150
227 28 150
227 28 150
228 27 150
229 26 150
229 26 150
230 25 150
231 24 150
231 24 150
232 23 150
232 23 150
233 22 150
234 21 150
234 21 150
235 20 150
236 19 150
236 19 150
237 18 150
238 17 150
238 17 150
239 16 150
239 15 150
240 15 150
241 14 150
241 14 150
242 13 150
243 12 150
243 12 150
244 11 150
245 10 150
245 10 150
246 9 150
247 8 150
247 8 150
248 7 150
248 7 150
249 6 150
250 5 150
250 5 150
251 4 150
252 3 150
252 3 150
253 2 150
254 1 150
254 1 150
255 0 150
0 255 151
0 255 151
1 254 151
1 254 151
2 253 151
3 252 151
3 252 151
4 251 151
5 250 151
5 250 151
6 249 151
7 248 151
7 248 151
8 247 151
8 247 151
9 246 151
10 245 151
10 245 151
11 244 151
12 243 151
12 243 151
13 242 151
14 241 151
14 241 151
15 240 151
15 239 151
16 239 151
17 238 151
17 238 151
18 237 151
19 236 151
19 236 151
20 235 151
21 234 151
21 234 151
22 233 151
23 232 151
23 232 151
24 231 151
24 231 151
25 230 151
26 229 151
26 229 151
27 228 151
28 227 151
28 227 151
29 226 151
30 225 151
30 225 151
31 224 151
31 223 151
32 223 151
33 222 151
33 222 151
34 221 151
35 220 151
35 220 151
36 219 151
37 218 151
37 218 151
38 217 151
39 216 151
39 216 151
40 215 151
40 215 151
41 214 151
42 213 151
42 213 151
43 212 151
44 211 151
44 211 151
45 210 151
46 209 151
46 209 151
47 208 151
47 207 151
48 207 151
49 206 151
49 206 151
50 205 151
51 204 151
51 204 151
52 203 151
53 202 151
53 202 151
54 201 151
55 200 151
55 200 151
56 199 151
56 199 151
57 198 151
58 197 151
58 197 151
59 196 151
60 195 151
60 195 151
61 194 151
62 193 151
62 193 151
63 192 151
63 191 151
64 191 151
65 190 151
65 190 151
66 189 151
67 188 151
67 188 151
68 187 151
69 186 151
69 186 151
70 185 151
71 184 151
71 184 151
72 183 151
72 183 151
73 182 151
74 181 151
74 181 151
75 180 151
76 179 151
76 179 151
77 178 151
78 177 151
78 177 151
79 176 151
79 175 151
80 175 151
81 174 151
81 174 151
82 173 151
83 172 151
83 172 151
84 171 151
85 170 151
85 170 151
86 169 151
87 168 151
87 168 151
88 167 151
88 167 151
89 166 151
90 165 151
90 165 151
91 164 151
92 163 151
92 163 151
93 162 151
94 161 151
94 161 151
95 160 151
95 159 151
96 159 151
97 158 151
97 158 151
98 157 151
99 156 151
99 156 151
100 155 151
101 154 151
101 154 151
102 153 151
103 152 151
103 152 151
104 151 151
104 151 151
105 150 151
106 149 151
106 149 151
107 148 151
108 147 151
108 147 151
109 146 151
110 145 151
110 145 151
111 144 151
111 143 151
112 143 151
113 142 151
113 142 151
114 141 151
115 140 151
115 140 151
116 139 151
117 138 151
117 138 151
118 137 151
119 136 151
119 136 151
120 135 151
120 135 151
121 134 151
122 133 151
122 133 151
123 132 151
124 131 151
124 131 151
125 130 151
126 129 151
126 129 151
127 128 151
127 127 151
128 127 151
129 126 151
129 126 151
130 125 151
131 124 151
131 124 151
132 123 151
133 122 151
133 122 151
134 121 151
135 120 151
135 120 151
136 119 151
136 119 151
137 118 151
138 117 151
138 117 151
139 116 151
140 115 151
140 115 151
141 114 151
142 113 151
142 113 151
143 112 151
143 111 151
144 111 151
145 110 151
145 110 151
146 109 151
147 108 151
147 108 151
148 107 151
149 106 151
149 106 151
150 105 151
151 104 151
151 104 151
152 103 151
152 103 151
153 102 151
154 101 151
154 101 151
155 100 151
156 99 151
156 99 151
157 98 151
158 97 151
158 97 151
159 96 151
159 95 151
160 95 151
161 94 151
161 94 151
162 93 151
163 92 151
163 92 151
164 91 151
165 90 151
165 90 151
166 89 151
167 88 151
167 88 151
168 87 151
168 87 151
169 86 151
170 85 151
170 85 151
171 84 151
172 83 151
172 83 151
173 82 151
174 81 151
174 81 151
175 80 151
175 79 151
176 79 151
177 78 151
177 78 151
178 77 151
179 76 151
179 76 151
180 75 151
181 74 151
181 74 151
182 73 151
183 72 151
183 72 151
184 71 151
184 71 151
185 70 151
186 69 151
186 69 151
187 68 151
188 67 151
188 67 151
189 66 151
190 65 151
190 65 151
191 64 151
191 63 151
192 63 151
193 62 151
193 62 151
194 61 151
195 60 151
195 60 151
196 59 151
197 58 151
197 58 151
198 57 151
199 56 151
199 56 151
200 55 151
200 55 151
201 54 151
202 53 151
202 53 151
203 52 151
204 51 151
204 51 151
205 50 151
206 49 151
206 49 151
207 48 151
207 47 151
208 47 151
209 46 151
209 46 151
210 45 151
211 44 151
211 44 151
212 43 151
213 42 151
213 42 151
214 41 151
215 40 151
215 40 151
216 39 151
216 39 151
217 38 151
218 37 151
218 37 151
219 36 151
220 35 151
220 35 151
221 34 151
222 33 151
222 33 151
223 32 151
223 31 151
224 31 151
225 30 151
225 30 151
226 29 151
227 28 151
227 28 151
228 27 151
229 26 151
229 26 151
230 25 151
231 24 151
231 24 151
232 23 151
232 23 151
233 22 151
234 21 151
234 21 151
235 20 151
236 19 151
236 19 151
237 18 151
238 17 151
238 17 151
239 16 151
239 15 151
240 15 151
241 14 151
241 14 151
242 13 151
243 12 151
243 12 151
244 11 151
245 10 151
245 10 151
246 9 151
247 8 151
247 8 151
248 7 151
248 7 151
249 6 151
250 5 151
250 5 151
251 4 151
252 3 151
252 3 151
253 2 151
254 1 151
254 1 151
255 0 151
0 255 152
0 255 152
1 254 152
1 254 152
2 253 152
3 252 152
3 252 152
4 251 152
5 250 152
5 250 152
6 249 152
7 248 152
7 248 152
8 247 152
8 247 152
9 246 152
10 245 152
10 245 152
11 244 152
12 243 152
12 243 152
13 242 152
14 241 152
14 241 152
15 240 152
15 239 152
16 239 152
17 238 152
17 238 152
18 237 152
19 236 152
19 236 152
20 235 152
21 234 152
21 234 152
22 233 152
23 232 152
23 232 152
24 231 152
24 231 152
25 230 152
26 229 152
26 229 152
27 228 152
28 227 152
28 227 152
29 226 152
30 225 152
30 225 152
31 224 152
31 223 152
32 223 152
33 222 152
33 222 152
34 221 152
35 220 152
35 220 152
36 219 152
37 218 152
37 218 152
38 217 152
39 216 152
39 216 152
40 215 152
40 215 152
41 214 152
42 213 152
42 213 152
43 212 152
44 211 152
44 211 152
45 210 152
46 209 152
46 209 152
47 208 152
47 207 152
48 207 152
49 206 152
49 206 152
50 205 152
51 204 152
51 204 152
52 203 152
53 202 152
53 202 152
54 201 152
55 200 152
55 200 152
56 199 152
56 199 152
57 198 152
58 197 152
58 197 152
59 196 152
60 195 152
60 195 152
61 194 152
62 193 152
62 193 152
63 192 152
63 191 152
64 191 152
65 190 152
65 190 152
66 189 152
67 188 152
67 188 152
68 187 152
69 186 152
69 186 152
70 185 152
71 184 152
71 184 152
72 183 152
72 183 152
73 182 152
74 181 152
74 181 152
75 180 152
76 179 152
76 179 152
77 178 152
78 177 152
78 177 152
79 176 152
79 175 152
80 175 152
81 174 152
81 174 152
82 173 152
83 172 152
83 172 152
84 171 152
85 170 152
85 170 152
86 169 152
87 168 152
87 168 152
88 167 152
88 167 152
89 166 152
90 165 152
90 165 152
91 164 152
92 163 152
92 163 152
93 162 152
94 161 152
94 161 152
95 160 152
95 159 152
96 159 152
97 158 152
97 158 152
98 157 152
99 156 152
99 156 152
100 155 152
101 154 152
101 154 152
102 153 152
103 152 152
103 152 152
104 151 152
104 151 152
105 150 152
106 149 152
106 149 152
107 148 152
108 147 152
108 147 152
109 146 152
110 145 152
110 145 152
111 144 152
111 143 152
112 143 152
113 142 152
113 142 152
114 141 152
115 140 152
115 140 152
116 139 152
117 138 152
117 138 152
118 137 152
119 136 152
119 136 152
120 135 152
120 135 152
121 134 152
122 133 152
122 133 152
123 132 152
124 131 152
124 131 152
125 130 152
126 129 152
126 129 152
127 128 152
127 127 152
128 127 152
129 126 152
129 126 152
130 125 152
131 124 152
131 124 152
132 123 152
133 122 152
133 122 152
134 121 152
135 120 152
135 120 152
136 119 152
136 119 152
137 118 152
138 117 152
138 117 152
139 116 152
140 115 152
140 115 152
141 114 152
142 113 152
142 113 152
143 112 152
143 111 152
144 111 152
145 110 152
145 110 152
146 109 152
147 108 152
147 108 152
148 107 152
149 106 152
149 106 152
150 105 152
151 104 152
151 104 152
152 103 152
152 103 152
153 102 152
154 101 152
154 101 152
155 100 152
156 99 152
156 99 152
157 98 152
158 97 152
158 97 152
159 96 152
159 95 152
160 95 152
161 94 152
161 94 152
162 93 152
163 92 152
163 92 152
164 91 152
165 90 152
165 90 152
166 89 152
167 88 152
167 88 152
168 87 152
168 87 152
169 86 152
170 85 152
170 85 152
171 84 152
172 83 152
172 83 152
173 82 152
174 81 152
174 81 152
175 80 152
175 79 152
176 79 152
177 78 152
177 78 152
178 77 152
179 76 152
179 76 152
180 75 152
181 74 152
181 74 152
182 73 152
183 72 152
183 72 152
184 71 152
184 71 152
185 70 152
186 69 152
186 69 152
187 68 152
188 67 152
188 67 152
189 66 152
190 65 152
190 65 152
191 64 152
191 63 152
192 63 152
193 62 152
193 62 152
194 61 152
195 60 152
195 60 152
196 59 152
197 58 152
197 58 152
198 57 152
199 56 152
199 56 152
200 55 152
200 55 152
201 54 152
202 53 152
202 53 152
203 52 152
204 51 152
204 51 152
205 50 152
206 49 152
206 49 152
207 48 152
207 47 152
208 47 152
209 46 152
209 46 152
210 45 152
211 44 152
211 44 152
212 43 152
213 42 152
213 42 152
214 41 152
215 40 152
215 40 152
216 39 152
216 39 152
217 38 152
218 37 152
218 37 152
219 36 152
220 35 152
220 35 152
221 34 152
222 33 152
222 33 152
223 32 152
223 31 152
224 31 152
225 30 152
225 30 152
226 29 152
227 28 152
227 28 152
228 27 152
229 26 152
229 26 152
230 25 152
231 24 152
231 24 152
232 23 152
232 23 152
233 22 152
234 21 152
234 21 152
235 20 152
236 19 152
236 19 152
237 18 152
238 17 152
238 17 152
239 16 152
239 15 152
240 15 152
241 14 152
241 14 152
242 13 152
243 12 152
243 12 152
244 11 152
245 10 152
245 10 152
246 9 152
247 8 152
247 8 152
248 7 152
248 7 152
249 6 152
250 5 152
250 5 152
251 4 152
252 3 152
252 3 152
253 2 152
254 1 152
254 1 152
255 0 152
0 255 153
0 255 153
1 254 153
1 254 153
2 253 153
3 252 153
3 252 153
4 251 153
5 250 153
5 250 153
6 249 153
7 248 153
7 248 153
8 247 153
8 247 153
9 246 153
10 245 153
10 245 153
11 244 153
12 243 153
12 243 153
13 242 153
14 241 153
14 241 153
15 240 153
15 239 153
16 239 153
17 238 153
17 238 153
18 237 153
19 236 153
19 236 153
20 235 153
21 234 153
21 234 153
22 233 153
23 232 153
23 232 153
24 231 153
24 231 153
25 230 153
26 229 153
26 229 153
27 228 153
28 227 153
28 227 153
29 226 153
30 225 153
30 225 153
31 224 153
31 223 153
32 223 153
33 222 153
33 222 153
34 221 153
35 220 153
35 220 153
36 219 153
37 218 153
37 218 153
38 217 153
39 216 153
39 216 153
40 215 153
40 215 153
41 214 153
42 213 153
42 213 153
43 212 153
44 211 153
44 211 153
45 210 153
46 209 153
46 209 153
47 208 153
47 207 153
48 207 153
49 206 153
49 206 153
50 205 153
51 204 153
51 204 153
52 203 153
53 202 153
53 202 153
54 201 153
55 200 153
55 200 153
56 199 153
56 199 153
57 198 153
58 197 153
58 197 153
59 196 153
60 195 153
60 195 153
61 194 153
62 193 153
62 193 153
63 192 153
63 191 153
64 191 153
65 190 153
65 190 153
66 189 153
67 188 153
67 188 153
68 187 153
69 186 153
69 186 153
70 185 153
71 184 153
71 184 153
72 183 153
72 183 153
73 182 153
74 181 153
74 181 153
75 180 153
76 179 153
76 179 153
77 178 153
78 177 153
78 177 153
79 176 153
79 175 153
80 175 153
81 174 153
81 174 153
82 173 153
83 172 153
83 172 153
84 171 153
85 170 153
85 170 153
86 169 153
87 168 153
87 168 153
88 167 153
88 167 153
89 166 153
90 165 153
90 165 153
91 164 153
92 163 153
92 163 153
93 162 153
94 161 153
94 161 153
95 160 153
95 159 153
96 159 153
97 158 153
97 158 153
98 157 153
99 156 153
99 156 153
100 155 153
101 154 153
101 154 153
102 153 153
103 152 153
103 152 153
104 151 153
104 151 153
105 150 153
106 149 153
106 149 153
107 148 153
108 147 153
108 147 153
109 146 153
110 145 153
110 145 153
111 144 153
111 143 153
112 143 153
113 142 153
113 142 153
114 141 153
115 140 153
115 140 153
116 139 153
117 138 153
117 138 153
118 137 153
119 136 153
119 136 153
120 135 153
120 135 153
121 134 153
122 133 153
122 133 153
123 132 153
124 131 153
124 131 153
125 130 153
126 129 153
126 129 153
127 128 153
127 127 153
128 127 153
129 126 153
129 126 153
130 125 153
131 124 153
131 124 153
132 123 153
133 122 153
133 122 153
134 121 153
135 120 153
135 120 153
136 119 153
136 119 153
137 118 153
138 117 153
138 117 153
139 116 153
140 115 153
140 115 153
141 114 153
142 113 153
142 113 153
143 112 153
143 111 153
144 111 153
145 110 153
145 110 153
146 109 153
147 108 153
147 108 153
148 107 153
149 106 153
149 106 153
150 105 153
151 104 153
151 104 153
152 103 153
152 103 153
153 102 153
154 101 153
154 101 153
155 100 153
156 99 153
156 99 153
157 98 153
158 97 153
158 97 153
159 96 153
159 95 153
160 95 153
161 94 153
161 94 153
162 93 153
163 92 153
163 92 153
164 91 153
165 90 153
165 90 153
166 89 153
167 88 153
167 88 153
168 87 153
168 87 153
169 86 153
170 85 153
170 85 153
171 84 153
172 83 153
172 83 153
173 82 153
174 81 153
174 81 153
175 80 153
175 79 153
176 79 153
177 78 153
177 78 153
178 77 153
179 76 153
179 76 153
180 75 153
181 74 153
181 74 153
182 73 153
183 72 153
183 72 153
184 71 153
184 71 153
185 70 153
186 69 153
186 69 153
187 68 153
188 67 153
188 67 153
189 66 153
190 65 153
190 65 153
191 64 153
191 63 153
192 63 153
193 62 153
193 62 153
194 61 153
195 60 153
195 60 153
196 59 153
197 58 153
197 58 153
198 57 153
199 56 153
199 56 153
200 55 153
200 55 153
201 54 153
202 53 153
202 53 153
203 52 153
204 51 153
204 51 153
205 50 153
206 49 153
206 49 153
207 48 153
207 47 153
208 47 153
209 46 153
209 46 153
210 45 153
211 44 153
211 44 153
212 43 153
213 42 153
213 42 153
214 41 153
215 40 153
215 40 153
216 39 153
216 39 153
217 38 153
218 37 153
218 37 153
219 36 153
220 35 153
220 35 153
221 34 153
222 33 153
222 33 153
223 32 153
223 31 153
224 31 153
225 30 153
225 30 153
226 29 153
227 28 153
227 28 153
228 27 153
229 26 153
229 26 153
230 25 153
231 24 153
231 24 153
232 23 153
232 23 153
233 22 153
234 21 153
234 21 153
235 20 153
236 19 153
236 19 153
237 18 153
238 17 153
238 17 153
239 16 153
239 15 153
240 15 153
241 14 153
241 14 153
242 13 153
243 12 153
243 12 153
244 11 153
245 10 153
245 10 153
246 9 153
247 8 153
247 8 153
248 7 153
248 7 153
249 6 153
250 5 153
250 5 153
251 4 153
252 3 153
252 3 153
253 2 153
254 1 153
254 1 153
255 0 153
0 255 154
0 255 154
1 254 154
1 254 154
2 253 154
3 252 154
3 252 154
4 251 154
5 250 154
5 250 154
6 249 154
7 248 154
7 248 154
8 247 154
8 247 154
9 246 154
10 245 154
10 245 154
11 244 154
12 243 154
12 243 154
13 242 154
14 241 154
14 241 154
15 240 154
15 239 154
16 239 154
17 238 154
17 238 154
18 237 154
19 236 154
19 236 154
20 235 154
21 234 154
21 234 154
22 233 154
23 232 154
23 232 154
24 231 154
24 231 154
25 230 154
26 229 154
26 229 154
27 228 154
28 227 154
28 227 154
29 226 154
30 225 154
30 225 154
31 224 154
31 223 154
32 223 154
33 222 154
33 222 154
34 221 154
35 220 154
35 220 154
36 219 154
37 218 154
37 218 154
38 217 154
39 216 154
39 216 154
40 215 154
40 215 154
41 214 154
42 213 154
42 213 154
43 212 154
44 211 154
44 211 154
45 210 154
46 209 154
46 209 154
47 208 154
47 207 154
48 207 154
49 206 154
49 206 154
50 205 154
51 204 154
51 204 154
52 203 154
53 202 154
53 202 154
54 201 154
55 200 154
55 200 154
56 199 154
56 199 154
57 198 154
58 197 154
58 197 154
59 196 154
60 195 154
60 195 154
61 194 154
62 193 154
62 193 154
63 192 154
63 191 154
64 191 154
65 190 154
65 190 154
66 189 154
67 188 154
67 188 154
68 187 154
69 186 154
69 186 154
70 185 154
71 184 154
71 184 154
72 183 154
72 183 154
73 182 154
74 181 154
74 181 154
75 180 154
76 179 154
76 179 154
77 178 154
78 177 154
78 177 154
79 176 154
79 175 154
80 175 154
81 174 154
81 174 154
82 173 154
83 172 154
83 172 154
84 171 154
85 170 154
85 170 154
86 169 154
87 168 154
87 168 154
88 167 154
88 167 154
89 166 154
90 165 154
90 165 154
91 164 154
92 163 154
92 163 154
93 162 154
94 161 154
94 161 154
95 160 154
95 159 154
96 159 154
97 158 154
97 158 154
98 157 154
99 156 154
99 156 154
100 155 154
101 154 154
101 154 154
102 153 154
103 152 154
103 152 154
104 151 154
104 151 154
105 150 154
106 149 154
106 149 154
107 148 154
108 147 154
108 147 154
109 146 154
110 145 154
110 145 154
111 144 154
111 143 154
112 143 154
113 142 154
113 142 154
114 141 154
115 140 154
115 140 154
116 139 154
117 138 154
117 138 154
118 137 154
119 136 154
119 136 154
120 135 154
120 135 154
121 134 154
122 133 154
122 133 154
123 132 154
124 131 154
124 131 154
125 130 154
126 129 154
126 129 154
127 128 154
127 127 154
128 127 154
129 126 154
129 126 154
130 125 154
131 124 154
131 124 154
132 123 154
133 122 154
133 122 154
134 121 154
135 120 154
135 120 154
136 119 154
136 119 154
137 118 154
138 117 154
138 117 154
139 116 154
140 115 154
140 115 154
141 114 154
142 113 154
142 113 154
143 112 154
143 111 154
144 111 154
145 110 154
145 110 154
146 109 154
147 108 154
147 108 154
148 107 154
149 106 154
149 106 154
150 105 154
151 104 154
151 104 154
152 103 154
152 103 154
153 102 154
154 101 154
154 101 154
155 100 154
156 99 154
156 99 154
157 98 154
158 97 154
158 97 154
159 96 154
159 95 154
160 95 154
161 94 154
161 94 154
162 93 154
163 92 154
163 92 154
164 91 154
165 90 154
165 90 154
166 89 154
167 88 154
167 88 154
168 87 154
168 87 154
169 86 154
170 85 154
170 85 154
171 84 154
172 83 154
172 83 154
173 82 154
174 81 154
174 81 154
175 80 154
175 79 154
176 79 154
177 78 154
177 78 154
178 77 154
179 76 154
179 76 154
180 75 154
181 74 154
181 74 154
182 73 154
183 72 154
183 72 154
184 71 154
184 71 154
185 70 154
186 69 154
186 69 154
187 68 154
188 67 154
188 67 154
189 66 154
190 65 154
190 65 154
191 64 154
191 63 154
192 63 154
193 62 154
193 62 154
194 61 154
195 60 154
195 60 154
196 59 154
197 58 154
197 58 154
198 57 154
199 56 154
199 56 154
200 55 154
200 55 154
201 54 154
202 53 154
202 53 154
203 52 154
204 51 154
204 51 154
205 50 154
206 49 154
206 49 154
207 48 154
207 47 154
208 47 154
209 46 154
209 46 154
210 45 154
211 44 154
211 44 154
212 43 154
213 42 154
213 42 154
214 41 154
215 40 154
215 40 154
216 39 154
216 39 154
217 38 154
218 37 154
218 37 154
219 36 154
220 35 154
220 35 154
221 34 154
222 33 154
222 33 154
223 32 154
223 31 154
224 31 154
225 30 154
225 30 154
226 29 154
227 28 154
227 28 154
228 27 154
229 26 154
229 26 154
230 25 154
231 24 154
231 24 154
232 23 154
232 23 154
233 22 154
234 21 154
234 21 154
235 20 154
236 19 154
236 19 154
237 18 154
238 17 154
238 17 154
239 16 154
239 15 154
240 15 154
241 14 154
241 14 154
242 13 154
243 12 154
243 12 154
244 11 154
245 10 154
245 10 154
246 9 154
247 8 154
247 8 154
248 7 154
248 7 154
249 6 154
250 5 154
250 5 154
251 4 154
252 3 154
252 3 154
253 2 154
254 1 154
254 1 154
255 0 154
0 255 155
0 255 155
1 254 155
1 254 155
2 253 155
3 252 155
3 252 155
4 251 155
5 250 155
5 250 155
6 249 155
7 248 155
7 248 155
8 247 155
8 247 155
9 246 155
10 245 155
10 245 155
11 244 155
12 243 155
12 243 155
13 242 155
14 241 155
14 241 155
15 240 155
15 239 155
16 239 155
17 238 155
17 238 155
18 237 155
19 236 155
19 236 155
20 235 155
21 234 155
21 234 155
22 233 155
23 232 155
23 232 155
24 231 155
24 231 155
25 230 155
26 229 155
26 229 155
27 228 155
28 227 155
28 227 155
29 226 155
30 225 155
30 225 155
31 224 155
31 223 155
32 223 155
33 222 155
33 222 155
34 221 155
35 220 155
35 220 155
36 219 155
37 218 155
37 218 155
38 217 155
39 216 155
39 216 155
40 215 155
40 215 155
41 214 155
42 213 155
42 213 155
43 212 155
44 211 155
44 211 155
45 210 155
46 209 155
46 209 155
47 208 155
47 207 155
48 207 155
49 206 155
49 206 155
50 205 155
51 204 155
51 204 155
52 203 155
53 202 155
53 202 155
54 201 155
55 200 155
55 200 155
56 199 155
56 199 155
57 198 155
58 197 155
58 197 155
59 196 155
60 195 155
60 195 155
61 194 155
62 193 155
62 193 155
63 192 155
63 191 155
64 191 155
65 190 155
65 190 155
66 189 155
67 188 155
67 188 155
68 187 155
69 186 155
69 186 155
70 185 155
71 184 155
71 184 155
72 183 155
72 183 155
73 182 155
74 181 155
74 181 155
75 180 155
76 179 155
76 179 155
77 178 155
78 177 155
78 177 155
79 176 155
79 175 155
80 175 155
81 174 155
81 174 155
82 173 155
83 172 155
83 172 155
84 171 155
85 170 155
85 170 155
86 169 155
87 168 155
87 168 155
88 167 155
88 167 155
89 166 155
90 165 155
90 165 155
91 164 155
92 163 155
92 163 155
93 162 155
94 161 155
94 161 155
95 160 155
95 159 155
96 159 155
97 158 155
97 158 155
98 157 155
99 156 155
99 156 155
100 155 155
101 154 155
101 154 155
102 153 155
103 152 155
103 152 155
104 151 155
104 151 155
105 150 155
106 149 155
106 149 155
107 148 155
108 147 155
108 147 155
109 146 155
110 145 155
110 145 155
111 144 155
111 143 155
112 143 155
113 142 155
113 142 155
114 141 155
115 140 155
115 140 155
116 139 155
117 138 155
117 138 155
118 137 155
119 136 155
119 136 155
120 135 155
120 135 155
121 134 155
122 133 155
122 133 155
123 132 155
124 131 155
124 131 155
125 130 155
126 129 155
126 129 155
127 128 155
127 127 155
128 127 155
129 126 155
129 126 155
130 125 155
131 124 155
131 124 155
132 123 155
133 122 155
133 122 155
134 121 155
135 120 155
135 120 155
136 119 155
136 119 155
137 118 155
138 117 155
138 117 155
139 116 155
140 115 155
140 115 155
141 114 155
142 113 155
142 113 155
143 112 155
143 111 155
144 111 155
145 110 155
145 110 155
146 109 155
147 108 155
147 108 155
148 107 155
149 106 155
149 106 155
150 105 155
151 104 155
151 104 155
152 103 155
152 103 155
153 102 155
154 101 155
154 101 155
155 100 155
156 99 155
156 99 155
157 98 155
158 97 155
158 97 155
159 96 155
159 95 155
160 95 155
161 94 155
161 94 155
162 93 155
163 92 155
163 92 155
164 91 155
165 90 155
165 90 155
166 89 155
167 88 155
167 88 155
168 87 155
168 87 155
169 86 155
170 85 155
170 85 155
171 84 155
172 83 155
172 83 155
173 82 155
174 81 155
174 81 155
175 80 155
175 79 155
176 79 155
177 78 155
177 78 155
178 77 155
179 76 155
179 76 155
180 75 155
181 74 155
181 74 155
182 73 155
183 72 155
183 72 155
184 71 155
184 71 155
185 70 155
186 69 155
186 69 155
187 68 155
188 67 155
188 67 155
189 66 155
190 65 155
190 65 155
191 64 155
191 63 155
192 63 155
193 62 155
193 62 155
194 61 155
195 60 155
195 60 155
196 59 155
197 58 155
197 58 155
198 57 155
199 56 155
199 56 155
200 55 155
200 55 155
201 54 155
202 53 155
202 53 155
203 52 155
204 51 155
204 51 155
205 50 155
206 49 155
206 49 155
207 48 155
207 47 155
208 47 155
209 46 155
209 46 155
210 45 155
211 44 155
211 44 155
212 43 155
213 42 155
213 42 155
214 41 155
215 40 155
215 40 155
216 39 155
216 39 155
217 38 155
218 37 155
218 37 155
219 36 155
220 35 155
220 35 155
221 34 155
222 33 155
222 33 155
223 32 155
223 31 155
224 31 155
225 30 155
225 30 155
226 29 155
227 28 155
227 28 155
228 27 155
229 26 155
229 26 155
230 25 155
231 24 155
231 24 155
232 23 155
232 23 155
233 22 155
234 21 155
234 21 155
235 20 155
236 19 155
236 19 155
237 18 155
238 17 155
238 17 155
239 16 155
239 15 155
240 15 155
241 14 155
241 14 155
242 13 155
243 12 155
243 12 155
244 11 155
245 10 155
245 10 155
246 9 155
247 8 155
247 8 155
248 7 155
248 7 155
249 6 155
250 5 155
250 5 155
251 4 155
252 3 155
252 3 155
253 2 155
254 1 155
254 1 155
255 0 155
0 255 157
0 255 157
1 254 157
1 254 157
2 253 157
3 252 157
3 252 157
4 251 157
5 250 157
5 250 157
6 249 157
7 248 157
7 248 157
8 247 157
8 247 157
9 246 157
10 245 157
10 245 157
11 244 157
12 243 157
12 243 157
13 242 157
14 241 157
14 241 157
15 240 157
15 239 157
16 239 157
17 238 157
17 238 157
18 237 157
19 236 157
19 236 157
20 235 157
21 234 157
21 234 157
22 233 157
23 232 157
23 232 157
24 231 157
24 231 157
25 230 157
26 229 157
26 229 157
27 228 157
28 227 157
28 227 157
29 226 157
30 225 157
30 225 157
31 224 157
31 223 157
32 223 157
33 222 157
33 222 157
34 221 157
35 220 157
35 220 157
36 219 157
37 218 157
37 218 157
38 217 157
39 216 157
39 216 157
40 215 157
40 215 157
41 214 157
42 213 157
42 213 157
43 212 157
44 211 157
44 211 157
45 210 157
46 209 157
46 209 157
47 208 157
47 207 157
48 207 157
49 206 157
49 206 157
50 205 157
51 204 157
51 204 157
52 203 157
53 202 157
53 202 157
54 201 157
55 200 157
55 200 157
56 199 157
56 199 157
57 198 157
58 197 157
58 197 157
59 196 157
60 195 157
60 195 157
61 194 157
62 193 157
62 193 157
63 192 157
63 191 157
64 191 157
65 190 157
65 190 157
66 189 157
67 188 157
67 188 157
68 187 157
69 186 157
69 186 157
70 185 157
71 184 157
71 184 157
72 183 157
72 183 157
73 182 157
74 181 157
74 181 157
75 180 157
76 179 157
76 179 157
77 178 157
78 177 157
78 177 157
79 176 157
79 175 157
80 175 157
81 174 157
81 174 157
82 173 157
83 172 157
83 172 157
84 171 157
85 170 157
85 170 157
86 169 157
87 168 157
87 168 157
88 167 157
88 167 157
89 166 157
90 165 157
90 165 157
91 164 157
92 163 157
92 163 157
93 162 157
94 161 157
94 161 157
95 160 157
95 159 157
96 159 157
97 158 157
97 158 157
98 157 157
99 156 157
99 156 157
100 155 157
101 154 157
101 154 157
102 153 157
103 152 157
103 152 157
104 151 157
104 151 157
105 150 157
106 149 157
106 149 157
107 148 157
108 147 157
108 147 157
109 146 157
110 145 157
110 145 157
111 144 157
111 143 157
112 143 157
113 142 157
113 142 157
114 141 157
115 140 157
115 140 157
116 139 157
117 138 157
117 138 157
118 137 157
119 136 157
119 136 157
120 135 157
120 135 157
121 134 157
122 133 157
122 133 157
123 132 157
124 131 157
124 131 157
125 130 157
126 129 157
126 129 157
127 128 157
127 127 157
128 127 157
129 126 157
129 126 157
130 125 157
131 124 157
131 124 157
132 123 157
133 122 157
133 122 157
134 121 157
135 120 157
135 120 157
136 119 157
136 119 157
137 118 157
138 117 157
138 117 157
139 116 157
140 115 157
140 115 157
141 114 157
142 113 157
142 113 157
143 112 157
143 111 157
144 111 157
145 110 157
145 110 157
146 109 157
147 108 157
147 108 157
148 107 157
149 106 157
149 106 157
150 105 157
151 104 157
151 104 157
152 103 157
152 103 157
153 102 157
154 101 157
154 101 157
155 100 157
156 99 157
156 99 157
157 98 157
158 97 157
158 97 157
159 96 157
159 95 157
160 95 157
161 94 157
161 94 157
162 93 157
163 92 157
163 92 157
164 91 157
165 90 157
165 90 157
166 89 157
167 88 157
167 88 157
168 87 157
168 87 157
169 86 157
170 85 157
170 85 157
171 84 157
172 83 157
172 83 157
173 82 157
174 81 157
174 81 157
175 80 157
175 79 157
176 79 157
177 78 157
177 78 157
178 77 157
179 76 157
179 76 157
180 75 157
181 74 157
181 74 157
182 73 157
183 72 157
183 72 157
184 71 157
184 71 157
185 70 157
186 69 157
186 69 157
187 68 157
188 67 157
188 67 157
189 66 157
190 65 157
190 65 157
191 64 157
191 63 157
192 63 157
193 62 157
193 62 157
194 61 157
195 60 157
195 60 157
196 59 157
197 58 157
197 58 157
198 57 157
199 56 157
199 56 157
200 55 157
200 55 157
201 54 157
202 53 157
202 53 157
203 52 157
204 51 157
204 51 157
205 50 157
206 49 157
206 49 157
207 48 157
207 47 157
208 47 157
209 46 157
209 46 157
210 45 157
211 44 157
211 44 157
212 43 157
213 42 157
213 42 157
214 41 157
215 40 157
215 40 157
216 39 157
216 39 157
217 38 157
218 37 157
218 37 157
219 36 157
220 35 157
220 35 157
221 34 157
222 33 157
222 33 157
223 32 157
223 31 157
224 31 157
225 30 157
225 30 157
226 29 157
227 28 157
227 28 157
228 27 157
229 26 157
229 26 157
230 25 157
231 24 157
231 24 157
232 23 157
232 23 157
233 22 157
234 21 157
234 21 157
235 20 157
236 19 157
236 19 157
237 18 157
238 17 157
238 17 157
239 16 157
239 15 157
240 15 157
241 14 157
241 14 157
242 13 157
243 12 157
243 12 157
244 11 157
245 10 157
245 10 157
246 9 157
247 8 157
247 8 157
248 7 157
248 7 157
249 6 157
250 5 157
250 5 157
251 4 157
252 3 157
252 3 157
253 2 157
254 1 157
254 1 157
255 0 157
0 255 158
0 255 158
1 254 158
1 254 158
2 253 158
3 252 158
3 252 158
4 251 158
5 250 158
5 250 158
6 249 158
7 248 158
7 248 158
8 247 158
8 247 158
9 246 158
10 245 158
10 245 158
11 244 158
12 243 158
12 243 158
13 242 158
14 241 158
14 241 158
15 240 158
15 239 158
16 239 158
17 238 158
17 238 158
18 237 158
19 236 158
19 236 158
20 235 158
21 234 158
21 234 158
22 233 158
23 232 158
23 232 158
24 231 158
24 231 158
25 230 158
26 229 158
26 229 158
27 228 158
28 227 158
28 227 158
29 226 158
30 225 158
30 225 158
31 224 158
31 223 158
32 223 158
33 222 158
33 222 158
34 221 158
35 220 158
35 220 158
36 219 158
37 218 158
37 218 158
38 217 158
39 216 158
39 216 158
40 215 158
40 215 158
41 214 158
42 213 158
42 213 158
43 212 158
44 211 158
44 211 158
45 210 158
46 209 158
46 209 158
47 208 158
47 207 158
48 207 158
49 206 158
49 206 158
50 205 158
51 204 158
51 204 158
52 203 158
53 202 158
53 202 158
54 201 158
55 200 158
55 200 158
56 199 158
56 199 158
57 198 158
58 197 158
58 197 158
59 196 158
60 195 158
60 195 158
61 194 158
62 193 158
62 193 158
63 192 158
63 191 158
64 191 158
65 190 158
65 190 158
66 189 158
67 188 158
67 188 158
68 187 158
69 186 158
69 186 158
70 185 158
71 184 158
71 184 158
72 183 158
72 183 158
73 182 158
74 181 158
74 181 158
75 180 158
76 179 158
76 179 158
77 178 158
78 177 158
78 177 158
79 176 158
79 175 158
80 175 158
81 174 158
81 174 158
82 173 158
83 172 158
83 172 158
84 171 158
85 170 158
85 170 158
86 169 158
87 168 158
87 168 158
88 167 158
88 167 158
89 166 158
90 165 158
90 165 158
91 164 158
92 163 158
92 163 158
93 162 158
94 161 158
94 161 158
95 160 158
95 159 158
96 159 158
97 158 158
97 158 158
98 157 158
99 156 158
99 156 158
100 155 158
101 154 158
101 154 158
102 153 158
103 152 158
103 152 158
104 151 158
104 151 158
105 150 158
106 149 158
106 149 158
107 148 158
108 147 158
108 147 158
109 146 158
110 145 158
110 145 158
111 144 158
111 143 158
112 143 158
113 142 158
113 142 158
114 141 158
115 140 158
115 140 158
116 139 158
117 138 158
117 138 158
118 137 158
119 136 158
119 136 158
120 135 158
120 135 158
121 134 158
122 133 158
122 133 158
123 132 158
124 131 158
124 131 158
125 130 158
126 129 158
126 129 158
127 128 158
127 127 158
128 127 158
129 126 158
129 126 158
130 125 158
131 124 158
131 124 158
132 123 158
133 122 158
133 122 158
134 121 158
135 120 158
135 120 158
136 119 158
136 119 158
137 118 158
138 117 158
138 117 158
139 116 158
140 115 158
140 115 158
141 114 158
142 113 158
142 113 158
143 112 158
143 111 158
144 111 158
145 110 158
145 110 158
146 109 158
147 108 158
147 108 158
148 107 158
149 106 158
149 106 158
150 105 158
151 104 158
151 104 158
152 103 158
152 103 158
153 102 158
154 101 158
154 101 158
155 100 158
156 99 158
156 99 158
157 98 158
158 97 158
158 97 158
159 96 158
159 95 158
160 95 158
161 94 158
161 94 158
162 93 158
163 92 158
163 92 158
164 91 158
165 90 158
165 90 158
166 89 158
167 88 158
167 88 158
168 87 158
168 87 158
169 86 158
170 85 158
170 85 158
171 84 158
172 83 158
172 83 158
173 82 158
174 81 158
174 81 158
175 80 158
175 79 158
176 79 158
177 78 158
177 78 158
178 77 158
179 76 158
179 76 158
180 75 158
181 74 158
181 74 158
182 73 158
183 72 158
183 72 158
184 71 158
184 71 158
185 70 158
186 69 158
186 69 158
187 68 158
188 67 158
188 67 158
189 66 158
190 65 158
190 65 158
191 64 158
191 63 158
192 63 158
193 62 158
193 62 158
194 61 158
195 60 158
195 60 158
196 59 158
197 58 158
197 58 158
198 57 158
199 56 158
199 56 158
200 55 158
200 55 158
201 54 158
202 53 158
202 53 158
203 52 158
204 51 158
204 51 158
205 50 158
206 49 158
206 49 158
207 48 158
207 47 158
208 47 158
209 46 158
209 46 158
210 45 158
211 44 158
211 44 158
212 43 158
213 42 158
213 42 158
214 41 158
215 40 158
215 40 158
216 39 158
216 39 158
217 38 158
218 37 158
218 37 158
219 36 158
220 35 158
220 35 158
221 34 158
222 33 158
222 33 158
223 32 158
223 31 158
224 31 158
225 30 158
225 30 158
226 29 158
227 28 158
227 28 158
228 27 158
229 26 158
229 26 158
230 25 158
231 24 158
231 24 158
232 23 158
232 23 158
233 22 158
234 21 158
234 21 158
235 20 158
236 19 158
236 19 158
237 18 158
238 17 158
238 17 158
239 16 158
239 15 158
240 15 158
241 14 158
241 14 158
242 13 158
243 12 158
243 12 158
244 11 158
245 10 158
245 10 158
246 9 158
247 8 158
247 8 158
248 7 158
248 7 158
249 6 158
250 5 158
250 5 158
251 4 158
252 3 158
252 3 158
253 2 158
254 1 158
254 1 158
255 0 158
0 255 159
0 255 159
1 254 159
1 254 159
2 253 159
3 252 159
3 252 159
4 251 159
5 250 159
5 250 159
6 249 159
7 248 159
7 248 159
8 247 159
8 247 159
9 246 159
10 245 159
10 245 159
11 244 159
12 243 159
12 243 159
13 242 159
14 241 159
14 241 159
15 240 159
15 239 159
16 239 159
17 238 159
17 238 159
18 237 159
19 236 159
19 236 159
20 235 159
21 234 159
21 234 159
22 233 159
23 232 159
23 232 159
24 231 159
24 231 159
25 230 159
26 229 159
26 229 159
27 228 159
28 227 159
28 227 159
29 226 159
30 225 159
30 225 159
31 224 159
31 223 159
32 223 159
33 222 159
33 222 159
34 221 159
35 220 159
35 220 159
36 219 159
37 218 159
37 218 159
38 217 159
39 216 159
39 216 159
40 215 159
40 215 159
41 214 159
42 213 159
42 213 159
43 212 159
44 211 159
44 211 159
45 210 159
46 209 159
46 209 159
47 208 159
47 207 159
48 207 159
49 206 159
49 206 159
50 205 159
51 204 159
51 204 159
52 203 159
53 202 159
53 202 159
54 201 159
55 200 159
55 200 159
56 199 159
56 199 159
57 198 159
58 197 159
58 197 159
59 196 159
60 195 159
60 195 159
61 194 159
62 193 159
62 193 159
63 192 159
63 191 159
64 191 159
65 190 159
65 190 159
66 189 159
67 188 159
67 188 159
68 187 159
69 186 159
69 186 159
70 185 159
71 184 159
71 184 159
72 183 159
72 183 159
73 182 159
74 181 159
74 181 159
75 180 159
76 179 159
76 179 159
77 178 159
78 177 159
78 177 159
79 176 159
79 175 159
80 175 159
81 174 159
81 174 159
82 173 159
83 172 159
83 172 159
84 171 159
85 170 159
85 170 159
86 169 159
87 168 159
87 168 159
88 167 159
88 167 159
89 166 159
90 165 159
90 165 159
91 164 159
92 163 159
92 163 159
93 162 159
94 161 159
94 161 159
95 160 159
95 159 159
96 159 159
97 158 159
97 158 159
98 157 159
99 156 159
99 156 159
100 155 159
101 154 159
101 154 159
102 153 159
103 152 159
103 152 159
104 151 159
104 151 159
105 150 159
106 149 159
106 149 159
107 148 159
108 147 159
108 147 159
109 146 159
110 145 159
110 145 159
111 144 159
111 143 159
112 143 159
113 142 159
113 142 159
114 141 159
115 140 159
115 140 159
116 139 159
117 138 159
117 138 159
118 137 159
119 136 159
119 136 159
120 135 159
120 135 159
121 134 159
122 133 159
122 133 159
123 132 159
124 131 159
124 131 159
125 130 159
126 129 159
126 129 159
127 128 159
127 127 159
128 127 159
129 126 159
129 126 159
130 125 159
131 124 159
131 124 159
132 123 159
133 122 159
133 122 159
134 121 159
135 120 159
135 120 159
136 119 159
136 119 159
137 118 159
138 117 159
138 117 159
139 116 159
140 115 159
140 115 159
141 114 159
142 113 159
142 113 159
143 112 159
143 111 159
144 111 159
145 110 159
145 110 159
146 109 159
147 108 159
147 108 159
148 107 159
149 106 159
149 106 159
150 105 159
151 104 159
151 104 159
152 103 159
152 103 159
153 102 159
154 101 159
154 101 159
155 100 159
156 99 159
156 99 159
157 98 159
158 97 159
158 97 159
159 96 159
159 95 159
160 95 159
161 94 159
161 94 159
162 93 159
163 92 159
163 92 159
164 91 159
165 90 159
165 90 159
166 89 159
167 88 159
167 88 159
168 87 159
168 87 159
169 86 159
170 85 159
170 85 159
171 84 159
172 83 159
172 83 159
173 82 159
174 81 159
174 81 159
175 80 159
175 79 159
176 79 159
177 78 159
177 78 159
178 77 159
179 76 159
179 76 159
180 75 159
181 74 159
181 74 159
182 73 159
183 72 159
183 72 159
184 71 159
184 71 159
185 70 159
186 69 159
186 69 159
187 68 159
188 67 159
188 67 159
189 66 159
190 65 159
190 65 159
191 64 159
191 63 159
192 63 159
193 62 159
193 62 159
194 61 159
195 60 159
195 60 159
196 59 159
197 58 159
197 58 159
198 57 159
199 56 159
199 56 159
200 55 159
200 55 159
201 54 159
202 53 159
202 53 159
203 52 159
204 51 159
204 51 159
205 50 159
206 49 159
206 49 159
207 48 159
207 47 159
208 47 159
209 46 159
209 46 159
210 45 159
211 44 159
211 44 159
212 43 159
213 42 159
213 42 159
214 41 159
215 40 159
215 40 159
216 39 159
216 39 159
217 38 159
218 37 159
218 37 159
219 36 159
220 35 159
220 35 159
221 34 159
222 33 159
222 33 159
223 32 159
223 31 159
224 31 159
225 30 159
225 30 159
226 29 159
227 28 159
227 28 159
228 27 159
229 26 159
229 26 159
230 25 159
231 24 159
231 24 159
232 23 159
232 23 159
233 22 159
234 21 159
234 21 159
235 20 159
236 19 159
236 19 159
237 18 159
238 17 159
238 17 159
239 16 159
239 15 159
240 15 159
241 14 159
241 14 159
242 13 159
243 12 159
243 12 159
244 11 159
245 10 159
245 10 159
246 9 159
247 8 159
247 8 159
248 7 159
248 7 159
249 6 159
250 5 159
250 5 159
251 4 159
252 3 159
252 3 159
253 2 159
254 1 159
254 1 159
255 0 159
0 255 160
0 255 160
1 254 160
1 254 160
2 253 160
3 252 160
3 252 160
4 251 160
5 250 160
5 250 160
6 249 160
7 248 160
7 248 160
8 247 160
8 247 160
9 246 160
10 245 160
10 245 160
11 244 160
12 243 160
12 243 160
13 242 160
14 241 160
14 241 160
15 240 160
15 239 160
16 239 160
17 238 160
17 238 160
18 237 160
19 236 160
19 236 160
20 235 160
21 234 160
21 234 160
22 233 160
23 232 160
23 232 160
24 231 160
24 231 160
25 230 160
26 229 160
26 229 160
27 228 160
28 227 160
28 227 160
29 226 160
30 225 160
30 225 160
31 224 160
31 223 160
32 223 160
33 222 160
33 222 160
34 221 160
35 220 160
35 220 160
36 219 160
37 218 160
37 218 160
38 217 160
39 216 160
39 216 160
40 215 160
40 215 160
41 214 160
42 213 160
42 213 160
43 212 160
44 211 160
44 211 160
45 210 160
46 209 160
46 209 160
47 208 160
47 207 160
48 207 160
49 206 160
49 206 160
50 205 160
51 204 160
51 204 160
52 203 160
53 202 160
53 202 160
54 201 160
55 200 160
55 200 160
56 199 160
56 199 160
57 198 160
58 197 160
58 197 160
59 196 160
60 195 160
60 195 160
61 194 160
62 193 160
62 193 160
63 192 160
63 191 160
64 191 160
65 190 160
65 190 160
66 189 160
67 188 160
67 188 160
68 187 160
69 186 160
69 186 160
70 185 160
71 184 160
71 184 160
72 183 160
72 183 160
73 182 160
74 181 160
74 181 160
75 180 160
76 179 160
76 179 160
77 178 160
78 177 160
78 177 160
79 176 160
79 175 160
80 175 160
81 174 160
81 174 160
82 173 160
83 172 160
83 172 160
84 171 160
85 170 160
85 170 160
86 169 160
87 168 160
87 168 160
88 167 160
88 167 160
89 166 160
90 165 160
90 165 160
91 164 160
92 163 160
92 163 160
93 162 160
94 161 160
94 161 160
95 160 160
95 159 160
96 159 160
97 158 160
97 158 160
98 157 160
99 156 160
99 156 160
100 155 160
101 154 160
101 154 160
102 153 160
103 152 160
103 152 160
104 151 160
104 151 160
105 150 160
106 149 160
106 149 160
107 148 160
108 147 160
108 147 160
109 146 160
110 145 160
110 145 160
111 144 160
111 143 160
112 143 160
113 142 160
113 142 160
114 141 160
115 140 160
115 140 160
116 139 160
117 138 160
117 138 160
118 137 160
119 136 160
119 136 160
120 135 160
120 135 160
121 134 160
122 133 160
122 133 160
123 132 160
124 131 160
124 131 160
125 130 160
126 129 160
126 129 160
127 128 160
127 127 160
128 127 160
129 126 160
129 126 160
130 125 160
131 124 160
131 124 160
132 123 160
133 122 160
133 122 160
134 121 160
135 120 160
135 120 160
136 119 160
136 119 160
137 118 160
138 117 160
138 117 160
139 116 160
140 115 160
140 115 160
141 114 160
142 113 160
142 113 160
143 112 160
143 111 160
144 111 160
145 110 160
145 110 160
146 109 160
147 108 160
147 108 160
148 107 160
149 106 160
149 106 160
150 105 160
151 104 160
151 104 160
152 103 160
152 103 160
153 102 160
154 101 160
154 101 160
155 100 160
156 99 160
156 99 160
157 98 160
158 97 160
158 97 160
159 96 160
159 95 160
160 95 160
161 94 160
161 94 160
162 93 160
163 92 160
163 92 160
164 91 160
165 90 160
165 90 160
166 89 160
167 88 160
167 88 160
168 87 160
168 87 160
169 86 160
170 85 160
170 85 160
171 84 160
172 83 160
172 83 160
173 82 160
174 81 160
174 81 160
175 80 160
175 79 160
176 79 160
177 78 160
177 78 160
178 77 160
179 76 160
179 76 160
180 75 160
181 74 160
181 74 160
182 73 160
183 72 160
183 72 160
184 71 160
184 71 160
185 70 160
186 69 160
186 69 160
187 68 160
188 67 160
188 67 160
189 66 160
190 65 160
190 65 160
191 64 160
191 63 160
192 63 160
193 62 160
193 62 160
194 61 160
195 60 160
195 60 160
196 59 160
197 58 160
197 58 160
198 57 160
199 56 160
199 56 160
200 55 160
200 55 160
201 54 160
202 53 160
202 53 160
203 52 160
204 51 160
204 51 160
205 50 160
206 49 160
206 49 160
207 48 160
207 47 160
208 47 160
209 46 160
209 46 160
210 45 160
211 44 160
211 44 160
212 43 160
213 42 160
213 42 160
214 41 160
215 40 160
215 40 160
216 39 160
216 39 160
217 38 160
218 37 160
218 37 160
219 36 160
220 35 160
220 35 160
221 34 160
222 33 160
222 33 160
223 32 160
223 31 160
224 31 160
225 30 160
225 30 160
226 29 160
227 28 160
227 28 160
228 27 160
229 26 160
229 26 160
230 25 160
231 24 160
231 24 160
232 23 160
232 23 160
233 22 160
234 21 160
234 21 160
235 20 160
236 19 160
236 19 160
237 18 160
238 17 160
238 17 160
239 16 160
239 15 160
240 15 160
241 14 160
241 14 160
242 13 160
243 12 160
243 12 160
244 11 160
245 10 160
245 10 160
246 9 160
247 8 160
247 8 160
248 7 160
248 7 160
249 6 160
250 5 160
250 5 160
251 4 160
252 3 160
252 3 160
253 2 160
254 1 160
254 1 160
255 0 160
0 255 161
0 255 161
1 254 161
1 254 161
2 253 161
3 252 161
3 252 161
4 251 161
5 250 161
5 250 161
6 249 161
7 248 161
7 248 161
8 247 161
8 247 161
9 246 161
10 245 161
10 245 161
11 244 161
12 243 161
12 243 161
13 242 161
14 241 161
14 241 161
15 240 161
15 239 161
16 239 161
17 238 161
17 238 161
18 237 161
19 236 161
19 236 161
20 235 161
21 234 161
21 234 161
22 233 161
23 232 161
23 232 161
24 231 161
24 231 161
25 230 161
26 229 161
26 229 161
27 228 161
28 227 161
28 227 161
29 226 161
30 225 161
30 225 161
31 224 161
31 223 161
32 223 161
33 222 161
33 222 161
34 221 161
35 220 161
35 220 161
36 219 161
37 218 161
37 218 161
38 217 161
39 216 161
39 216 161
40 215 161
40 215 161
41 214 161
42 213 161
42 213 161
43 212 161
44 211 161
44 211 161
45 210 161
46 209 161
46 209 161
47 208 161
47 207 161
48 207 161
49 206 161
49 206 161
50 205 161
51 204 161
51 204 161
52 203 161
53 202 161
53 202 161
54 201 161
55 200 161
55 200 161
56 199 161
56 199 161
57 198 161
58 197 161
58 197 161
59 196 161
60 195 161
60 195 161
61 194 161
62 193 161
62 193 161
63 192 161
63 191 161
64 191 161
65 190 161
65 190 161
66 189 161
67 188 161
67 188 161
68 187 161
69 186 161
69 186 161
70 185 161
71 184 161
71 184 161
72 183 161
72 183 161
73 182 161
74 181 161
74 181 161
75 180 161
76 179 161
76 179 161
77 178 161
78 177 161
78 177 161
79 176 161
79 175 161
80 175 161
81 174 161
81 174 161
82 173 161
83 172 161
83 172 161
84 171 161
85 170 161
85 170 161
86 169 161
87 168 161
87 168 161
88 167 161
88 167 161
89 166 161
90 165 161
90 165 161
91 164 161
92 163 161
92 163 161
93 162 161
94 161 161
94 161 161
95 160 161
95 159 161
96 159 161
97 158 161
97 158 161
98 157 161
99 156 161
99 156 161
100 155 161
101 154 161
101 154 161
102 153 161
103 152 161
103 152 161
104 151 161
104 151 161
105 150 161
106 149 161
106 149 161
107 148 161
108 147 161
108 147 161
109 146 161
110 145 161
110 145 161
111 144 161
111 143 161
112 143 161
113 142 161
113 142 161
114 141 161
115 140 161
115 140 161
116 139 161
117 138 161
117 138 161
118 137 161
119 136 161
119 136 161
120 135 161
120 135 161
121 134 161
122 133 161
122 133 161
123 132 161
124 131 161
124 131 161
125 130 161
126 129 161
126 129 161
127 128 161
127 127 161
128 127 161
129 126 161
129 126 161
130 125 161
131 124 161
131 124 161
132 123 161
133 122 161
133 122 161
134 121 161
135 120 161
135 120 161
136 119 161
136 119 161
137 118 161
138 117 161
138 117 161
139 116 161
140 115 161
140 115 161
141 114 161
142 113 161
142 113 161
143 112 161
143 111 161
144 111 161
145 110 161
145 110 161
146 109 161
147 108 161
147 108 161
148 107 161
149 106 161
149 106 161
150 105 161
151 104 161
151 104 161
152 103 161
152 103 161
153 102 161
154 101 161
154 101 161
155 100 161
156 99 161
156 99 161
157 98 161
158 97 161
158 97 161
159 96 161
159 95 161
160 95 161
161 94 161
161 94 161
162 93 161
163 92 161
163 92 161
164 91 161
165 90 161
165 90 161
166 89 161
167 88 161
167 88 161
168 87 161
168 87 161
169 86 161
170 85 161
170 85 161
171 84 161
172 83 161
172 83 161
173 82 161
174 81 161
174 81 161
175 80 161
175 79 161
176 79 161
177 78 161
177 78 161
178 77 161
179 76 161
179 76 161
180 75 161
181 74 161
181 74 161
182 73 161
183 72 161
183 72 161
184 71 161
184 71 161
185 70 161
186 69 161
186 69 161
187 68 161
188 67 161
188 67 161
189 66 161
190 65 161
190 65 161
191 64 161
191 63 161
192 63 161
193 62 161
193 62 161
194 61 161
195 60 161
195 60 161
196 59 161
197 58 161
197 58 161
198 57 161
199 56 161
199 56 161
200 55 161
200 55 161
201 54 161
202 53 161
202 53 161
203 52 161
204 51 161
204 51 161
205 50 161
206 49 161
206 49 161
207 48 161
207 47 161
208 47 161
209 46 161
209 46 161
210 45 161
211 44 161
211 44 161
212 43 161
213 42 161
213 42 161
214 41 161
215 40 161
215 40 161
216 39 161
216 39 161
217 38 161
218 37 161
218 37 161
219 36 161
220 35 161
220 35 161
221 34 161
222 33 161
222 33 161
223 32 161
223 31 161
224 31 161
225 30 161
225 30 161
226 29 161
227 28 161
227 28 161
228 27 161
229 26 161
229 26 161
230 25 161
231 24 161
231 24 161
232 23 161
232 23 161
233 22 161
234 21 161
234 21 161
235 20 161
236 19 161
236 19 161
237 18 161
238 17 161
238 17 161
239 16 161
239 15 161
240 15 161
241 14 161
241 14 161
242 13 161
243 12 161
243 12 161
244 11 161
245 10 161
245 10 161
246 9 161
247 8 161
247 8 161
248 7 161
248 7 161
249 6 161
250 5 161
250 5 161
251 4 161
252 3 161
252 3 161
253 2 161
254 1 161
254 1 161
255 0 161
0 255 162
0 255 162
1 254 162
1 254 162
2 253 162
3 252 162
3 252 162
4 251 162
5 250 162
5 250 162
6 249 162
7 248 162
7 248 162
8 247 162
8 247 162
9 246 162
10 245 162
10 245 162
11 244 162
12 243 162
12 243 162
13 242 162
14 241 162
14 241 162
15 240 162
15 239 162
16 239 162
17 238 162
17 238 162
18 237 162
19 236 162
19 236 162
20 235 162
21 234 162
21 234 162
22 233 162
23 232 162
23 232 162
24 231 162
24 231 162
25 230 162
26 229 162
26 229 162
27 228 162
28 227 162
28 227 162
29 226 162
30 225 162
30 225 162
31 224 162
31 223 162
32 223 162
33 222 162
33 222 162
34 221 162
35 220 162
35 220 162
36 219 162
37 218 162
37 218 162
38 217 162
39 216 162
39 216 162
40 215 162
40 215 162
41 214 162
42 213 162
42 213 162
43 212 162
44 211 162
44 211 162
45 210 162
46 209 162
46 209 162
47 208 162
47 207 162
48 207 162
49 206 162
49 206 162
50 205 162
51 204 162
51 204 162
52 203 162
53 202 162
53 202 162
54 201 162
55 200 162
55 200 162
56 199 162
56 199 162
57 198 162
58 197 162
58 197 162
59 196 162
60 195 162
60 195 162
61 194 162
62 193 162
62 193 162
63 192 162
63 191 162
64 191 162
65 190 162
65 190 162
66 189 162
67 188 162
67 188 162
68 187 162
69 186 162
69 186 162
70 185 162
71 184 162
71 184 162
72 183 162
72 183 162
73 182 162
74 181 162
74 181 162
75 180 162
76 179 162
76 179 162
77 178 162
78 177 162
78 177 162
79 176 162
79 175 162
80 175 162
81 174 162
81 174 162
82 173 162
83 172 162
83 172 162
84 171 162
85 170 162
85 170 162
86 169 162
87 168 162
87 168 162
88 167 162
88 167 162
89 166 162
90 165 162
90 165 162
91 164 162
92 163 162
92 163 162
93 162 162
94 161 162
94 161 162
95 160 162
95 159 162
96 159 162
97 158 162
97 158 162
98 157 162
99 156 162
99 156 162
100 155 162
101 154 162
101 154 162
102 153 162
103 152 162
103 152 162
104 151 162
104 151 162
105 150 162
106 149 162
106 149 162
107 148 162
108 147 162
108 147 162
109 146 162
110 145 162
110 145 162
111 144 162
111 143 162
112 143 162
113 142 162
113 142 162
114 141 162
115 140 162
115 140 162
116 139 162
117 138 162
117 138 162
118 137 162
119 136 162
119 136 162
120 135 162
120 135 162
121 134 162
122 133 162
122 133 162
123 132 162
124 131 162
124 131 162
125 130 162
126 129 162
126 129 162
127 128 162
127 127 162
128 127 162
129 126 162
129 126 162
130 125 162
131 124 162
131 124 162
132 123 162
133 122 162
133 122 162
134 121 162
135 120 162
135 120 162
136 119 162
136 119 162
137 118 162
138 117 162
138 117 162
139 116 162
140 115 162
140 115 162
141 114 162
142 113 162
142 113 162
143 112 162
143 111 162
144 111 162
145 110 162
145 110 162
146 109 162
147 108 162
147 108 162
148 107 162
149 106 162
149 106 162
150 105 162
151 104 162
151 104 162
152 103 162
152 103 162
153 102 162
154 101 162
154 101 162
155 100 162
156 99 162
156 99 162
157 98 162
158 97 162
158 97 162
159 96 162
159 95 162
160 95 162
161 94 162
161 94 162
162 93 162
163 92 162
163 92 162
164 91 162
165 90 162
165 90 162
166 89 162
167 88 162
167 88 162
168 87 162
168 87 162
169 86 162
170 85 162
170 85 162
171 84 162
172 83 162
172 83 162
173 82 162
174 81 162
174 81 162
175 80 162
175 79 162
176 79 162
177 78 162
177 78 162
178 77 162
179 76 162
179 76 162
180 75 162
181 74 162
181 74 162
182 73 162
183 72 162
183 72 162
184 71 162
184 71 162
185 70 162
186 69 162
186 69 162
187 68 162
188 67 162
188 67 162
189 66 162
190 65 162
190 65 162
191 64 162
191 63 162
192 63 162
193 62 162
193 62 162
194 61 162
195 60 162
195 60 162
196 59 162
197 58 162
197 58 162
198 57 162
199 56 162
199 56 162
200 55 162
200 55 162
201 54 162
202 53 162
202 53 162
203 52 162
204 51 162
204 51 162
205 50 162
206 49 162
206 49 162
207 48 162
207 47 162
208 47 162
209 46 162
209 46 162
210 45 162
211 44 162
211 44 162
212 43 162
213 42 162
213 42 162
214 41 162
215 40 162
215 40 162
216 39 162
216 39 162
217 38 162
218 37 162
218 37 162
219 36 162
220 35 162
220 35 162
221 34 162
222 33 162
222 33 162
223 32 162
223 31 162
224 31 162
225 30 162
225 30 162
226 29 162
227 28 162
227 28 162
228 27 162
229 26 162
229 26 162
230 25 162
231 24 162
231 24 162
232 23 162
232 23 162
233 22 162
234 21 162
234 21 162
235 20 162
236 19 162
236 19 162
237 18 162
238 17 162
238 17 162
239 16 162
239 15 162
240 15 162
241 14 162
241 14 162
242 13 162
243 12 162
243 12 162
244 11 162
245 10 162
245 10 162
246 9 162
247 8 162
247 8 162
248 7 162
248 7 162
249 6 162
250 5 162
250 5 162
251 4 162
252 3 162
252 3 162
253 2 162
254 1 162
254 1 162
255 0 162
0 255 163
0 255 163
1 254 163
1 254 163
2 253 163
3 252 163
3 252 163
4 251 163
5 250 163
5 250 163
6 249 163
7 248 163
7 248 163
8 247 163
8 247 163
9 246 163
10 245 163
10 245 163
11 244 163
12 243 163
12 243 163
13 242 163
14 241 163
14 241 163
15 240 163
15 239 163
16 239 163
17 238 163
17 238 163
18 237 163
19 236 163
19 236 163
20 235 163
21 234 163
21 234 163
22 233 163
23 232 163
23 232 163
24 231 163
24 231 163
25 230 163
26 229 163
26 229 163
27 228 163
28 227 163
28 227 163
29 226 163
30 225 163
30 225 163
31 224 163
31 223 163
32 223 163
33 222 163
33 222 163
34 221 163
35 220 163
35 220 163
36 219 163
37 218 163
37 218 163
38 217 163
39 216 163
39 216 163
40 215 163
40 215 163
41 214 163
42 213 163
42 213 163
43 212 163
44 211 163
44 211 163
45 210 163
46 209 163
46 209 163
47 208 163
47 207 163
48 207 163
49 206 163
49 206 163
50 205 163
51 204 163
51 204 163
52 203 163
53 202 163
53 202 163
54 201 163
55 200 163
55 200 163
56 199 163
56 199 163
57 198 163
58 197 163
58 197 163
59 196 163
60 195 163
60 195 163
61 194 163
62 193 163
62 193 163
63 192 163
63 191 163
64 191 163
65 190 163
65 190 163
66 189 163
67 188 163
67 188 163
68 187 163
69 186 163
69 186 163
70 185 163
71 184 163
71 184 163
72 183 163
72 183 163
73 182 163
74 181 163
74 181 163
75 180 163
76 179 163
76 179 163
77 178 163
78 177 163
78 177 163
79 176 163
79 175 163
80 175 163
81 174 163
81 174 163
82 173 163
83 172 163
83 172 163
84 171 163
85 170 163
85 170 163
86 169 163
87 168 163
87 168 163
88 167 163
88 167 163
89 166 163
90 165 163
90 165 163
91 164 163
92 163 163
92 163 163
93 162 163
94 161 163
94 161 163
95 160 163
95 159 163
96 159 163
97 158 163
97 158 163
98 157 163
99 156 163
99 156 163
100 155 163
101 154 163
101 154 163
102 153 163
103 152 163
103 152 163
104 151 163
104 151 163
105 150 163
106 149 163
106 149 163
107 148 163
108 147 163
108 147 163
109 146 163
110 145 163
110 145 163
111 144 163
111 143 163
112 143 163
113 142 163
113 142 163
114 141 163
115 140 163
115 140 163
116 139 163
117 138 163
117 138 163
118 137 163
119 136 163
119 136 163
120 135 163
120 135 163
121 134 163
122 133 163
122 133 163
123 132 163
124 131 163
124 131 163
125 130 163
126 129 163
126 129 163
127 128 163
127 127 163
128 127 163
129 126 163
129 126 163
130 125 163
131 124 163
131 124 163
132 123 163
133 122 163
133 122 163
134 121 163
135 120 163
135 120 163
136 119 163
136 119 163
137 118 163
138 117 163
138 117 163
139 116 163
140 115 163
140 115 163
141 114 163
142 113 163
142 113 163
143 112 163
143 111 163
144 111 163
145 110 163
145 110 163
146 109 163
147 108 163
147 108 163
148 107 163
149 106 163
149 106 163
150 105 163
151 104 163
151 104 163
152 103 163
152 103 163
153 102 163
154 101 163
154 101 163
155 100 163
156 99 163
156 99 163
157 98 163
158 97 163
158 97 163
159 96 163
159 95 163
160 95 163
161 94 163
161 94 163
162 93 163
163 92 163
163 92 163
164 91 163
165 90 163
165 90 163
166 89 163
167 88 163
167 88 163
168 87 163
168 87 163
169 86 163
170 85 163
170 85 163
171 84 163
172 83 163
172 83 163
173 82 163
174 81 163
174 81 163
175 80 163
175 79 163
176 79 163
177 78 163
177 78 163
178 77 163
179 76 163
179 76 163
180 75 163
181 74 163
181 74 163
182 73 163
183 72 163
183 72 163
184 71 163
184 71 163
185 70 163
186 69 163
186 69 163
187 68 163
188 67 163
188 67 163
189 66 163
190 65 163
190 65 163
191 64 163
191 63 163
192 63 163
193 62 163
193 62 163
194 61 163
195 60 163
195 60 163
196 59 163
197 58 163
197 58 163
198 57 163
199 56 163
199 56 163
200 55 163
200 55 163
201 54 163
202 53 163
202 53 163
203 52 163
204 51 163
204 51 163
205 50 163
206 49 163
206 49 163
207 48 163
207 47 163
208 47 163
209 46 163
209 46 163
210 45 163
211 44 163
211 44 163
212 43 163
213 42 163
213 42 163
214 41 163
215 40 163
215 40 163
216 39 163
216 39 163
217 38 163
218 37 163
218 37 163
219 36 163
220 35 163
220 35 163
221 34 163
222 33 163
222 33 163
223 32 163
223 31 163
224 31 163
225 30 163
225 30 163
226 29 163
227 28 163
227 28 163
228 27 163
229 26 163
229 26 163
230 25 163
231 24 163
231 24 163
232 23 163
232 23 163
233 22 163
234 21 163
234 21 163
235 20 163
236 19 163
236 19 163
237 18 163
238 17 163
238 17 163
239 16 163
239 15 163
240 15 163
241 14 163
241 14 163
242 13 163
243 12 163
243 12 163
244 11 163
245 10 163
245 10 163
246 9 163
247 8 163
247 8 163
248 7 163
248 7 163
249 6 163
250 5 163
250 5 163
251 4 163
252 3 163
252 3 163
253 2 163
254 1 163
254 1 163
255 0 163
0 255 164
0 255 164
1 254 164
1 254 164
2 253 164
3 252 164
3 252 164
4 251 164
5 250 164
5 250 164
6 249 164
7 248 164
7 248 164
8 247 164
8 247 164
9 246 164
10 245 164
10 245 164
11 244 164
12 243 164
12 243 164
13 242 164
14 241 164
14 241 164
15 240 164
15 239 164
16 239 164
17 238 164
17 238 164
18 237 164
19 236 164
19 236 164
20 235 164
21 234 164
21 234 164
22 233 164
23 232 164
23 232 164
24 231 164
24 231 164
25 230 164
26 229 164
26 229 164
27 228 164
28 227 164
28 227 164
29 226 164
30 225 164
30 225 164
31 224 164
31 223 164
32 223 164
33 222 164
33 222 164
34 221 164
35 220 164
35 220 164
36 219 164
37 218 164
37 218 164
38 217 164
39 216 164
39 216 164
40 215 164
40 215 164
41 214 164
42 213 164
42 213 164
43 212 164
44 211 164
44 211 164
45 210 164
46 209 164
46 209 164
47 208 164
47 207 164
48 207 164
49 206 164
49 206 164
50 205 164
51 204 164
51 204 164
52 203 164
53 202 164
53 202 164
54 201 164
55 200 164
55 200 164
56 199 164
56 199 164
57 198 164
58 197 164
58 197 164
59 196 164
60 195 164
60 195 164
61 194 164
62 193 164
62 193 164
63 192 164
63 191 164
64 191 164
65 190 164
65 190 164
66 189 164
67 188 164
67 188 164
68 187 164
69 186 164
69 186 164
70 185 164
71 184 164
71 184 164
72 183 164
72 183 164
73 182 164
74 181 164
74 181 164
75 180 164
76 179 164
76 179 164
77 178 164
78 177 164
78 177 164
79 176 164
79 175 164
80 175 164
81 174 164
81 174 164
82 173 164
83 172 164
83 172 164
84 171 164
85 170 164
85 170 164
86 169 164
87 168 164
87 168 164
88 167 164
88 167 164
89 166 164
90 165 164
90 165 164
91 164 164
92 163 164
92 163 164
93 162 164
94 161 164
94 161 164
95 160 164
95 159 164
96 159 164
97 158 164
97 158 164
98 157 164
99 156 164
99 156 164
100 155 164
101 154 164
101 154 164
102 153 164
103 152 164
103 152 164
104 151 164
104 151 164
105 150 164
106 149 164
106 149 164
107 148 164
108 147 164
108 147 164
109 146 164
110 145 164
110 145 164
111 144 164
111 143 164
112 143 164
113 142 164
113 142 164
114 141 164
115 140 164
115 140 164
116 139 164
117 138 164
117 138 164
118 137 164
119 136 164
119 136 164
120 135 164
120 135 164
121 134 164
122 133 164
122 133 164
123 132 164
124 131 164
124 131 164
125 130 164
126 129 164
126 129 164
127 128 164
127 127 164
128 127 164
129 126 164
129 126 164
130 125 164
131 124 164
131 124 164
132 123 164
133 122 164
133 122 164
134 121 164
135 120 164
135 120 164
136 119 164
136 119 164
137 118 164
138 117 164
138 117 164
139 116 164
140 115 164
140 115 164
141 114 164
142 113 164
142 113 164
143 112 164
143 111 164
144 111 164
145 110 164
145 110 164
146 109 164
147 108 164
147 108 164
148 107 164
149 106 164
149 106 164
150 105 164
151 104 164
151 104 164
152 103 164
152 103 164
153 102 164
154 101 164
154 101 164
155 100 164
156 99 164
156 99 164
157 98 164
158 97 164
158 97 164
159 96 164
159 95 164
160 95 164
161 94 164
161 94 164
162 93 164
163 92 164
163 92 164
164 91 164
165 90 164
165 90 164
166 89 164
167 88 164
167 88 164
168 87 164
168 87 164
169 86 164
170 85 164
170 85 164
171 84 164
172 83 164
172 83 164
173 82 164
174 81 164
174 81 164
175 80 164
175 79 164
176 79 164
177 78 164
177 78 164
178 77 164
179 76 164
179 76 164
180 75 164
181 74 164
181 74 164
182 73 164
183 72 164
183 72 164
184 71 164
184 71 164
185 70 164
186 69 164
186 69 164
187 68 164
188 67 164
188 67 164
189 66 164
190 65 164
190 65 164
191 64 164
191 63 164
192 63 164
193 62 164
193 62 164
194 61 164
195 60 164
195 60 164
196 59 164
197 58 164
197 58 164
198 57 164
199 56 164
199 56 164
200 55 164
200 55 164
201 54 164
202 53 164
202 53 164
203 52 164
204 51 164
204 51 164
205 50 164
206 49 164
206 49 164
207 48 164
207 47 164
208 47 164
209 46 164
209 46 164
210 45 164
211 44 164
211 44 164
212 43 164
213 42 164
213 42 164
214 41 164
215 40 164
215 40 164
216 39 164
216 39 164
217 38 164
218 37 164
218 37 164
219 36 164
220 35 164
220 35 164
221 34 164
222 33 164
222 33 164
223 32 164
223 31 164
224 31 164
225 30 164
225 30 164
226 29 164
227 28 164
227 28 164
228 27 164
229 26 164
229 26 164
230 25 164
231 24 164
231 24 164
232 23 164
232 23 164
233 22 164
234 21 164
234 21 164
235 20 164
236 19 164
236 19 164
237 18 164
238 17 164
238 17 164
239 16 164
239 15 164
240 15 164
241 14 164
241 14 164
242 13 164
243 12 164
243 12 164
244 11 164
245 10 164
245 10 164
246 9 164
247 8 164
247 8 164
248 7 164
248 7 164
249 6 164
250 5 164
250 5 164
251 4 164
252 3 164
252 3 164
253 2 164
254 1 164
254 1 164
255 0 164
0 255 166
0 255 166
1 254 166
1 254 166
2 253 166
3 252 166
3 252 166
4 251 166
5 250 166
5 250 166
6 249 166
7 248 166
7 248 166
8 247 166
8 247 166
9 246 166
10 245 166
10 245 166
11 244 166
12 243 166
12 243 166
13 242 166
14 241 166
14 241 166
15 240 166
15 239 166
16 239 166
17 238 166
17 238 166
18 237 166
19 236 166
19 236 166
20 235 166
21 234 166
21 234 166
22 233 166
23 232 166
23 232 166
24 231 166
24 231 166
25 230 166
26 229 166
26 229 166
27 228 166
28 227 166
28 227 166
29 226 166
30 225 166
30 225 166
31 224 166
31 223 166
32 223 166
33 222 166
33 222 166
34 221 166
35 220 166
35 220 166
36 219 166
37 218 166
37 218 166
38 217 166
39 216 166
39 216 166
40 215 166
40 215 166
41 214 166
42 213 166
42 213 166
43 212 166
44 211 166
44 211 166
45 210 166
46 209 166
46 209 166
47 208 166
47 207 166
48 207 166
49 206 166
49 206 166
50 205 166
51 204 166
51 204 166
52 203 166
53 202 166
53 202 166
54 201 166
55 200 166
55 200 166
56 199 166
56 199 166
57 198 166
58 197 166
58 197 166
59 196 166
60 195 166
60 195 166
61 194 166
62 193 166
62 193 166
63 192 166
63 191 166
64 191 166
65 190 166
65 190 166
66 189 166
67 188 166
67 188 166
68 187 166
69 186 166
69 186 166
70 185 166
71 184 166
71 184 166
72 183 166
72 183 166
73 182 166
74 181 166
74 181 166
75 180 166
76 179 166
76 179 166
77 178 166
78 177 166
78 177 166
79 176 166
79 175 166
80 175 166
81 174 166
81 174 166
82 173 166
83 172 166
83 172 166
84 171 166
85 170 166
85 170 166
86 169 166
87 168 166
87 168 166
88 167 166
88 167 166
89 166 166
90 165 166
90 165 166
91 164 166
92 163 166
92 163 166
93 162 166
94 161 166
94 161 166
95 160 166
95 159 166
96 159 166
97 158 166
97 158 166
98 157 166
99 156 166
99 156 166
100 155 166
101 154 166
101 154 166
102 153 166
103 152 166
103 152 166
104 151 166
104 151 166
105 150 166
106 149 166
106 149 166
107 148 166
108 147 166
108 147 166
109 146 166
110 145 166
110 145 166
111 144 166
111 143 166
112 143 166
113 142 166
113 142 166
114 141 166
115 140 166
115 140 166
116 139 166
117 138 166
117 138 166
118 137 166
119 136 166
119 136 166
120 135 166
120 135 166
121 134 166
122 133 166
122 133 166
123 132 166
124 131 166
124 131 166
125 130 166
126 129 166
126 129 166
127 128 166
127 127 166
128 127 166
129 126 166
129 126 166
130 125 166
131 124 166
131 124 166
132 123 166
133 122 166
133 122 166
134 121 166
135 120 166
135 120 166
136 119 166
136 119 166
137 118 166
138 117 166
138 117 166
139 116 166
140 115 166
140 115 166
141 114 166
142 113 166
142 113 166
143 112 166
143 111 166
144 111 166
145 110 166
145 110 166
146 109 166
147 108 166
147 108 166
148 107 166
149 106 166
149 106 166
150 105 166
151 104 166
151 104 166
152 103 166
152 103 166
153 102 166
154 101 166
154 101 166
155 100 166
156 99 166
156 99 166
157 98 166
158 97 166
158 97 166
159 96 166
159 95 166
160 95 166
161 94 166
161 94 166
162 93 166
163 92 166
163 92 166
164 91 166
165 90 166
165 90 166
166 89 166
167 88 166
167 88 166
168 87 166
168 87 166
169 86 166
170 85 166
170 85 166
171 84 166
172 83 166
172 83 166
173 82 166
174 81 166
174 81 166
175 80 166
175 79 166
176 79 166
177 78 166
177 78 166
178 77 166
179 76 166
179 76 166
180 75 166
181 74 166
181 74 166
182 73 166
183 72 166
183 72 166
184 71 166
184 71 166
185 70 166
186 69 166
186 69 166
187 68 166
188 67 166
188 67 166
189 66 166
190 65 166
190 65 166
191 64 166
191 63 166
192 63 166
193 62 166
193 62 166
194 61 166
195 60 166
195 60 166
196 59 166
197 58 166
197 58 166
198 57 166
199 56 166
199 56 166
200 55 166
200 55 166
201 54 166
202 53 166
202 53 166
203 52 166
204 51 166
204 51 166
205 50 166
206 49 166
206 49 166
207 48 166
207 47 166
208 47 166
209 46 166
209 46 166
210 45 166
211 44 166
211 44 166
212 43 166
213 42 166
213 42 166
214 41 166
215 40 166
215 40 166
216 39 166
216 39 166
217 38 166
218 37 166
218 37 166
219 36 166
220 35 166
220 35 166
221 34 166
222 33 166
222 33 166
223 32 166
223 31 166
224 31 166
225 30 166
225 30 166
226 29 166
227 28 166
227 28 166
228 27 166
229 26 166
229 26 166
230 25 166
231 24 166
231 24 166
232 23 166
232 23 166
233 22 166
234 21 166
234 21 166
235 20 166
236 19 166
236 19 166
237 18 166
238 17 166
238 17 166
239 16 166
239 15 166
240 15 166
241 14 166
241 14 166
242 13 166
243 12 166
243 12 166
244 11 166
245 10 166
245 10 166
246 9 166
247 8 166
247 8 166
248 7 166
248 7 166
249 6 166
250 5 166
250 5 166
251 4 166
252 3 166
252 3 166
253 2 166
254 1 166
254 1 166
255 0 166
0 255 167
0 255 167
1 254 167
1 254 167
2 253 167
3 252 167
3 252 167
4 251 167
5 250 167
5 250 167
6 249 167
7 248 167
7 248 167
8 247 167
8 247 167
9 246 167
10 245 167
10 245 167
11 244 167
12 243 167
12 243 167
13 242 167
14 241 167
14 241 167
15 240 167
15 239 167
16 239 167
17 238 167
17 238 167
18 237 167
19 236 167
19 236 167
20 235 167
21 234 167
21 234 167
22 233 167
23 232 167
23 232 167
24 231 167
24 231 167
25 230 167
26 229 167
26 229 167
27 228 167
28 227 167
28 227 167
29 226 167
30 225 167
30 225 167
31 224 167
31 223 167
32 223 167
33 222 167
33 222 167
34 221 167
35 220 167
35 220 167
36 219 167
37 218 167
37 218 167
38 217 167
39 216 167
39 216 167
40 215 167
40 215 167
41 214 167
42 213 167
42 213 167
43 212 167
44 211 167
44 211 167
45 210 167
46 209 167
46 209 167
47 208 167
47 207 167
48 207 167
49 206 167
49 206 167
50 205 167
51 204 167
51 204 167
52 203 167
53 202 167
53 202 167
54 201 167
55 200 167
55 200 167
56 199 167
56 199 167
57 198 167
58 197 167
58 197 167
59 196 167
60 195 167
60 195 167
61 194 167
62 193 167
62 193 167
63 192 167
63 191 167
64 191 167
65 190 167
65 190 167
66 189 167
67 188 167
67 188 167
68 187 167
69 186 167
69 186 167
70 185 167
71 184 167
71 184 167
72 183 167
72 183 167
73 182 167
74 181 167
74 181 167
75 180 167
76 179 167
76 179 167
77 178 167
78 177 167
78 177 167
79 176 167
79 175 167
80 175 167
81 174 167
81 174 167
82 173 167
83 172 167
83 172 167
84 171 167
85 170 167
85 170 167
86 169 167
87 168 167
87 168 167
88 167 167
88 167 167
89 166 167
90 165 167
90 165 167
91 164 167
92 163 167
92 163 167
93 162 167
94 161 167
94 161 167
95 160 167
95 159 167
96 159 167
97 158 167
97 158 167
98 157 167
99 156 167
99 156 167
100 155 167
101 154 167
101 154 167
102 153 167
103 152 167
103 152 167
104 151 167
104 151 167
105 150 167
106 149 167
106 149 167
107 148 167
108 147 167
108 147 167
109 146 167
110 145 167
110 145 167
111 144 167
111 143 167
112 143 167
113 142 167
113 142 167
114 141 167
115 140 167
115 140 167
116 139 167
117 138 167
117 138 167
118 137 167
119 136 167
119 136 167
120 135 167
120 135 167
121 134 167
122 133 167
122 133 167
123 132 167
124 131 167
124 131 167
125 130 167
126 129 167
126 129 167
127 128 167
127 127 167
128 127 167
129 126 167
129 126 167
130 125 167
131 124 167
131 124 167
132 123 167
133 122 167
133 122 167
134 121 167
135 120 167
135 120 167
136 119 167
136 119 167
137 118 167
138 117 167
138 117 167
139 116 167
140 115 167
140 115 167
141 114 167
142 113 167
142 113 167
143 112 167
143 111 167
144 111 167
145 110 167
145 110 167
146 109 167
147 108 167
147 108 167
148 107 167
149 106 167
149 106 167
150 105 167
151 104 167
151 104 167
152 103 167
152 103 167
153 102 167
154 101 167
154 101 167
155 100 167
156 99 167
156 99 167
157 98 167
158 97 167
158 97 167
159 96 167
159 95 167
160 95 167
161 94 167
161 94 167
162 93 167
163 92 167
163 92 167
164 91 167
165 90 167
165 90 167
166 89 167
167 88 167
167 88 167
168 87 167
168 87 167
169 86 167
170 85 167
170 85 167
171 84 167
172 83 167
172 83 167
173 82 167
174 81 167
174 81 167
175 80 167
175 79 167
176 79 167
177 78 167
177 78 167
178 77 167
179 76 167
179 76 167
180 75 167
181 74 167
181 74 167
182 73 167
183 72 167
183 72 167
184 71 167
184 71 167
185 70 167
186 69 167
186 69 167
187 68 167
188 67 167
188 67 167
189 66 167
190 65 167
190 65 167
191 64 167
191 63 167
192 63 167
193 62 167
193 62 167
194 61 167
195 60 167
195 60 167
196 59 167
197 58 167
197 58 167
198 57 167
199 56 167
199 56 167
200 55 167
200 55 167
201 54 167
202 53 167
202 53 167
203 52 167
204 51 167
204 51 167
205 50 167
206 49 167
206 49 167
207 48 167
207 47 167
208 47 167
209 46 167
209 46 167
210 45 167
211 44 167
211 44 167
212 43 167
213 42 167
213 42 167
214 41 167
215 40 167
215 40 167
216 39 167
216 39 167
217 38 167
218 37 167
218 37 167
219 36 167
220 35 167
220 35 167
221 34 167
222 33 167
222 33 167
223 32 167
223 31 167
224 31 167
225 30 167
225 30 167
226 29 167
227 28 167
227 28 167
228 27 167
229 26 167
229 26 167
230 25 167
231 24 167
231 24 167
232 23 167
232 23 167
233 22 167
234 21 167
234 21 167
235 20 167
236 19 167
236 19 167
237 18 167
238 17 167
238 17 167
239 16 167
239 15 167
240 15 167
241 14 167
241 14 167
242 13 167
243 12 167
243 12 167
244 11 167
245 10 167
245 10 167
246 9 167
247 8 167
247 8 167
248 7 167
248 7 167
249 6 167
250 5 167
250 5 167
251 4 167
252 3 167
252 3 167
253 2 167
254 1 167
254 1 167
255 0 167
0 255 168
0 255 168
1 254 168
1 254 168
2 253 168
3 252 168
3 252 168
4 251 168
5 250 168
5 250 168
6 249 168
7 248 168
7 248 168
8 247 168
8 247 168
9 246 168
10 245 168
10 245 168
11 244 168
12 243 168
12 243 168
13 242 168
14 241 168
14 241 168
15 240 168
15 239 168
16 239 168
17 238 168
17 238 168
18 237 168
19 236 168
19 236 168
20 235 168
21 234 168
21 234 168
22 233 168
23 232 168
23 232 168
24 231 168
24 231 168
25 230 168
26 229 168
26 229 168
27 228 168
28 227 168
28 227 168
29 226 168
30 225 168
30 225 168
31 224 168
31 223 168
32 223 168
33 222 168
33 222 168
34 221 168
35 220 168
35 220 168
36 219 168
37 218 168
37 218 168
38 217 168
39 216 168
39 216 168
40 215 168
40 215 168
41 214 168
42 213 168
42 213 168
43 212 168
44 211 168
44 211 168
45 210 168
46 209 168
46 209 168
47 208 168
47 207 168
48 207 168
49 206 168
49 206 168
50 205 168
51 204 168
51 204 168
52 203 168
53 202 168
53 202 168
54 201 168
55 200 168
55 200 168
56 199 168
56 199 168
57 198 168
58 197 168
58 197 168
59 196 168
60 195 168
60 195 168
61 194 168
62 193 168
62 193 168
63 192 168
63 191 168
64 191 168
65 190 168
65 190 168
66 189 168
67 188 168
67 188 168
68 187 168
69 186 168
69 186 168
70 185 168
71 184 168
71 184 168
72 183 168
72 183 168
73 182 168
74 181 168
74 181 168
75 180 168
76 179 168
76 179 168
77 178 168
78 177 168
78 177 168
79 176 168
79 175 168
80 175 168
81 174 168
81 174 168
82 173 168
83 172 168
83 172 168
84 171 168
85 170 168
85 170 168
86 169 168
87 168 168
87 168 168
88 167 168
88 167 168
89 166 168
90 165 168
90 165 168
91 164 168
92 163 168
92 163 168
93 162 168
94 161 168
94 161 168
95 160 168
95 159 168
96 159 168
97 158 168
97 158 168
98 157 168
99 156 168
99 156 168
100 155 168
101 154 168
101 154 168
102 153 168
103 152 168
103 152 168
104 151 168
104 151 168
105 150 168
106 149 168
106 149 168
107 148 168
108 147 168
108 147 168
109 146 168
110 145 168
110 145 168
111 144 168
111 143 168
112 143 168
113 142 168
113 142 168
114 141 168
115 140 168
115 140 168
116 139 168
117 138 168
117 138 168
118 137 168
119 136 168
119 136 168
120 135 168
120 135 168
121 134 168
122 133 168
122 133 168
123 132 168
124 131 168
124 131 168
125 130 168
126 129 168
126 129 168
127 128 168
127 127 168
128 127 168
129 126 168
129 126 168
130 125 168
131 124 168
131 124 168
132 123 168
133 122 168
133 122 168
134 121 168
135 120 168
135 120 168
136 119 168
136 119 168
137 118 168
138 117 168
138 117 168
139 116 168
140 115 168
140 115 168
141 114 168
142 113 168
142 113 168
143 112 168
143 111 168
144 111 168
145 110 168
145 110 168
146 109 168
147 108 168
147 108 168
148 107 168
149 106 168
149 106 168
150 105 168
151 104 168
151 104 168
152 103 168
152 103 168
153 102 168
154 101 168
154 101 168
155 100 168
156 99 168
156 99 168
157 98 168
158 97 168
158 97 168
159 96 168
159 95 168
160 95 168
161 94 168
161 94 168
162 93 168
163 92 168
163 92 168
164 91 168
165 90 168
165 90 168
166 89 168
167 88 168
167 88 168
168 87 168
168 87 168
169 86 168
170 85 168
170 85 168
171 84 168
172 83 168
172 83 168
173 82 168
174 81 168
174 81 168
175 80 168
175 79 168
176 79 168
177 78 168
177 78 168
178 77 168
179 76 168
179 76 168
180 75 168
181 74 168
181 74 168
182 73 168
183 72 168
183 72 168
184 71 168
184 71 168
185 70 168
186 69 168
186 69 168
187 68 168
188 67 168
188 67 168
189 66 168
190 65 168
190 65 168
191 64 168
191 63 168
192 63 168
193 62 168
193 62 168
194 61 168
195 60 168
195 60 168
196 59 168
197 58 168
197 58 168
198 57 168
199 56 168
199 56 168
200 55 168
200 55 168
201 54 168
202 53 168
202 53 168
203 52 168
204 51 168
204 51 168
205 50 168
206 49 168
206 49 168
207 48 168
207 47 168
208 47 168
209 46 168
209 46 168
210 45 168
211 44 168
211 44 168
212 43 168
213 42 168
213 42 168
214 41 168
215 40 168
215 40 168
216 39 168
216 39 168
217 38 168
218 37 168
218 37 168
219 36 168
220 35 168
220 35 168
221 34 168
222 33 168
222 33 168
223 32 168
223 31 168
224 31 168
225 30 168
225 30 168
226 29 168
227 28 168
227 28 168
228 27 168
229 26 168
229 26 168
230 25 168
231 24 168
231 24 168
232 23 168
232 23 168
233 22 168
234 21 168
234 21 168
235 20 168
236 19 168
236 19 168
237 18 168
238 17 168
238 17 168
239 16 168
239 15 168
240 15 168
241 14 168
241 14 168
242 13 168
243 12 168
243 12 168
244 11 168
245 10 168
245 10 168
246 9 168
247 8 168
247 8 168
248 7 168
248 7 168
249 6 168
250 5 168
250 5 168
251 4 168
252 3 168
252 3 168
253 2 168
254 1 168
254 1 168
255 0 168
0 255 169
0 255 169
1 254 169
1 254 169
2 253 169
3 252 169
3 252 169
4 251 169
5 250 169
5 250 169
6 249 169
7 248 169
7 248 169
8 247 169
8 247 169
9 246 169
10 245 169
10 245 169
11 244 169
12 243 169
12 243 169
13 242 169
14 241 169
14 241 169
15 240 169
15 239 169
16 239 169
17 238 169
17 238 169
18 237 169
19 236 169
19 236 169
20 235 169
21 234 169
21 234 169
22 233 169
23 232 169
23 232 169
24 231 169
24 231 169
25 230 169
26 229 169
26 229 169
27 228 169
28 227 169
28 227 169
29 226 169
30 225 169
30 225 169
31 224 169
31 223 169
32 223 169
33 222 169
33 222 169
34 221 169
35 220 169
35 220 169
36 219 169
37 218 169
37 218 169
38 217 169
39 216 169
39 216 169
40 215 169
40 215 169
41 214 169
42 213 169
42 213 169
43 212 169
44 211 169
44 211 169
45 210 169
46 209 169
46 209 169
47 208 169
47 207 169
48 207 169
49 206 169
49 206 169
50 205 169
51 204 169
51 204 169
52 203 169
53 202 169
53 202 169
54 201 169
55 200 169
55 200 169
56 199 169
56 199 169
57 198 169
58 197 169
58 197 169
59 196 169
60 195 169
60 195 169
61 194 169
62 193 169
62 193 169
63 192 169
63 191 169
64 191 169
65 190 169
65 190 169
66 189 169
67 188 169
67 188 169
68 187 169
69 186 169
69 186 169
70 185 169
71 184 169
71 184 169
72 183 169
72 183 169
73 182 169
74 181 169
74 181 169
75 180 169
76 179 169
76 179 169
77 178 169
78 177 169
78 177 169
79 176 169
79 175 169
80 175 169
81 174 169
81 174 169
82 173 169
83 172 169
83 172 169
84 171 169
85 170 169
85 170 169
86 169 169
87 168 169
87 168 169
88 167 169
88 167 169
89 166 169
90 165 169
90 165 169
91 164 169
92 163 169
92 163 169
93 162 169
94 161 169
94 161 169
95 160 169
95 159 169
96 159 169
97 158 169
97 158 169
98 157 169
99 156 169
99 156 169
100 155 169
101 154 169
101 154 169
102 153 169
103 152 169
103 152 169
104 151 169
104 151 169
105 150 169
106 149 169
106 149 169
107 148 169
108 147 169
108 147 169
109 146 169
110 145 169
110 145 169
111 144 169
111 143 169
112 143 169
113 142 169
113 142 169
114 141 169
115 140 169
115 140 169
116 139 169
117 138 169
117 138 169
118 137 169
119 136 169
119 136 169
120 135 169
120 135 169
121 134 169
122 133 169
122 133 169
123 132 169
124 131 169
124 131 169
125 130 169
126 129 169
126 129 169
127 128 169
127 127 169
128 127 169
129 126 169
129 126 169
130 125 169
131 124 169
131 124 169
132 123 169
133 122 169
133 122 169
134 121 169
135 120 169
135 120 169
136 119 169
136 119 169
137 118 169
138 117 169
138 117 169
139 116 169
140 115 169
140 115 169
141 114 169
142 113 169
142 113 169
143 112 169
143 111 169
144 111 169
145 110 169
145 110 169
146 109 169
147 108 169
147 108 169
148 107 169
149 106 169
149 106 169
150 105 169
151 104 169
151 104 169
152 103 169
152 103 169
153 102 169
154 101 169
154 101 169
155 100 169
156 99 169
156 99 169
157 98 169
158 97 169
158 97 169
159 96 169
159 95 169
160 95 169
161 94 169
161 94 169
162 93 169
163 92 169
163 92 169
164 91 169
165 90 169
165 90 169
166 89 169
167 88 169
167 88 169
168 87 169
168 87 169
169 86 169
170 85 169
170 85 169
171 84 169
172 83 169
172 83 169
173 82 169
174 81 169
174 81 169
175 80 169
175 79 169
176 79 169
177 78 169
177 78 169
178 77 169
179 76 169
179 76 169
180 75 169
181 74 169
181 74 169
182 73 169
183 72 169
183 72 169
184 71 169
184 71 169
185 70 169
186 69 169
186 69 169
187 68 169
188 67 169
188 67 169
189 66 169
190 65 169
190 65 169
191 64 169
191 63 169
192 63 169
193 62 169
193 62 169
194 61 169
195 60 169
195 60 169
196 59 169
197 58 169
197 58 169
198 57 169
199 56 169
199 56 169
200 55 169
200 55 169
201 54 169
202 53 169
202 53 169
203 52 169
204 51 169
204 51 169
205 50 169
206 49 169
206 49 169
207 48 169
207 47 169
208 47 169
209 46 169
209 46 169
210 45 169
211 44 169
211 44 169
212 43 169
213 42 169
213 42 169
214 41 169
215 40 169
215 40 169
216 39 169
216 39 169
217 38 169
218 37 169
218 37 169
219 36 169
220 35 169
220 35 169
221 34 169
222 33 169
222 33 169
223 32 169
223 31 169
224 31 169
225 30 169
225 30 169
226 29 169
227 28 169
227 28 169
228 27 169
229 26 169
229 26 169
230 25 169
231 24 169
231 24 169
232 23 169
232 23 169
233 22 169
234 21 169
234 21 169
235 20 169
236 19 169
236 19 169
237 18 169
238 17 169
238 17 169
239 16 169
239 15 169
240 15 169
241 14 169
241 14 169
242 13 169
243 12 169
243 12 169
244 11 169
245 10 169
245 10 169
246 9 169
247 8 169
247 8 169
248 7 169
248 7 169
249 6 169
250 5 169
250 5 169
251 4 169
252 3 169
252 3 169
253 2 169
254 1 169
254 1 169
255 0 169
0 255 170
0 255 170
1 254 170
1 254 170
2 253 170
3 252 170
3 252 170
4 251 170
5 250 170
5 250 170
6 249 170
7 248 170
7 248 170
8 247 170
8 247 170
9 246 170
10 245 170
10 245 170
11 244 170
12 243 170
12 243 170
13 242 170
14 241 170
14 241 170
15 240 170
15 239 170
16 239 170
17 238 170
17 238 170
18 237 170
19 236 170
19 236 170
20 235 170
21 234 170
21 234 170
22 233 170
23 232 170
23 232 170
24 231 170
24 231 170
25 230 170
26 229 170
26 229 170
27 228 170
28 227 170
28 227 170
29 226 170
30 225 170
30 225 170
31 224 170
31 223 170
32 223 170
33 222 170
33 222 170
34 221 170
35 220 170
35 220 170
36 219 170
37 218 170
37 218 170
38 217 170
39 216 170
39 216 170
40 215 170
40 215 170
41 214 170
42 213 170
42 213 170
43 212 170
44 211 170
44 211 170
45 210 170
46 209 170
46 209 170
47 208 170
47 207 170
48 207 170
49 206 170
49 206 170
50 205 170
51 204 170
51 204 170
52 203 170
53 202 170
53 202 170
54 201 170
55 200 170
55 200 170
56 199 170
56 199 170
57 198 170
58 197 170
58 197 170
59 196 170
60 195 170
60 195 170
61 194 170
62 193 170
62 193 170
63 192 170
63 191 170
64 191 170
65 190 170
65 190 170
66 189 170
67 188 170
67 188 170
68 187 170
69 186 170
69 186 170
70 185 170
71 184 170
71 184 170
72 183 170
72 183 170
73 182 170
74 181 170
74 181 170
75 180 170
76 179 170
76 179 170
77 178 170
78 177 170
78 177 170
79 176 170
79 175 170
80 175 170
81 174 170
81 174 170
82 173 170
83 172 170
83 172 170
84 171 170
85 170 170
85 170 170
86 169 170
87 168 170
87 168 170
88 167 170
88 167 170
89 166 170
90 165 170
90 165 170
91 164 170
92 163 170
92 163 170
93 162 170
94 161 170
94 161 170
95 160 170
95 159 170
96 159 170
97 158 170
97 158 170
98 157 170
99 156 170
99 156 170
100 155 170
101 154 170
101 154 170
102 153 170
103 152 170
103 152 170
104 151 170
104 151 170
105 150 170
106 149 170
106 149 170
107 148 170
108 147 170
108 147 170
109 146 170
110 145 170
110 145 170
111 144 170
111 143 170
112 143 170
113 142 170
113 142 170
114 141 170
115 140 170
115 140 170
116 139 170
117 138 170
117 138 170
118 137 170
119 136 170
119 136 170
120 135 170
120 135 170
121 134 170
122 133 170
122 133 170
123 132 170
124 131 170
124 131 170
125 130 170
126 129 170
126 129 170
127 128 170
127 127 170
128 127 170
129 126 170
129 126 170
130 125 170
131 124 170
131 124 170
132 123 170
133 122 170
133 122 170
134 121 170
135 120 170
135 120 170
136 119 170
136 119 170
137 118 170
138 117 170
138 117 170
139 116 170
140 115 170
140 115 170
141 114 170
142 113 170
142 113 170
143 112 170
143 111 170
144 111 170
145 110 170
145 110 170
146 109 170
147 108 170
147 108 170
148 107 170
149 106 170
149 106 170
150 105 170
151 104 170
151 104 170
152 103 170
152 103 170
153 102 170
154 101 170
154 101 170
155 100 170
156 99 170
156 99 170
157 98 170
158 97 170
158 97 170
159 96 170
159 95 170
160 95 170
161 94 170
161 94 170
162 93 170
163 92 170
163 92 170
164 91 170
165 90 170
165 90 170
166 89 170
167 88 170
167 88 170
168 87 170
168 87 170
169 86 170
170 85 170
170 85 170
171 84 170
172 83 170
172 83 170
173 82 170
174 81 170
174 81 170
175 80 170
175 79 170
176 79 170
177 78 170
177 78 170
178 77 170
179 76 170
179 76 170
180 75 170
181 74 170
181 74 170
182 73 170
183 72 170
183 72 170
184 71 170
184 71 170
185 70 170
186 69 170
186 69 170
187 68 170
188 67 170
188 67 170
189 66 170
190 65 170
190 65 170
191 64 170
191 63 170
192 63 170
193 62 170
193 62 170
194 61 170
195 60 170
195 60 170
196 59 170
197 58 170
197 58 170
198 57 170
199 56 170
199 56 170
200 55 170
200 55 170
201 54 170
202 53 170
202 53 170
203 52 170
204 51 170
204 51 170
205 50 170
206 49 170
206 49 170
207 48 170
207 47 170
208 47 170
209 46 170
209 46 170
210 45 170
211 44 170
211 44 170
212 43 170
213 42 170
213 42 170
214 41 170
215 40 170
215 40 170
216 39 170
216 39 170
217 38 170
218 37 170
218 37 170
219 36 170
220 35 170
220 35 170
221 34 170
222 33 170
222 33 170
223 32 170
223 31 170
224 31 170
225 30 170
225 30 170
226 29 170
227 28 170
227 28 170
228 27 170
229 26 170
229 26 170
230 25 170
231 24 170
231 24 170
232 23 170
232 23 170
233 22 170
234 21 170
234 21 170
235 20 170
236 19 170
236 19 170
237 18 170
238 17 170
238 17 170
239 16 170
239 15 170
240 15 170
241 14 170
241 14 170
242 13 170
243 12 170
243 12 170
244 11 170
245 10 170
245 10 170
246 9 170
247 8 170
247 8 170
248 7 170
248 7 170
249 6 170
250 5 170
250 5 170
251 4 170
252 3 170
252 3 170
253 2 170
254 1 170
254 1 170
255 0 170
0 255 171
0 255 171
1 254 171
1 254 171
2 253 171
3 252 171
3 252 171
4 251 171
5 250 171
5 250 171
6 249 171
7 248 171
7 248 171
8 247 171
8 247 171
9 246 171
10 245 171
10 245 171
11 244 171
12 243 171
12 243 171
13 242 171
14 241 171
14 241 171
15 240 171
15 239 171
16 239 171
17 238 171
17 238 171
18 237 171
19 236 171
19 236 171
20 235 171
21 234 171
21 234 171
22 233 171
23 232 171
23 232 171
24 231 171
24 231 171
25 230 171
26 229 171
26 229 171
27 228 171
28 227 171
28 227 171
29 226 171
30 225 171
30 225 171
31 224 171
31 223 171
32 223 171
33 222 171
33 222 171
34 221 171
35 220 171
35 220 171
36 219 171
37 218 171
37 218 171
38 217 171
39 216 171
39 216 171
40 215 171
40 215 171
41 214 171
42 213 171
42 213 171
43 212 171
44 211 171
44 211 171
45 210 171
46 209 171
46 209 171
47 208 171
47 207 171
48 207 171
49 206 171
49 206 171
50 205 171
51 204 171
51 204 171
52 203 171
53 202 171
53 202 171
54 201 171
55 200 171
55 200 171
56 199 171
56 199 171
57 198 171
58 197 171
58 197 171
59 196 171
60 195 171
60 195 171
61 194 171
62 193 171
62 193 171
63 192 171
63 191 171
64 191 171
65 190 171
65 190 171
66 189 171
67 188 171
67 188 171
68 187 171
69 186 171
69 186 171
70 185 171
71 184 171
71 184 171
72 183 171
72 183 171
73 182 171
74 181 171
74 181 171
75 180 171
76 179 171
76 179 171
77 178 171
78 177 171
78 177 171
79 176 171
79 175 171
80 175 171
81 174 171
81 174 171
82 173 171
83 172 171
83 172 171
84 171 171
85 170 171
85 170 171
86 169 171
87 168 171
87 168 171
88 167 171
88 167 171
89 166 171
90 165 171
90 165 171
91 164 171
92 163 171
92 163 171
93 162 171
94 161 171
94 161 171
95 160 171
95 159 171
96 159 171
97 158 171
97 158 171
98 157 171
99 156 171
99 156 171
100 155 171
101 154 171
101 154 171
102 153 171
103 152 171
103 152 171
104 151 171
104 151 171
105 150 171
106 149 171
106 149 171
107 148 171
108 147 171
108 147 171
109 146 171
110 145 171
110 145 171
111 144 171
111 143 171
112 143 171
113 142 171
113 142 171
114 141 171
115 140 171
115 140 171
116 139 171
117 138 171
117 138 171
118 137 171
119 136 171
119 136 171
120 135 171
120 135 171
121 134 171
122 133 171
122 133 171
123 132 171
124 131 171
124 131 171
125 130 171
126 129 171
126 129 171
127 128 171
127 127 171
128 127 171
129 126 171
129 126 171
130 125 171
131 124 171
131 124 171
132 123 171
133 122 171
133 122 171
134 121 171
135 120 171
135 120 171
136 119 171
136 119 171
137 118 171
138 117 171
138 117 171
139 116 171
140 115 171
140 115 171
141 114 171
142 113 171
142 113 171
143 112 171
143 111 171
144 111 171
145 110 171
145 110 171
146 109 171
147 108 171
147 108 171
148 107 171
149 106 171
149 106 171
150 105 171
151 104 171
151 104 171
152 103 171
152 103 171
153 102 171
154 101 171
154 101 171
155 100 171
156 99 171
156 99 171
157 98 171
158 97 171
158 97 171
159 96 171
159 95 171
160 95 171
161 94 171
161 94 171
162 93 171
163 92 171
163 92 171
164 91 171
165 90 171
165 90 171
166 89 171
167 88 171
167 88 171
168 87 171
168 87 171
169 86 171
170 85 171
170 85 171
171 84 171
172 83 171
172 83 171
173 82 171
174 81 171
174 81 171
175 80 171
175 79 171
176 79 171
177 78 171
177 78 171
178 77 171
179 76 171
179 76 171
180 75 171
181 74 171
181 74 171
182 73 171
183 72 171
183 72 171
184 71 171
184 71 171
185 70 171
186 69 171
186 69 171
187 68 171
188 67 171
188 67 171
189 66 171
190 65 171
190 65 171
191 64 171
191 63 171
192 63 171
193 62 171
193 62 171
194 61 171
195 60 171
195 60 171
196 59 171
197 58 171
197 58 171
198 57 171
199 56 171
199 56 171
200 55 171
200 55 171
201 54 171
202 53 171
202 53 171
203 52 171
204 51 171
204 51 171
205 50 171
206 49 171
206 49 171
207 48 171
207 47 171
208 47 171
209 46 171
209 46 171
210 45 171
211 44 171
211 44 171
212 43 171
213 42 171
213 42 171
214 41 171
215 40 171
215 40 171
216 39 171
216 39 171
217 38 171
218 37 171
218 37 171
219 36 171
220 35 171
220 35 171
221 34 171
222 33 171
222 33 171
223 32 171
223 31 171
224 31 171
225 30 171
225 30 171
226 29 171
227 28 171
227 28 171
228 27 171
229 26 171
229 26 171
230 25 171
231 24 171
231 24 171
232 23 171
232 23 171
233 22 171
234 21 171
234 21 171
235 20 171
236 19 171
236 19 171
237 18 171
238 17 171
238 17 171
239 16 171
239 15 171
240 15 171
241 14 171
241 14 171
242 13 171
243 12 171
243 12 171
244 11 171
245 10 171
245 10 171
246 9 171
247 8 171
247 8 171
248 7 171
248 7 171
249 6 171
250 5 171
250 5 171
251 4 171
252 3 171
252 3 171
253 2 171
254 1 171
254 1 171
255 0 171
0 255 172
0 255 172
1 254 172
1 254 172
2 253 172
3 252 172
3 252 172
4 251 172
5 250 172
5 250 172
6 249 172
7 248 172
7 248 172
8 247 172
8 247 172
9 246 172
10 245 172
10 245 172
11 244 172
12 243 172
12 243 172
13 242 172
14 241 172
14 241 172
15 240 172
15 239 172
16 239 172
17 238 172
17 238 172
18 237 172
19 236 172
19 236 172
20 235 172
21 234 172
21 234 172
22 233 172
23 232 172
23 232 172
24 231 172
24 231 172
25 230 172
26 229 172
26 229 172
27 228 172
28 227 172
28 227 172
29 226 172
30 225 172
30 225 172
31 224 172
31 223 172
32 223 172
33 222 172
33 222 172
34 221 172
35 220 172
35 220 172
36 219 172
37 218 172
37 218 172
38 217 172
39 216 172
39 216 172
40 215 172
40 215 172
41 214 172
42 213 172
42 213 172
43 212 172
44 211 172
44 211 172
45 210 172
46 209 172
46 209 172
47 208 172
47 207 172
48 207 172
49 206 172
49 206 172
50 205 172
51 204 172
51 204 172
52 203 172
53 202 172
53 202 172
54 201 172
55 200 172
55 200 172
56 199 172
56 199 172
57 198 172
58 197 172
58 197 172
59 196 172
60 195 172
60 195 172
61 194 172
62 193 172
62 193 172
63 192 172
63 191 172
64 191 172
65 190 172
65 190 172
66 189 172
67 188 172
67 188 172
68 187 172
69 186 172
69 186 172
70 185 172
71 184 172
71 184 172
72 183 172
72 183 172
73 182 172
74 181 172
74 181 172
75 180 172
76 179 172
76 179 172
77 178 172
78 177 172
78 177 172
79 176 172
79 175 172
80 175 172
81 174 172
81 174 172
82 173 172
83 172 172
83 172 172
84 171 172
85 170 172
85 170 172
86 169 172
87 168 172
87 168 172
88 167 172
88 167 172
89 166 172
90 165 172
90 165 172
91 164 172
92 163 172
92 163 172
93 162 172
94 161 172
94 161 172
95 160 172
95 159 172
96 159 172
97 158 172
97 158 172
98 157 172
99 156 172
99 156 172
100 155 172
101 154 172
101 154 172
102 153 172
103 152 172
103 152 172
104 151 172
104 151 172
105 150 172
106 149 172
106 149 172
107 148 172
108 147 172
108 147 172
109 146 172
110 145 172
110 145 172
111 144 172
111 143 172
112 143 172
113 142 172
113 142 172
114 141 172
115 140 172
115 140 172
116 139 172
117 138 172
117 138 172
118 137 172
119 136 172
119 136 172
120 135 172
120 135 172
121 134 172
122 133 172
122 133 172
123 132 172
124 131 172
124 131 172
125 130 172
126 129 172
126 129 172
127 128 172
127 127 172
128 127 172
129 126 172
129 126 172
130 125 172
131 124 172
131 124 172
132 123 172
133 122 172
133 122 172
134 121 172
135 120 172
135 120 172
136 119 172
136 119 172
137 118 172
138 117 172
138 117 172
139 116 172
140 115 172
140 115 172
141 114 172
142 113 172
142 113 172
143 112 172
143 111 172
144 111 172
145 110 172
145 110 172
146 109 172
147 108 172
147 108 172
148 107 172
149 106 172
149 106 172
150 105 172
151 104 172
151 104 172
152 103 172
152 103 172
153 102 172
154 101 172
154 101 172
155 100 172
156 99 172
156 99 172
157 98 172
158 97 172
158 97 172
159 96 172
159 95 172
160 95 172
161 94 172
161 94 172
162 93 172
163 92 172
163 92 172
164 91 172
165 90 172
165 90 172
166 89 172
167 88 172
167 88 172
168 87 172
168 87 172
169 86 172
170 85 172
170 85 172
171 84 172
172 83 172
172 83 172
173 82 172
174 81 172
174 81 172
175 80 172
175 79 172
176 79 172
177 78 172
177 78 172
178 77 172
179 76 172
179 76 172
180 75 172
181 74 172
181 74 172
182 73 172
183 72 172
183 72 172
184 71 172
184 71 172
185 70 172
186 69 172
186 69 172
187 68 172
188 67 172
188 67 172
189 66 172
190 65 172
190 65 172
191 64 172
191 63 172
192 63 172
193 62 172
193 62 172
194 61 172
195 60 172
195 60 172
196 59 172
197 58 172
197 58 172
198 57 172
199 56 172
199 56 172
200 55 172
200 55 172
201 54 172
202 53 172
202 53 172
203 52 172
204 51 172
204 51 172
205 50 172
206 49 172
206 49 172
207 48 172
207 47 172
208 47 172
209 46 172
209 46 172
210 45 172
211 44 172
211 44 172
212 43 172
213 42 172
213 42 172
214 41 172
215 40 172
215 40 172
216 39 172
216 39 172
217 38 172
218 37 172
218 37 172
219 36 172
220 35 172
220 35 172
221 34 172
222 33 172
222 33 172
223 32 172
223 31 172
224 31 172
225 30 172
225 30 172
226 29 172
227 28 172
227 28 172
228 27 172
229 26 172
229 26 172
230 25 172
231 24 172
231 24 172
232 23 172
232 23 172
233 22 172
234 21 172
234 21 172
235 20 172
236 19 172
236 19 172
237 18 172
238 17 172
238 17 172
239 16 172
239 15 172
240 15 172
241 14 172
241 14 172
242 13 172
243 12 172
243 12 172
244 11 172
245 10 172
245 10 172
246 9 172
247 8 172
247 8 172
248 7 172
248 7 172
249 6 172
250 5 172
250 5 172
251 4 172
252 3 172
252 3 172
253 2 172
254 1 172
254 1 172
255 0 172
0 255 174
0 255 174
1 254 174
1 254 174
2 253 174
3 252 174
3 252 174
4 251 174
5 250 174
5 250 174
6 249 174
7 248 174
7 248 174
8 247 174
8 247 174
9 246 174
10 245 174
10 245 174
11 244 174
12 243 174
12 243 174
13 242 174
14 241 174
14 241 174
15 240 174
15 239 174
16 239 174
17 238 174
17 238 174
18 237 174
19 236 174
19 236 174
20 235 174
21 234 174
21 234 174
22 233 174
23 232 174
23 232 174
24 231 174
24 231 174
25 230 174
26 229 174
26 229 174
27 228 174
28 227 174
28 227 174
29 226 174
30 225 174
30 225 174
31 224 174
31 223 174
32 223 174
33 222 174
33 222 174
34 221 174
35 220 174
35 220 174
36 219 174
37 218 174
37 218 174
38 217 174
39 216 174
39 216 174
40 215 174
40 215 174
41 214 174
42 213 174
42 213 174
43 212 174
44 211 174
44 211 174
45 210 174
46 209 174
46 209 174
47 208 174
47 207 174
48 207 174
49 206 174
49 206 174
50 205 174
51 204 174
51 204 174
52 203 174
53 202 174
53 202 174
54 201 174
55 200 174
55 200 174
56 199 174
56 199 174
57 198 174
58 197 174
58 197 174
59 196 174
60 195 174
60 195 174
61 194 174
62 193 174
62 193 174
63 192 174
63 191 174
64 191 174
65 190 174
65 190 174
66 189 174
67 188 174
67 188 174
68 187 174
69 186 174
69 186 174
70 185 174
71 184 174
71 184 174
72 183 174
72 183 174
73 182 174
74 181 174
74 181 174
75 180 174
76 179 174
76 179 174
77 178 174
78 177 174
78 177 174
79 176 174
79 175 174
80 175 174
81 174 174
81 174 174
82 173 174
83 172 174
83 172 174
84 171 174
85 170 174
85 170 174
86 169 174
87 168 174
87 168 174
88 167 174
88 167 174
89 166 174
90 165 174
90 165 174
91 164 174
92 163 174
92 163 174
93 162 174
94 161 174
94 161 174
95 160 174
95 159 174
96 159 174
97 158 174
97 158 174
98 157 174
99 156 174
99 156 174
100 155 174
101 154 174
101 154 174
102 153 174
103 152 174
103 152 174
104 151 174
104 151 174
105 150 174
106 149 174
106 149 174
107 148 174
108 147 174
108 147 174
109 146 174
110 145 174
110 145 174
111 144 174
111 143 174
112 143 174
113 142 174
113 142 174
114 141 174
115 140 174
115 140 174
116 139 174
117 138 174
117 138 174
118 137 174
119 136 174
119 136 174
120 135 174
120 135 174
121 134 174
122 133 174
122 133 174
123 132 174
124 131 174
124 131 174
125 130 174
126 129 174
126 129 174
127 128 174
127 127 174
128 127 174
129 126 174
129 126 174
130 125 174
131 124 174
131 124 174
132 123 174
133 122 174
133 122 174
134 121 174
135 120 174
135 120 174
136 119 174
136 119 174
137 118 174
138 117 174
138 117 174
139 116 174
140 115 174
140 115 174
141 114 174
142 113 174
142 113 174
143 112 174
143 111 174
144 111 174
145 110 174
145 110 174
146 109 174
147 108 174
147 108 174
148 107 174
149 106 174
149 106 174
150 105 174
151 104 174
151 104 174
152 103 174
152 103 174
153 102 174
154 101 174
154 101 174
155 100 174
156 99 174
156 99 174
157 98 174
158 97 174
158 97 174
159 96 174
159 95 174
160 95 174
161 94 174
161 94 174
162 93 174
163 92 174
163 92 174
164 91 174
165 90 174
165 90 174
166 89 174
167 88 174
167 88 174
168 87 174
168 87 174
169 86 174
170 85 174
170 85 174
171 84 174
172 83 174
172 83 174
173 82 174
174 81 174
174 81 174
175 80 174
175 79 174
176 79 174
177 78 174
177 78 174
178 77 174
179 76 174
179 76 174
180 75 174
181 74 174
181 74 174
182 73 174
183 72 174
183 72 174
184 71 174
184 71 174
185 70 174
186 69 174
186 69 174
187 68 174
188 67 174
188 67 174
189 66 174
190 65 174
190 65 174
191 64 174
191 63 174
192 63 174
193 62 174
193 62 174
194 61 174
195 60 174
195 60 174
196 59 174
197 58 174
197 58 174
198 57 174
199 56 174
199 56 174
200 55 174
200 55 174
201 54 174
202 53 174
202 53 174
203 52 174
204 51 174
204 51 174
205 50 174
206 49 174
206 49 174
207 48 174
207 47 174
208 47 174
209 46 174
209 46 174
210 45 174
211 44 174
211 44 174
212 43 174
213 42 174
213 42 174
214 41 174
215 40 174
215 40 174
216 39 174
216 39 174
217 38 174
218 37 174
218 37 174
219 36 174
220 35 174
220 35 174
221 34 174
222 33 174
222 33 174
223 32 174
223 31 174
224 31 174
225 30 174
225 30 174
226 29 174
227 28 174
227 28 174
228 27 174
229 26 174
229 26 174
230 25 174
231 24 174
231 24 174
232 23 174
232 23 174
233 22 174
234 21 174
234 21 174
235 20 174
236 19 174
236 19 174
237 18 174
238 17 174
238 17 174
239 16 174
239 15 174
240 15 174
241 14 174
241 14 174
242 13 174
243 12 174
243 12 174
244 11 174
245 10 174
245 10 174
246 9 174
247 8 174
247 8 174
248 7 174
248 7 174
249 6 174
250 5 174
250 5 174
251 4 174
252 3 174
252 3 174
253 2 174
254 1 174
254 1 174
255 0 174
0 255 175
0 255 175
1 254 175
1 254 175
2 253 175
3 252 175
3 252 175
4 251 175
5 250 175
5 250 175
6 249 175
7 248 175
7 248 175
8 247 175
8 247 175
9 246 175
10 245 175
10 245 175
11 244 175
12 243 175
12 243 175
13 242 175
14 241 175
14 241 175
15 240 175
15 239 175
16 239 175
17 238 175
17 238 175
18 237 175
19 236 175
19 236 175
20 235 175
21 234 175
21 234 175
22 233 175
23 232 175
23 232 175
24 231 175
24 231 175
25 230 175
26 229 175
26 229 175
27 228 175
28 227 175
28 227 175
29 226 175
30 225 175
30 225 175
31 224 175
31 223 175
32 223 175
33 222 175
33 222 175
34 221 175
35 220 175
35 220 175
36 219 175
37 218 175
37 218 175
38 217 175
39 216 175
39 216 175
40 215 175
40 215 175
41 214 175
42 213 175
42 213 175
43 212 175
44 211 175
44 211 175
45 210 175
46 209 175
46 209 175
47 208 175
47 207 175
48 207 175
49 206 175
49 206 175
50 205 175
51 204 175
51 204 175
52 203 175
53 202 175
53 202 175
54 201 175
55 200 175
55 200 175
56 199 175
56 199 175
57 198 175
58 197 175
58 197 175
59 196 175
60 195 175
60 195 175
61 194 175
62 193 175
62 193 175
63 192 175
63 191 175
64 191 175
65 190 175
65 190 175
66 189 175
67 188 175
67 188 175
68 187 175
69 186 175
69 186 175
70 185 175
71 184 175
71 184 175
72 183 175
72 183 175
73 182 175
74 181 175
74 181 175
75 180 175
76 179 175
76 179 175
77 178 175
78 177 175
78 177 175
79 176 175
79 175 175
80 175 175
81 174 175
81 174 175
82 173 175
83 172 175
83 172 175
84 171 175
85 170 175
85 170 175
86 169 175
87 168 175
87 168 175
88 167 175
88 167 175
89 166 175
90 165 175
90 165 175
91 164 175
92 163 175
92 163 175
93 162 175
94 161 175
94 161 175
95 160 175
95 159 175
96 159 175
97 158 175
97 158 175
98 157 175
99 156 175
99 156 175
100 155 175
101 154 175
101 154 175
102 153 175
103 152 175
103 152 175
104 151 175
104 151 175
105 150 175
106 149 175
106 149 175
107 148 175
108 147 175
108 147 175
109 146 175
110 145 175
110 145 175
111 144 175
111 143 175
112 143 175
113 142 175
113 142 175
114 141 175
115 140 175
115 140 175
116 139 175
117 138 175
117 138 175
118 137 175
119 136 175
119 136 175
120 135 175
120 135 175
121 134 175
122 133 175
122 133 175
123 132 175
124 131 175
124 131 175
125 130 175
126 129 175
126 129 175
127 128 175
127 127 175
128 127 175
129 126 175
129 126 175
130 125 175
131 124 175
131 124 175
132 123 175
133 122 175
133 122 175
134 121 175
135 120 175
135 120 175
136 119 175
136 119 175
137 118 175
138 117 175
138 117 175
139 116 175
140 115 175
140 115 175
141 114 175
142 113 175
142 113 175
143 112 175
143 111 175
144 111 175
145 110 175
145 110 175
146 109 175
147 108 175
147 108 175
148 107 175
149 106 175
149 106 175
150 105 175
151 104 175
151 104 175
152 103 175
152 103 175
153 102 175
154 101 175
154 101 175
155 100 175
156 99 175
156 99 175
157 98 175
158 97 175
158 97 175
159 96 175
159 95 175
160 95 175
161 94 175
161 94 175
162 93 175
163 92 175
163 92 175
164 91 175
165 90 175
165 90 175
166 89 175
167 88 175
167 88 175
168 87 175
168 87 175
169 86 175
170 85 175
170 85 175
171 84 175
172 83 175
172 83 175
173 82 175
174 81 175
174 81 175
175 80 175
175 79 175
176 79 175
177 78 175
177 78 175
178 77 175
179 76 175
179 76 175
180 75 175
181 74 175
181 74 175
182 73 175
183 72 175
183 72 175
184 71 175
184 71 175
185 70 175
186 69 175
186 69 175
187 68 175
188 67 175
188 67 175
189 66 175
190 65 175
190 65 175
191 64 175
191 63 175
192 63 175
193 62 175
193 62 175
194 61 175
195 60 175
195 60 175
196 59 175
197 58 175
197 58 175
198 57 175
199 56 175
199 56 175
200 55 175
200 55 175
201 54 175
202 53 175
202 53 175
203 52 175
204 51 175
204 51 175
205 50 175
206 49 175
206 49 175
207 48 175
207 47 175
208 47 175
209 46 175
209 46 175
210 45 175
211 44 175
211 44 175
212 43 175
213 42 175
213 42 175
214 41 175
215 40 175
215 40 175
216 39 175
216 39 175
217 38 175
218 37 175
218 37 175
219 36 175
220 35 175
220 35 175
221 34 175
222 33 175
222 33 175
223 32 175
223 31 175
224 31 175
225 30 175
225 30 175
226 29 175
227 28 175
227 28 175
228 27 175
229 26 175
229 26 175
230 25 175
231 24 175
231 24 175
232 23 175
232 23 175
233 22 175
234 21 175
234 21 175
235 20 175
236 19 175
236 19 175
237 18 175
238 17 175
238 17 175
239 16 175
239 15 175
240 15 175
241 14 175
241 14 175
242 13 175
243 12 175
243 12 175
244 11 175
245 10 175
245 10 175
246 9 175
247 8 175
247 8 175
248 7 175
248 7 175
249 6 175
250 5 175
250 5 175
251 4 175
252 3 175
252 3 175
253 2 175
254 1 175
254 1 175
255 0 175
0 255 176
0 255 176
1 254 176
1 254 176
2 253 176
3 252 176
3 252 176
4 251 176
5 250 176
5 250 176
6 249 176
7 248 176
7 248 176
8 247 176
8 247 176
9 246 176
10 245 176
10 245 176
11 244 176
12 243 176
12 243 176
13 242 176
14 241 176
14 241 176
15 240 176
15 239 176
16 239 176
17 238 176
17 238 176
18 237 176
19 236 176
19 236 176
20 235 176
21 234 176
21 234 176
22 233 176
23 232 176
23 232 176
24 231 176
24 231 176
25 230 176
26 229 176
26 229 176
27 228 176
28 227 176
28 227 176
29 226 176
30 225 176
30 225 176
31 224 176
31 223 176
32 223 176
33 222 176
33 222 176
34 221 176
35 220 176
35 220 176
36 219 176
37 218 176
37 218 176
38 217 176
39 216 176
39 216 176
40 215 176
40 215 176
41 214 176
42 213 176
42 213 176
43 212 176
44 211 176
44 211 176
45 210 176
46 209 176
46 209 176
47 208 176
47 207 176
48 207 176
49 206 176
49 206 176
50 205 176
51 204 176
51 204 176
52 203 176
53 202 176
53 202 176
54 201 176
55 200 176
55 200 176
56 199 176
56 199 176
57 198 176
58 197 176
58 197 176
59 196 176
60 195 176
60 195 176
61 194 176
62 193 176
62 193 176
63 192 176
63 191 176
64 191 176
65 190 176
65 190 176
66 189 176
67 188 176
67 188 176
68 187 176
69 186 176
69 186 176
70 185 176
71 184 176
71 184 176
72 183 176
72 183 176
73 182 176
74 181 176
74 181 176
75 180 176
76 179 176
76 179 176
77 178 176
78 177 176
78 177 176
79 176 176
79 175 176
80 175 176
81 174 176
81 174 176
82 173 176
83 172 176
83 172 176
84 171 176
85 170 176
85 170 176
86 169 176
87 168 176
87 168 176
88 167 176
88 167 176
89 166 176
90 165 176
90 165 176
91 164 176
92 163 176
92 163 176
93 162 176
94 161 176
94 161 176
95 160 176
95 159 176
96 159 176
97 158 176
97 158 176
98 157 176
99 156 176
99 156 176
100 155 176
101 154 176
101 154 176
102 153 176
103 152 176
103 152 176
104 151 176
104 151 176
105 150 176
106 149 176
106 149 176
107 148 176
108 147 176
108 147 176
109 146 176
110 145 176
110 145 176
111 144 176
111 143 176
112 143 176
113 142 176
113 142 176
114 141 176
115 140 176
115 140 176
116 139 176
117 138 176
117 138 176
118 137 176
119 136 176
119 136 176
120 135 176
120 135 176
121 134 176
122 133 176
122 133 176
123 132 176
124 131 176
124 131 176
125 130 176
126 129 176
126 129 176
127 128 176
127 127 176
128 127 176
129 126 176
129 126 176
130 125 176
131 124 176
131 124 176
132 123 176
133 122 176
133 122 176
134 121 176
135 120 176
135 120 176
136 119 176
136 119 176
137 118 176
138 117 176
138 117 176
139 116 176
140 115 176
140 115 176
141 114 176
142 113 176
142 113 176
143 112 176
143 111 176
144 111 176
145 110 176
145 110 176
146 109 176
147 108 176
147 108 176
148 107 176
149 106 176
149 106 176
150 105 176
151 104 176
151 104 176
152 103 176
152 103 176
153 102 176
154 101 176
154 101 176
155 100 176
156 99 176
156 99 176
157 98 176
158 97 176
158 97 176
159 96 176
159 95 176
160 95 176
161 94 176
161 94 176
162 93 176
163 92 176
163 92 176
164 91 176
165 90 176
165 90 176
166 89 176
167 88 176
167 88 176
168 87 176
168 87 176
169 86 176
170 85 176
170 85 176
171 84 176
172 83 176
172 83 176
173 82 176
174 81 176
174 81 176
175 80 176
175 79 176
176 79 176
177 78 176
177 78 176
178 77 176
179 76 176
179 76 176
180 75 176
181 74 176
181 74 176
182 73 176
183 72 176
183 72 176
184 71 176
184 71 176
185 70 176
186 69 176
186 69 176
187 68 176
188 67 176
188 67 176
189 66 176
190 65 176
190 65 176
191 64 176
191 63 176
192 63 176
193 62 176
193 62 176
194 61 176
195 60 176
195 60 176
196 59 176
197 58 176
197 58 176
198 57 176
199 56 176
199 56 176
200 55 176
200 55 176
201 54 176
202 53 176
202 53 176
203 52 176
204 51 176
204 51 176
205 50 176
206 49 176
206 49 176
207 48 176
207 47 176
208 47 176
209 46 176
209 46 176
210 45 176
211 44 176
211 44 176
212 43 176
213 42 176
213 42 176
214 41 176
215 40 176
215 40 176
216 39 176
216 39 176
217 38 176
218 37 176
218 37 176
219 36 176
220 35 176
220 35 176
221 34 176
222 33 176
222 33 176
223 32 176
223 31 176
224 31 176
225 30 176
225 30 176
226 29 176
227 28 176
227 28 176
228 27 176
229 26 176
229 26 176
230 25 176
231 24 176
231 24 176
232 23 176
232 23 176
233 22 176
234 21 176
234 21 176
235 20 176
236 19 176
236 19 176
237 18 176
238 17 176
238 17 176
239 16 176
239 15 176
240 15 176
241 14 176
241 14 176
242 13 176
243 12 176
243 12 176
244 11 176
245 10 176
245 10 176
246 9 176
247 8 176
247 8 176
248 7 176
248 7 176
249 6 176
250 5 176
250 5 176
251 4 176
252 3 176
252 3 176
253 2 176
254 1 176
254 1 176
255 0 176
0 255 177
0 255 177
1 254 177
1 254 177
2 253 177
3 252 177
3 252 177
4 251 177
5 250 177
5 250 177
6 249 177
7 248 177
7 248 177
8 247 177
8 247 177
9 246 177
10 245 177
10 245 177
11 244 177
12 243 177
12 243 177
13 242 177
14 241 177
14 241 177
15 240 177
15 239 177
16 239 177
17 238 177
17 238 177
18 237 177
19 236 177
19 236 177
20 235 177
21 234 177
21 234 177
22 233 177
23 232 177
23 232 177
24 231 177
24 231 177
25 230 177
26 229 177
26 229 177
27 228 177
28 227 177
28 227 177
29 226 177
30 225 177
30 225 177
31 224 177
31 223 177
32 223 177
33 222 177
33 222 177
34 221 177
35 220 177
35 220 177
36 219 177
37 218 177
37 218 177
38 217 177
39 216 177
39 216 177
40 215 177
40 215 177
41 214 177
42 213 177
42 213 177
43 212 177
44 211 177
44 211 177
45 210 177
46 209 177
46 209 177
47 208 177
47 207 177
48 207 177
49 206 177
49 206 177
50 205 177
51 204 177
51 204 177
52 203 177
53 202 177
53 202 177
54 201 177
55 200 177
55 200 177
56 199 177
56 199 177
57 198 177
58 197 177
58 197 177
59 196 177
60 195 177
60 195 177
61 194 177
62 193 177
62 193 177
63 192 177
63 191 177
64 191 177
65 190 177
65 190 177
66 189 177
67 188 177
67 188 177
68 187 177
69 186 177
69 186 177
70 185 177
71 184 177
71 184 177
72 183 177
72 183 177
73 182 177
74 181 177
74 181 177
75 180 177
76 179 177
76 179 177
77 178 177
78 177 177
78 177 177
79 176 177
79 175 177
80 175 177
81 174 177
81 174 177
82 173 177
83 172 177
83 172 177
84 171 177
85 170 177
85 170 177
86 169 177
87 168 177
87 168 177
88 167 177
88 167 177
89 166 177
90 165 177
90 165 177
91 164 177
92 163 177
92 163 177
93 162 177
94 161 177
94 161 177
95 160 177
95 159 177
96 159 177
97 158 177
97 158 177
98 157 177
99 156 177
99 156 177
100 155 177
101 154 177
101 154 177
102 153 177
103 152 177
103 152 177
104 151 177
104 151 177
105 150 177
106 149 177
106 149 177
107 148 177
108 147 177
108 147 177
109 146 177
110 145 177
110 145 177
111 144 177
111 143 177
112 143 177
113 142 177
113 142 177
114 141 177
115 140 177
115 140 177
116 139 177
117 138 177
117 138 177
118 137 177
119 136 177
119 136 177
120 135 177
120 135 177
121 134 177
122 133 177
122 133 177
123 132 177
124 131 177
124 131 177
125 130 177
126 129 177
126 129 177
127 128 177
127 127 177
128 127 177
129 126 177
129 126 177
130 125 177
131 124 177
131 124 177
132 123 177
133 122 177
133 122 177
134 121 177
135 120 177
135 120 177
136 119 177
136 119 177
137 118 177
138 117 177
138 117 177
139 116 177
140 115 177
140 115 177
141 114 177
142 113 177
142 113 177
143 112 177
143 111 177
144 111 177
145 110 177
145 110 177
146 109 177
147 108 177
147 108 177
148 107 177
149 106 177
149 106 177
150 105 177
151 104 177
151 104 177
152 103 177
152 103 177
153 102 177
154 101 177
154 101 177
155 100 177
156 99 177
156 99 177
157 98 177
158 97 177
158 97 177
159 96 177
159 95 177
160 95 177
161 94 177
161 94 177
162 93 177
163 92 177
163 92 177
164 91 177
165 90 177
165 90 177
166 89 177
167 88 177
167 88 177
168 87 177
168 87 177
169 86 177
170 85 177
170 85 177
171 84 177
172 83 177
172 83 177
173 82 177
174 81 177
174 81 177
175 80 177
175 79 177
176 79 177
177 78 177
177 78 177
178 77 177
179 76 177
179 76 177
180 75 177
181 74 177
181 74 177
182 73 177
183 72 177
183 72 177
184 71 177
184 71 177
185 70 177
186 69 177
186 69 177
187 68 177
188 67 177
188 67 177
189 66 177
190 65 177
190 65 177
191 64 177
191 63 177
192 63 177
193 62 177
193 62 177
194 61 177
195 60 177
195 60 177
196 59 177
197 58 177
197 58 177
198 57 177
199 56 177
199 56 177
200 55 177
200 55 177
201 54 177
202 53 177
202 53 177
203 52 177
204 51 177
204 51 177
205 50 177
206 49 177
206 49 177
207 48 177
207 47 177
208 47 177
209 46 177
209 46 177
210 45 177
211 44 177
211 44 177
212 43 177
213 42 177
213 42 177
214 41 177
215 40 177
215 40 177
216 39 177
216 39 177
217 38 177
218 37 177
218 37 177
219 36 177
220 35 177
220 35 177
221 34 177
222 33 177
222 33 177
223 32 177
223 31 177
224 31 177
225 30 177
225 30 177
226 29 177
227 28 177
227 28 177
228 27 177
229 26 177
229 26 177
230 25 177
231 24 177
231 24 177
232 23 177
232 23 177
233 22 177
234 21 177
234 21 177
235 20 177
236 19 177
236 19 177
237 18 177
238 17 177
238 17 177
239 16 177
239 15 177
240 15 177
241 14 177
241 14 177
242 13 177
243 12 177
243 12 177
244 11 177
245 10 177
245 10 177
246 9 177
247 8 177
247 8 177
248 7 177
248 7 177
249 6 177
250 5 177
250 5 177
251 4 177
252 3 177
252 3 177
253 2 177
254 1 177
254 1 177
255 0 177
0 255 178
0 255 178
1 254 178
1 254 178
2 253 178
3 252 178
3 252 178
4 251 178
5 250 178
5 250 178
6 249 178
7 248 178
7 248 178
8 247 178
8 247 178
9 246 178
10 245 178
10 245 178
11 244 178
12 243 178
12 243 178
13 242 178
14 241 178
14 241 178
15 240 178
15 239 178
16 239 178
17 238 178
17 238 178
18 237 178
19 236 178
19 236 178
20 235 178
21 234 178
21 234 178
22 233 178
23 232 178
23 232 178
24 231 178
24 231 178
25 230 178
26 229 178
26 229 178
27 228 178
28 227 178
28 227 178
29 226 178
30 225 178
30 225 178
31 224 178
31 223 178
32 223 178
33 222 178
33 222 178
34 221 178
35 220 178
35 220 178
36 219 178
37 218 178
37 218 178
38 217 178
39 216 178
39 216 178
40 215 178
40 215 178
41 214 178
42 213 178
42 213 178
43 212 178
44 211 178
44 211 178
45 210 178
46 209 178
46 209 178
47 208 178
47 207 178
48 207 178
49 206 178
49 206 178
50 205 178
51 204 178
51 204 178
52 203 178
53 202 178
53 202 178
54 201 178
55 200 178
55 200 178
56 199 178
56 199 178
57 198 178
58 197 178
58 197 178
59 196 178
60 195 178
60 195 178
61 194 178
62 193 178
62 193 178
63 192 178
63 191 178
64 191 178
65 190 178
65 190 178
66 189 178
67 188 178
67 188 178
68 187 178
69 186 178
69 186 178
70 185 178
71 184 178
71 184 178
72 183 178
72 183 178
73 182 178
74 181 178
74 181 178
75 180 178
76 179 178
76 179 178
77 178 178
78 177 178
78 177 178
79 176 178
79 175 178
80 175 178
81 174 178
81 174 178
82 173 178
83 172 178
83 172 178
84 171 178
85 170 178
85 170 178
86 169 178
87 168 178
87 168 178
88 167 178
88 167 178
89 166 178
90 165 178
90 165 178
91 164 178
92 163 178
92 163 178
93 162 178
94 161 178
94 161 178
95 160 178
95 159 178
96 159 178
97 158 178
97 158 178
98 157 178
99 156 178
99 156 178
100 155 178
101 154 178
101 154 178
102 153 178
103 152 178
103 152 178
104 151 178
104 151 178
105 150 178
106 149 178
106 149 178
107 148 178
108 147 178
108 147 178
109 146 178
110 145 178
110 145 178
111 144 178
111 143 178
112 143 178
113 142 178
113 142 178
114 141 178
115 140 178
115 140 178
116 139 178
117 138 178
117 138 178
118 137 178
119 136 178
119 136 178
120 135 178
120 135 178
121 134 178
122 133 178
122 133 178
123 132 178
124 131 178
124 131 178
125 130 178
126 129 178
126 129 178
127 128 178
127 127 178
128 127 178
129 126 178
129 126 178
130 125 178
131 124 178
131 124 178
132 123 178
133 122 178
133 122 178
134 121 178
135 120 178
135 120 178
136 119 178
136 119 178
137 118 178
138 117 178
138 117 178
139 116 178
140 115 178
140 115 178
141 114 178
142 113 178
142 113 178
143 112 178
143 111 178
144 111 178
145 110 178
145 110 178
146 109 178
147 108 178
147 108 178
148 107 178
149 106 178
149 106 178
150 105 178
151 104 178
151 104 178
152 103 178
152 103 178
153 102 178
154 101 178
154 101 178
155 100 178
156 99 178
156 99 178
157 98 178
158 97 178
158 97 178
159 96 178
159 95 178
160 95 178
161 94 178
161 94 178
162 93 178
163 92 178
163 92 178
164 91 178
165 90 178
165 90 178
166 89 178
167 88 178
167 88 178
168 87 178
168 87 178
169 86 178
170 85 178
170 85 178
171 84 178
172 83 178
172 83 178
173 82 178
174 81 178
174 81 178
175 80 178
175 79 178
176 79 178
177 78 178
177 78 178
178 77 178
179 76 178
179 76 178
180 75 178
181 74 178
181 74 178
182 73 178
183 72 178
183 72 178
184 71 178
184 71 178
185 70 178
186 69 178
186 69 178
187 68 178
188 67 178
188 67 178
189 66 178
190 65 178
190 65 178
191 64 178
191 63 178
192 63 178
193 62 178
193 62 178
194 61 178
195 60 178
195 60 178
196 59 178
197 58 178
197 58 178
198 57 178
199 56 178
199 56 178
200 55 178
200 55 178
201 54 178
202 53 178
202 53 178
203 52 178
204 51 178
204 51 178
205 50 178
206 49 178
206 49 178
207 48 178
207 47 178
208 47 178
209 46 178
209 46 178
210 45 178
211 44 178
211 44 178
212 43 178
213 42 178
213 42 178
214 41 178
215 40 178
215 40 178
216 39 178
216 39 178
217 38 178
218 37 178
218 37 178
219 36 178
220 35 178
220 35 178
221 34 178
222 33 178
222 33 178
223 32 178
223 31 178
224 31 178
225 30 178
225 30 178
226 29 178
227 28 178
227 28 178
228 27 178
229 26 178
229 26 178
230 25 178
231 24 178
231 24 178
232 23 178
232 23 178
233 22 178
234 21 178
234 21 178
235 20 178
236 19 178
236 19 178
237 18 178
238 17 178
238 17 178
239 16 178
239 15 178
240 15 178
241 14 178
241 14 178
242 13 178
243 12 178
243 12 178
244 11 178
245 10 178
245 10 178
246 9 178
247 8 178
247 8 178
248 7 178
248 7 178
249 6 178
250 5 178
250 5 178
251 4 178
252 3 178
252 3 178
253 2 178
254 1 178
254 1 178
255 0 178
0 255 179
0 255 179
1 254 179
1 254 179
2 253 179
3 252 179
3 252 179
4 251 179
5 250 179
5 250 179
6 249 179
7 248 179
7 248 179
8 247 179
8 247 179
9 246 179
10 245 179
10 245 179
11 244 179
12 243 179
12 243 179
13 242 179
14 241 179
14 241 179
15 240 179
15 239 179
16 239 179
17 238 179
17 238 179
18 237 179
19 236 179
19 236 179
20 235 179
21 234 179
21 234 179
22 233 179
23 232 179
23 232 179
24 231 179
24 231 179
25 230 179
26 229 179
26 229 179
27 228 179
28 227 179
28 227 179
29 226 179
30 225 179
30 225 179
31 224 179
31 223 179
32 223 179
33 222 179
33 222 179
34 221 179
35 220 179
35 220 179
36 219 179
37 218 179
37 218 179
38 217 179
39 216 179
39 216 179
40 215 179
40 215 179
41 214 179
42 213 179
42 213 179
43 212 179
44 211 179
44 211 179
45 210 179
46 209 179
46 209 179
47 208 179
47 207 179
48 207 179
49 206 179
49 206 179
50 205 179
51 204 179
51 204 179
52 203 179
53 202 179
53 202 179
54 201 179
55 200 179
55 200 179
56 199 179
56 199 179
57 198 179
58 197 179
58 197 179
59 196 179
60 195 179
60 195 179
61 194 179
62 193 179
62 193 179
63 192 179
63 191 179
64 191 179
65 190 179
65 190 179
66 189 179
67 188 179
67 188 179
68 187 179
69 186 179
69 186 179
70 185 179
71 184 179
71 184 179
72 183 179
72 183 179
73 182 179
74 181 179
74 181 179
75 180 179
76 179 179
76 179 179
77 178 179
78 177 179
78 177 179
79 176 179
79 175 179
80 175 179
81 174 179
81 174 179
82 173 179
83 172 179
83 172 179
84 171 179
85 170 179
85 170 179
86 169 179
87 168 179
87 168 179
88 167 179
88 167 179
89 166 179
90 165 179
90 165 179
91 164 179
92 163 179
92 163 179
93 162 179
94 161 179
94 161 179
95 160 179
95 159 179
96 159 179
97 158 179
97 158 179
98 157 179
99 156 179
99 156 179
100 155 179
101 154 179
101 154 179
102 153 179
103 152 179
103 152 179
104 151 179
104 151 179
105 150 179
106 149 179
106 149 179
107 148 179
108 147 179
108 147 179
109 146 179
110 145 179
110 145 179
111 144 179
111 143 179
112 143 179
113 142 179
113 142 179
114 141 179
115 140 179
115 140 179
116 139 179
117 138 179
117 138 179
118 137 179
119 136 179
119 136 179
120 135 179
120 135 179
121 134 179
122 133 179
122 133 179
123 132 179
124 131 179
124 131 179
125 130 179
126 129 179
126 129 179
127 128 179
127 127 179
128 127 179
129 126 179
129 126 179
130 125 179
131 124 179
131 124 179
132 123 179
133 122 179
133 122 179
134 121 179
135 120 179
135 120 179
136 119 179
136 119 179
137 118 179
138 117 179
138 117 179
139 116 179
140 115 179
140 115 179
141 114 179
142 113 179
142 113 179
143 112 179
143 111 179
144 111 179
145 110 179
145 110 179
146 109 179
147 108 179
147 108 179
148 107 179
149 106 179
149 106 179
150 105 179
151 104 179
151 104 179
152 103 179
152 103 179
153 102 179
154 101 179
154 101 179
155 100 179
156 99 179
156 99 179
157 98 179
158 97 179
158 97 179
159 96 179
159 95 179
160 95 179
161 94 179
161 94 179
162 93 179
163 92 179
163 92 179
164 91 179
165 90 179
165 90 179
166 89 179
167 88 179
167 88 179
168 87 179
168 87 179
169 86 179
170 85 179
170 85 179
171 84 179
172 83 179
172 83 179
173 82 179
174 81 179
174 81 179
175 80 179
175 79 179
176 79 179
177 78 179
177 78 179
178 77 179
179 76 179
179 76 179
180 75 179
181 74 179
181 74 179
182 73 179
183 72 179
183 72 179
184 71 179
184 71 179
185 70 179
186 69 179
186 69 179
187 68 179
188 67 179
188 67 179
189 66 179
190 65 179
190 65 179
191 64 179
191 63 179
192 63 179
193 62 179
193 62 179
194 61 179
195 60 179
195 60 179
196 59 179
197 58 179
197 58 179
198 57 179
199 56 179
199 56 179
200 55 179
200 55 179
201 54 179
202 53 179
202 53 179
203 52 179
204 51 179
204 51 179
205 50 179
206 49 179
206 49 179
207 48 179
207 47 179
208 47 179
209 46 179
209 46 179
210 45 179
211 44 179
211 44 179
212 43 179
213 42 179
213 42 179
214 41 179
215 40 179
215 40 179
216 39 179
216 39 179
217 38 179
218 37 179
218 37 179
219 36 179
220 35 179
220 35 179
221 34 179
222 33 179
222 33 179
223 32 179
223 31 179
224 31 179
225 30 179
225 30 179
226 29 179
227 28 179
227 28 179
228 27 179
229 26 179
229 26 179
230 25 179
231 24 179
231 24 179
232 23 179
232 23 179
233 22 179
234 21 179
234 21 179
235 20 179
236 19 179
236 19 179
237 18 179
238 17 179
238 17 179
239 16 179
239 15 179
240 15 179
241 14 179
241 14 179
242 13 179
243 12 179
243 12 179
244 11 179
245 10 179
245 10 179
246 9 179
247 8 179
247 8 179
248 7 179
248 7 179
249 6 179
250 5 179
250 5 179
251 4 179
252 3 179
252 3 179
253 2 179
254 1 179
254 1 179
255 0 179
0 255 180
0 255 180
1 254 180
1 254 180
2 253 180
3 252 180
3 252 180
4 251 180
5 250 180
5 250 180
6 249 180
7 248 180
7 248 180
8 247 180
8 247 180
9 246 180
10 245 180
10 245 180
11 244 180
12 243 180
12 243 180
13 242 180
14 241 180
14 241 180
15 240 180
15 239 180
16 239 180
17 238 180
17 238 180
18 237 180
19 236 180
19 236 180
20 235 180
21 234 180
21 234 180
22 233 180
23 232 180
23 232 180
24 231 180
24 231 180
25 230 180
26 229 180
26 229 180
27 228 180
28 227 180
28 227 180
29 226 180
30 225 180
30 225 180
31 224 180
31 223 180
32 223 180
33 222 180
33 222 180
34 221 180
35 220 180
35 220 180
36 219 180
37 218 180
37 218 180
38 217 180
39 216 180
39 216 180
40 215 180
40 215 180
41 214 180
42 213 180
42 213 180
43 212 180
44 211 180
44 211 180
45 210 180
46 209 180
46 209 180
47 208 180
47 207 180
48 207 180
49 206 180
49 206 180
50 205 180
51 204 180
51 204 180
52 203 180
53 202 180
53 202 180
54 201 180
55 200 180
55 200 180
56 199 180
56 199 180
57 198 180
58 197 180
58 197 180
59 196 180
60 195 180
60 195 180
61 194 180
62 193 180
62 193 180
63 192 180
63 191 180
64 191 180
65 190 180
65 190 180
66 189 180
67 188 180
67 188 180
68 187 180
69 186 180
69 186 180
70 185 180
71 184 180
71 184 180
72 183 180
72 183 180
73 182 180
74 181 180
74 181 180
75 180 180
76 179 180
76 179 180
77 178 180
78 177 180
78 177 180
79 176 180
79 175 180
80 175 180
81 174 180
81 174 180
82 173 180
83 172 180
83 172 180
84 171 180
85 170 180
85 170 180
86 169 180
87 168 180
87 168 180
88 167 180
88 167 180
89 166 180
90 165 180
90 165 180
91 164 180
92 163 180
92 163 180
93 162 180
94 161 180
94 161 180
95 160 180
95 159 180
96 159 180
97 158 180
97 158 180
98 157 180
99 156 180
99 156 180
100 155 180
101 154 180
101 154 180
102 153 180
103 152 180
103 152 180
104 151 180
104 151 180
105 150 180
106 149 180
106 149 180
107 148 180
108 147 180
108 147 180
109 146 180
110 145 180
110 145 180
111 144 180
111 143 180
112 143 180
113 142 180
113 142 180
114 141 180
115 140 180
115 140 180
116 139 180
117 138 180
117 138 180
118 137 180
119 136 180
119 136 180
120 135 180
120 135 180
121 134 180
122 133 180
122 133 180
123 132 180
124 131 180
124 131 180
125 130 180
126 129 180
126 129 180
127 128 180
127 127 180
128 127 180
129 126 180
129 126 180
130 125 180
131 124 180
131 124 180
132 123 180
133 122 180
133 122 180
134 121 180
135 120 180
135 120 180
136 119 180
136 119 180
137 118 180
138 117 180
138 117 180
139 116 180
140 115 180
140 115 180
141 114 180
142 113 180
142 113 180
143 112 180
143 111 180
144 111 180
145 110 180
145 110 180
146 109 180
147 108 180
147 108 180
148 107 180
149 106 180
149 106 180
150 105 180
151 104 180
151 104 180
152 103 180
152 103 180
153 102 180
154 101 180
154 101 180
155 100 180
156 99 180
156 99 180
157 98 180
158 97 180
158 97 180
159 96 180
159 95 180
160 95 180
161 94 180
161 94 180
162 93 180
163 92 180
163 92 180
164 91 180
165 90 180
165 90 180
166 89 180
167 88 180
167 88 180
168 87 180
168 87 180
169 86 180
170 85 180
170 85 180
171 84 180
172 83 180
172 83 180
173 82 180
174 81 180
174 81 180
175 80 180
175 79 180
176 79 180
177 78 180
177 78 180
178 77 180
179 76 180
179 76 180
180 75 180
181 74 180
181 74 180
182 73 180
183 72 180
183 72 180
184 71 180
184 71 180
185 70 180
186 69 180
186 69 180
187 68 180
188 67 180
188 67 180
189 66 180
190 65 180
190 65 180
191 64 180
191 63 180
192 63 180
193 62 180
193 62 180
194 61 180
195 60 180
195 60 180
196 59 180
197 58 180
197 58 180
198 57 180
199 56 180
199 56 180
200 55 180
200 55 180
201 54 180
202 53 180
202 53 180
203 52 180
204 51 180
204 51 180
205 50 180
206 49 180
206 49 180
207 48 180
207 47 180
208 47 180
209 46 180
209 46 180
210 45 180
211 44 180
211 44 180
212 43 180
213 42 180
213 42 180
214 41 180
215 40 180
215 40 180
216 39 180
216 39 180
217 38 180
218 37 180
218 37 180
219 36 180
220 35 180
220 35 180
221 34 180
222 33 180
222 33 180
223 32 180
223 31 180
224 31 180
225 30 180
225 30 180
226 29 180
227 28 180
227 28 180
228 27 180
229 26 180
229 26 180
230 25 180
231 24 180
231 24 180
232 23 180
232 23 180
233 22 180
234 21 180
234 21 180
235 20 180
236 19 180
236 19 180
237 18 180
238 17 180
238 17 180
239 16 180
239 15 180
240 15 180
241 14 180
241 14 180
242 13 180
243 12 180
243 12 180
244 11 180
245 10 180
245 10 180
246 9 180
247 8 180
247 8 180
248 7 180
248 7 180
249 6 180
250 5 180
250 5 180
251 4 180
252 3 180
252 3 180
253 2 180
254 1 180
254 1 180
255 0 180
0 255 182
0 255 182
1 254 182
1 254 182
2 253 182
3 252 182
3 252 182
4 251 182
5 250 182
5 250 182
6 249 182
7 248 182
7 248 182
8 247 182
8 247 182
9 246 182
10 245 182
10 245 182
11 244 182
12 243 182
12 243 182
13 242 182
14 241 182
14 241 182
15 240 182
15 239 182
16 239 182
17 238 182
17 238 182
18 237 182
19 236 182
19 236 182
20 235 182
21 234 182
21 234 182
22 233 182
23 232 182
23 232 182
24 231 182
24 231 182
25 230 182
26 229 182
26 229 182
27 228 182
28 227 182
28 227 182
29 226 182
30 225 182
30 225 182
31 224 182
31 223 182
32 223 182
33 222 182
33 222 182
34 221 182
35 220 182
35 220 182
36 219 182
37 218 182
37 218 182
38 217 182
39 216 182
39 216 182
40 215 182
40 215 182
41 214 182
42 213 182
42 213 182
43 212 182
44 211 182
44 211 182
45 210 182
46 209 182
46 209 182
47 208 182
47 207 182
48 207 182
49 206 182
49 206 182
50 205 182
51 204 182
51 204 182
52 203 182
53 202 182
53 202 182
54 201 182
55 200 182
55 200 182
56 199 182
56 199 182
57 198 182
58 197 182
58 197 182
59 196 182
60 195 182
60 195 182
61 194 182
62 193 182
62 193 182
63 192 182
63 191 182
64 191 182
65 190 182
65 190 182
66 189 182
67 188 182
67 188 182
68 187 182
69 186 182
69 186 182
70 185 182
71 184 182
71 184 182
72 183 182
72 183 182
73 182 182
74 181 182
74 181 182
75 180 182
76 179 182
76 179 182
77 178 182
78 177 182
78 177 182
79 176 182
79 175 182
80 175 182
81 174 182
81 174 182
82 173 182
83 172 182
83 172 182
84 171 182
85 170 182
85 170 182
86 169 182
87 168 182
87 168 182
88 167 182
88 167 182
89 166 182
90 165 182
90 165 182
91 164 182
92 163 182
92 163 182
93 162 182
94 161 182
94 161 182
95 160 182
95 159 182
96 159 182
97 158 182
97 158 182
98 157 182
99 156 182
99 156 182
100 155 182
101 154 182
101 154 182
102 153 182
103 152 182
103 152 182
104 151 182
104 151 182
105 150 182
106 149 182
106 149 182
107 148 182
108 147 182
108 147 182
109 146 182
110 145 182
110 145 182
111 144 182
111 143 182
112 143 182
113 142 182
113 142 182
114 141 182
115 140 182
115 140 182
116 139 182
117 138 182
117 138 182
118 137 182
119 136 182
119 136 182
120 135 182
120 135 182
121 134 182
122 133 182
122 133 182
123 132 182
124 131 182
124 131 182
125 130 182
126 129 182
126 129 182
127 128 182
127 127 182
128 127 182
129 126 182
129 126 182
130 125 182
131 124 182
131 124 182
132 123 182
133 122 182
133 122 182
134 121 182
135 120 182
135 120 182
136 119 182
136 119 182
137 118 182
138 117 182
138 117 182
139 116 182
140 115 182
140 115 182
141 114 182
142 113 182
142 113 182
143 112 182
143 111 182
144 111 182
145 110 182
145 110 182
146 109 182
147 108 182
147 108 182
148 107 182
149 106 182
149 106 182
150 105 182
151 104 182
151 104 182
152 103 182
152 103 182
153 102 182
154 101 182
154 101 182
155 100 182
156 99 182
156 99 182
157 98 182
158 97 182
158 97 182
159 96 182
159 95 182
160 95 182
161 94 182
161 94 182
162 93 182
163 92 182
163 92 182
164 91 182
165 90 182
165 90 182
166 89 182
167 88 182
167 88 182
168 87 182
168 87 182
169 86 182
170 85 182
170 85 182
171 84 182
172 83 182
172 83 182
173 82 182
174 81 182
174 81 182
175 80 182
175 79 182
176 79 182
177 78 182
177 78 182
178 77 182
179 76 182
179 76 182
180 75 182
181 74 182
181 74 182
182 73 182
183 72 182
183 72 182
184 71 182
184 71 182
185 70 182
186 69 182
186 69 182
187 68 182
188 67 182
188 67 182
189 66 182
190 65 182
190 65 182
191 64 182
191 63 182
192 63 182
193 62 182
193 62 182
194 61 182
195 60 182
195 60 182
196 59 182
197 58 182
197 58 182
198 57 182
199 56 182
199 56 182
200 55 182
200 55 182
201 54 182
202 53 182
202 53 182
203 52 182
204 51 182
204 51 182
205 50 182
206 49 182
206 49 182
207 48 182
207 47 182
208 47 182
209 46 182
209 46 182
210 45 182
211 44 182
211 44 182
212 43 182
213 42 182
213 42 182
214 41 182
215 40 182
215 40 182
216 39 182
216 39 182
217 38 182
218 37 182
218 37 182
219 36 182
220 35 182
220 35 182
221 34 182
222 33 182
222 33 182
223 32 182
223 31 182
224 31 182
225 30 182
225 30 182
226 29 182
227 28 182
227 28 182
228 27 182
229 26 182
229 26 182
230 25 182
231 24 182
231 24 182
232 23 182
232 23 182
233 22 182
234 21 182
234 21 182
235 20 182
236 19 182
236 19 182
237 18 182
238 17 182
238 17 182
239 16 182
239 15 182
240 15 182
241 14 182
241 14 182
242 13 182
243 12 182
243 12 182
244 11 182
245 10 182
245 10 182
246 9 182
247 8 182
247 8 182
248 7 182
248 7 182
249 6 182
250 5 182
250 5 182
251 4 182
252 3 182
252 3 182
253 2 182
254 1 182
254 1 182
255 0 182
0 255 183
0 255 183
1 254 183
1 254 183
2 253 183
3 252 183
3 252 183
4 251 183
5 250 183
5 250 183
6 249 183
7 248 183
7 248 183
8 247 183
8 247 183
9 246 183
10 245 183
10 245 183
11 244 183
12 243 183
12 243 183
13 242 183
14 241 183
14 241 183
15 240 183
15 239 183
16 239 183
17 238 183
17 238 183
18 237 183
19 236 183
19 236 183
20 235 183
21 234 183
21 234 183
22 233 183
23 232 183
23 232 183
24 231 183
24 231 183
25 230 183
26 229 183
26 229 183
27 228 183
28 227 183
28 227 183
29 226 183
30 225 183
30 225 183
31 224 183
31 223 183
32 223 183
33 222 183
33 222 183
34 221 183
35 220 183
35 220 183
36 219 183
37 218 183
37 218 183
38 217 183
39 216 183
39 216 183
40 215 183
40 215 183
41 214 183
42 213 183
42 213 183
43 212 183
44 211 183
44 211 183
45 210 183
46 209 183
46 209 183
47 208 183
47 207 183
48 207 183
49 206 183
49 206 183
50 205 183
51 204 183
51 204 183
52 203 183
53 202 183
53 202 183
54 201 183
55 200 183
55 200 183
56 199 183
56 199 183
57 198 183
58 197 183
58 197 183
59 196 183
60 195 183
60 195 183
61 194 183
62 193 183
62 193 183
63 192 183
63 191 183
64 191 183
65 190 183
65 190 183
66 189 183
67 188 183
67 188 183
68 187 183
69 186 183
69 186 183
70 185 183
71 184 183
71 184 183
72 183 183
72 183 183
73 182 183
74 181 183
74 181 183
75 180 183
76 179 183
76 179 183
77 178 183
78 177 183
78 177 183
79 176 183
79 175 183
80 175 183
81 174 183
81 174 183
82 173 183
83 172 183
83 172 183
84 171 183
85 170 183
85 170 183
86 169 183
87 168 183
87 168 183
88 167 183
88 167 183
89 166 183
90 165 183
90 165 183
91 164 183
92 163 183
92 163 183
93 162 183
94 161 183
94 161 183
95 160 183
95 159 183
96 159 183
97 158 183
97 158 183
98 157 183
99 156 183
99 156 183
100 155 183
101 154 183
101 154 183
102 153 183
103 152 183
103 152 183
104 151 183
104 151 183
105 150 183
106 149 183
106 149 183
107 148 183
108 147 183
108 147 183
109 146 183
110 145 183
110 145 183
111 144 183
111 143 183
112 143 183
113 142 183
113 142 183
114 141 183
115 140 183
115 140 183
116 139 183
117 138 183
117 138 183
118 137 183
119 136 183
119 136 183
120 135 183
120 135 183
121 134 183
122 133 183
122 133 183
123 132 183
124 131 183
124 131 183
125 130 183
126 129 183
126 129 183
127 128 183
127 127 183
128 127 183
129 126 183
129 126 183
130 125 183
131 124 183
131 124 183
132 123 183
133 122 183
133 122 183
134 121 183
135 120 183
135 120 183
136 119 183
136 119 183
137 118 183
138 117 183
138 117 183
139 116 183
140 115 183
140 115 183
141 114 183
142 113 183
142 113 183
143 112 183
143 111 183
144 111 183
145 110 183
145 110 183
146 109 183
147 108 183
147 108 183
148 107 183
149 106 183
149 106 183
150 105 183
151 104 183
151 104 183
152 103 183
152 103 183
153 102 183
154 101 183
154 101 183
155 100 183
156 99 183
156 99 183
157 98 183
158 97 183
158 97 183
159 96 183
159 95 183
160 95 183
161 94 183
161 94 183
162 93 183
163 92 183
163 92 183
164 91 183
165 90 183
165 90 183
166 89 183
167 88 183
167 88 183
168 87 183
168 87 183
169 86 183
170 85 183
170 85 183
171 84 183
172 83 183
172 83 183
173 82 183
174 81 183
174 81 183
175 80 183
175 79 183
176 79 183
177 78 183
177 78 183
178 77 183
179 76 183
179 76 183
180 75 183
181 74 183
181 74 183
182 73 183
183 72 183
183 72 183
184 71 183
184 71 183
185 70 183
186 69 183
186 69 183
187 68 183
188 67 183
188 67 183
189 66 183
190 65 183
190 65 183
191 64 183
191 63 183
192 63 183
193 62 183
193 62 183
194 61 183
195 60 183
195 60 183
196 59 183
197 58 183
197 58 183
198 57 183
199 56 183
199 56 183
200 55 183
200 55 183
201 54 183
202 53 183
202 53 183
203 52 183
204 51 183
204 51 183
205 50 183
206 49 183
206 49 183
207 48 183
207 47 183
208 47 183
209 46 183
209 46 183
210 45 183
211 44 183
211 44 183
212 43 183
213 42 183
213 42 183
214 41 183
215 40 183
215 40 183
216 39 183
216 39 183
217 38 183
218 37 183
218 37 183
219 36 183
220 35 183
220 35 183
221 34 183
222 33 183
222 33 183
223 32 183
223 31 183
224 31 183
225 30 183
225 30 183
226 29 183
227 28 183
227 28 183
228 27 183
229 26 183
229 26 183
230 25 183
231 24 183
231 24 183
232 23 183
232 23 183
233 22 183
234 21 183
234 21 183
235 20 183
236 19 183
236 19 183
237 18 183
238 17 183
238 17 183
239 16 183
239 15 183
240 15 183
241 14 183
241 14 183
242 13 183
243 12 183
243 12 183
244 11 183
245 10 183
245 10 183
246 9 183
247 8 183
247 8 183
248 7 183
248 7 183
249 6 183
250 5 183
250 5 183
251 4 183
252 3 183
252 3 183
253 2 183
254 1 183
254 1 183
255 0 183
0 255 184
0 255 184
1 254 184
1 254 184
2 253 184
3 252 184
3 252 184
4 251 184
5 250 184
5 250 184
6 249 184
7 248 184
7 248 184
8 247 184
8 247 184
9 246 184
10 245 184
10 245 184
11 244 184
12 243 184
12 243 184
13 242 184
14 241 184
14 241 184
15 240 184
15 239 184
16 239 184
17 238 184
17 238 184
18 237 184
19 236 184
19 236 184
20 235 184
21 234 184
21 234 184
22 233 184
23 232 184
23 232 184
24 231 184
24 231 184
25 230 184
26 229 184
26 229 184
27 228 184
28 227 184
28 227 184
29 226 184
30 225 184
30 225 184
31 224 184
31 223 184
32 223 184
33 222 184
33 222 184
34 221 184
35 220 184
35 220 184
36 219 184
37 218 184
37 218 184
38 217 184
39 216 184
39 216 184
40 215 184
40 215 184
41 214 184
42 213 184
42 213 184
43 212 184
44 211 184
44 211 184
45 210 184
46 209 184
46 209 184
47 208 184
47 207 184
48 207 184
49 206 184
49 206 184
50 205 184
51 204 184
51 204 184
52 203 184
53 202 184
53 202 184
54 201 184
55 200 184
55 200 184
56 199 184
56 199 184
57 198 184
58 197 184
58 197 184
59 196 184
60 195 184
60 195 184
61 194 184
62 193 184
62 193 184
63 192 184
63 191 184
64 191 184
65 190 184
65 190 184
66 189 184
67 188 184
67 188 184
68 187 184
69 186 184
69 186 184
70 185 184
71 184 184
71 184 184
72 183 184
72 183 184
73 182 184
74 181 184
74 181 184
75 180 184
76 179 184
76 179 184
77 178 184
78 177 184
78 177 184
79 176 184
79 175 184
80 175 184
81 174 184
81 174 184
82 173 184
83 172 184
83 172 184
84 171 184
85 170 184
85 170 184
86 169 184
87 168 184
87 168 184
88 167 184
88 167 184
89 166 184
90 165 184
90 165 184
91 164 184
92 163 184
92 163 184
93 162 184
94 161 184
94 161 184
95 160 184
95 159 184
96 159 184
97 158 184
97 158 184
98 157 184
99 156 184
99 156 184
100 155 184
101 154 184
101 154 184
102 153 184
103 152 184
103 152 184
104 151 184
104 151 184
105 150 184
106 149 184
106 149 184
107 148 184
108 147 184
108 147 184
109 146 184
110 145 184
110 145 184
111 144 184
111 143 184
112 143 184
113 142 184
113 142 184
114 141 184
115 140 184
115 140 184
116 139 184
117 138 184
117 138 184
118 137 184
119 136 184
119 136 184
120 135 184
120 135 184
121 134 184
122 133 184
122 133 184
123 132 184
124 131 184
124 131 184
125 130 184
126 129 184
126 129 184
127 128 184
127 127 184
128 127 184
129 126 184
129 126 184
130 125 184
131 124 184
131 124 184
132 123 184
133 122 184
133 122 184
134 121 184
135 120 184
135 120 184
136 119 184
136 119 184
137 118 184
138 117 184
138 117 184
139 116 184
140 115 184
140 115 184
141 114 184
142 113 184
142 113 184
143 112 184
143 111 184
144 111 184
145 110 184
145 110 184
146 109 184
147 108 184
147 108 184
148 107 184
149 106 184
149 106 184
150 105 184
151 104 184
151 104 184
152 103 184
152 103 184
153 102 184
154 101 184
154 101 184
155 100 184
156 99 184
156 99 184
157 98 184
158 97 184
158 97 184
159 96 184
159 95 184
160 95 184
161 94 184
161 94 184
162 93 184
163 92 184
163 92 184
164 91 184
165 90 184
165 90 184
166 89 184
167 88 184
167 88 184
168 87 184
168 87 184
169 86 184
170 85 184
170 85 184
171 84 184
172 83 184
172 83 184
173 82 184
174 81 184
174 81 184
175 80 184
175 79 184
176 79 184
177 78 184
177 78 184
178 77 184
179 76 184
179 76 184
180 75 184
181 74 184
181 74 184
182 73 184
183 72 184
183 72 184
184 71 184
184 71 184
185 70 184
186 69 184
186 69 184
187 68 184
188 67 184
188 67 184
189 66 184
190 65 184
190 65 184
191 64 184
191 63 184
192 63 184
193 62 184
193 62 184
194 61 184
195 60 184
195 60 184
196 59 184
197 58 184
197 58 184
198 57 184
199 56 184
199 56 184
200 55 184
200 55 184
201 54 184
202 53 184
202 53 184
203 52 184
204 51 184
204 51 184
205 50 184
206 49 184
206 49 184
207 48 184
207 47 184
208 47 184
209 46 184
209 46 184
210 45 184
211 44 184
211 44 184
212 43 184
213 42 184
213 42 184
214 41 184
215 40 184
215 40 184
216 39 184
216 39 184
217 38 184
218 37 184
218 37 184
219 36 184
220 35 184
220 35 184
221 34 184
222 33 184
222 33 184
223 32 184
223 31 184
224 31 184
225 30 184
225 30 184
226 29 184
227 28 184
227 28 184
228 27 184
229 26 184
229 26 184
230 25 184
231 24 184
231 24 184
232 23 184
232 23 184
233 22 184
234 21 184
234 21 184
235 20 184
236 19 184
236 19 184
237 18 184
238 17 184
238 17 184
239 16 184
239 15 184
240 15 184
241 14 184
241 14 184
242 13 184
243 12 184
243 12 184
244 11 184
245 10 184
245 10 184
246 9 184
247 8 184
247 8 184
248 7 184
248 7 184
249 6 184
250 5 184
250 5 184
251 4 184
252 3 184
252 3 184
253 2 184
254 1 184
254 1 184
255 0 184
0 255 185
0 255 185
1 254 185
1 254 185
2 253 185
3 252 185
3 252 185
4 251 185
5 250 185
5 250 185
6 249 185
7 248 185
7 248 185
8 247 185
8 247 185
9 246 185
10 245 185
10 245 185
11 244 185
12 243 185
12 243 185
13 242 185
14 241 185
14 241 185
15 240 185
15 239 185
16 239 185
17 238 185
17 238 185
18 237 185
19 236 185
19 236 185
20 235 185
21 234 185
21 234 185
22 233 185
23 232 185
23 232 185
24 231 185
24 231 185
25 230 185
26 229 185
26 229 185
27 228 185
28 227 185
28 227 185
29 226 185
30 225 185
30 225 185
31 224 185
31 223 185
32 223 185
33 222 185
33 222 185
34 221 185
35 220 185
35 220 185
36 219 185
37 218 185
37 218 185
38 217 185
39 216 185
39 216 185
40 215 185
40 215 185
41 214 185
42 213 185
42 213 185
43 212 185
44 211 185
44 211 185
45 210 185
46 209 185
46 209 185
47 208 185
47 207 185
48 207 185
49 206 185
49 206 185
50 205 185
51 204 185
51 204 185
52 203 185
53 202 185
53 202 185
54 201 185
55 200 185
55 200 185
56 199 185
56 199 185
57 198 185
58 197 185
58 197 185
59 196 185
60 195 185
60 195 185
61 194 185
62 193 185
62 193 185
63 192 185
63 191 185
64 191 185
65 190 185
65 190 185
66 189 185
67 188 185
67 188 185
68 187 185
69 186 185
69 186 185
70 185 185
71 184 185
71 184 185
72 183 185
72 183 185
73 182 185
74 181 185
74 181 185
75 180 185
76 179 185
76 179 185
77 178 185
78 177 185
78 177 185
79 176 185
79 175 185
80 175 185
81 174 185
81 174 185
82 173 185
83 172 185
83 172 185
84 171 185
85 170 185
85 170 185
86 169 185
87 168 185
87 168 185
88 167 185
88 167 185
89 166 185
90 165 185
90 165 185
91 164 185
92 163 185
92 163 185
93 162 185
94 161 185
94 161 185
95 160 185
95 159 185
96 159 185
97 158 185
97 158 185
98 157 185
99 156 185
99 156 185
100 155 185
101 154 185
101 154 185
102 153 185
103 152 185
103 152 185
104 151 185
104 151 185
105 150 185
106 149 185
106 149 185
107 148 185
108 147 185
108 147 185
109 146 185
110 145 185
110 145 185
111 144 185
111 143 185
112 143 185
113 142 185
113 142 185
114 141 185
115 140 185
115 140 185
116 139 185
117 138 185
117 138 185
118 137 185
119 136 185
119 136 185
120 135 185
120 135 185
121 134 185
122 133 185
122 133 185
123 132 185
124 131 185
124 131 185
125 130 185
126 129 185
126 129 185
127 128 185
127 127 185
128 127 185
129 126 185
129 126 185
130 125 185
131 124 185
131 124 185
132 123 185
133 122 185
133 122 185
134 121 185
135 120 185
135 120 185
136 119 185
136 119 185
137 118 185
138 117 185
138 117 185
139 116 185
140 115 185
140 115 185
141 114 185
142 113 185
142 113 185
143 112 185
143 111 185
144 111 185
145 110 185
145 110 185
146 109 185
147 108 185
147 108 185
148 107 185
149 106 185
149 106 185
150 105 185
151 104 185
151 104 185
152 103 185
152 103 185
153 102 185
154 101 185
154 101 185
155 100 185
156 99 185
156 99 185
157 98 185
158 97 185
158 97 185
159 96 185
159 95 185
160 95 185
161 94 185
161 94 185
162 93 185
163 92 185
163 92 185
164 91 185
165 90 185
165 90 185
166 89 185
167 88 185
167 88 185
168 87 185
168 87 185
169 86 185
170 85 185
170 85 185
171 84 185
172 83 185
172 83 185
173 82 185
174 81 185
174 81 185
175 80 185
175 79 185
176 79 185
177 78 185
177 78 185
178 77 185
179 76 185
179 76 185
180 75 185
181 74 185
181 74 185
182 73 185
183 72 185
183 72 185
184 71 185
184 71 185
185 70 185
186 69 185
186 69 185
187 68 185
188 67 185
188 67 185
189 66 185
190 65 185
190 65 185
191 64 185
191 63 185
192 63 185
193 62 185
193 62 185
194 61 185
195 60 185
195 60 185
196 59 185
197 58 185
197 58 185
198 57 185
199 56 185
199 56 185
200 55 185
200 55 185
201 54 185
202 53 185
202 53 185
203 52 185
204 51 185
204 51 185
205 50 185
206 49 185
206 49 185
207 48 185
207 47 185
208 47 185
209 46 185
209 46 185
210 45 185
211 44 185
211 44 185
212 43 185
213 42 185
213 42 185
214 41 185
215 40 185
215 40 185
216 39 185
216 39 185
217 38 185
218 37 185
218 37 185
219 36 185
220 35 185
220 35 185
221 34 185
222 33 185
222 33 185
223 32 185
223 31 185
224 31 185
225 30 185
225 30 185
226 29 185
227 28 185
227 28 185
228 27 185
229 26 185
229 26 185
230 25 185
231 24 185
231 24 185
232 23 185
232 23 185
233 22 185
234 21 185
234 21 185
235 20 185
236 19 185
236 19 185
237 18 185
238 17 185
238 17 185
239 16 185
239 15 185
240 15 185
241 14 185
241 14 185
242 13 185
243 12 185
243 12 185
244 11 185
245 10 185
245 10 185
246 9 185
247 8 185
247 8 185
248 7 185
248 7 185
249 6 185
250 5 185
250 5 185
251 4 185
252 3 185
252 3 185
253 2 185
254 1 185
254 1 185
255 0 185
0 255 186
0 255 186
1 254 186
1 254 186
2 253 186
3 252 186
3 252 186
4 251 186
5 250 186
5 250 186
6 249 186
7 248 186
7 248 186
8 247 186
8 247 186
9 246 186
10 245 186
10 245 186
11 244 186
12 243 186
12 243 186
13 242 186
14 241 186
14 241 186
15 240 186
15 239 186
16 239 186
17 238 186
17 238 186
18 237 186
19 236 186
19 236 186
20 235 186
21 234 186
21 234 186
22 233 186
23 232 186
23 232 186
24 231 186
24 231 186
25 230 186
26 229 186
26 229 186
27 228 186
28 227 186
28 227 186
29 226 186
30 225 186
30 225 186
31 224 186
31 223 186
32 223 186
33 222 186
33 222 186
34 221 186
35 220 186
35 220 186
36 219 186
37 218 186
37 218 186
38 217 186
39 216 186
39 216 186
40 215 186
40 215 186
41 214 186
42 213 186
42 213 186
43 212 186
44 211 186
44 211 186
45 210 186
46 209 186
46 209 186
47 208 186
47 207 186
48 207 186
49 206 186
49 206 186
50 205 186
51 204 186
51 204 186
52 203 186
53 202 186
53 202 186
54 201 186
55 200 186
55 200 186
56 199 186
56 199 186
57 198 186
58 197 186
58 197 186
59 196 186
60 195 186
60 195 186
61 194 186
62 193 186
62 193 186
63 192 186
63 191 186
64 191 186
65 190 186
65 190 186
66 189 186
67 188 186
67 188 186
68 187 186
69 186 186
69 186 186
70 185 186
71 184 186
71 184 186
72 183 186
72 183 186
73 182 186
74 181 186
74 181 186
75 180 186
76 179 186
76 179 186
77 178 186
78 177 186
78 177 186
79 176 186
79 175 186
80 175 186
81 174 186
81 174 186
82 173 186
83 172 186
83 172 186
84 171 186
85 170 186
85 170 186
86 169 186
87 168 186
87 168 186
88 167 186
88 167 186
89 166 186
90 165 186
90 165 186
91 164 186
92 163 186
92 163 186
93 162 186
94 161 186
94 161 186
95 160 186
95 159 186
96 159 186
97 158 186
97 158 186
98 157 186
99 156 186
99 156 186
100 155 186
101 154 186
101 154 186
102 153 186
103 152 186
103 152 186
104 151 186
104 151 186
105 150 186
106 149 186
106 149 186
107 148 186
108 147 186
108 147 186
109 146 186
110 145 186
110 145 186
111 144 186
111 143 186
112 143 186
113 142 186
113 142 186
114 141 186
115 140 186
115 140 186
116 139 186
117 138 186
117 138 186
118 137 186
119 136 186
119 136 186
120 135 186
120 135 186
121 134 186
122 133 186
122 133 186
123 132 186
124 131 186
124 131 186
125 130 186
126 129 186
126 129 186
127 128 186
127 127 186
128 127 186
129 126 186
129 126 186
130 125 186
131 124 186
131 124 186
132 123 186
133 122 186
133 122 186
134 121 186
135 120 186
135 120 186
136 119 186
136 119 186
137 118 186
138 117 186
138 117 186
139 116 186
140 115 186
140 115 186
141 114 186
142 113 186
142 113 186
143 112 186
143 111 186
144 111 186
145 110 186
145 110 186
146 109 186
147 108 186
147 108 186
148 107 186
149 106 186
149 106 186
150 105 186
151 104 186
151 104 186
152 103 186
152 103 186
153 102 186
154 101 186
154 101 186
155 100 186
156 99 186
156 99 186
157 98 186
158 97 186
158 97 186
159 96 186
159 95 186
160 95 186
161 94 186
161 94 186
162 93 186
163 92 186
163 92 186
164 91 186
165 90 186
165 90 186
166 89 186
167 88 186
167 88 186
168 87 186
168 87 186
169 86 186
170 85 186
170 85 186
171 84 186
172 83 186
172 83 186
173 82 186
174 81 186
174 81 186
175 80 186
175 79 186
176 79 186
177 78 186
177 78 186
178 77 186
179 76 186
179 76 186
180 75 186
181 74 186
181 74 186
182 73 186
183 72 186
183 72 186
184 71 186
184 71 186
185 70 186
186 69 186
186 69 186
187 68 186
188 67 186
188 67 186
189 66 186
190 65 186
190 65 186
191 64 186
191 63 186
192 63 186
193 62 186
193 62 186
194 61 186
195 60 186
195 60 186
196 59 186
197 58 186
197 58 186
198 57 186
199 56 186
199 56 186
200 55 186
200 55 186
201 54 186
202 53 186
202 53 186
203 52 186
204 51 186
204 51 186
205 50 186
206 49 186
206 49 186
207 48 186
207 47 186
208 47 186
209 46 186
209 46 186
210 45 186
211 44 186
211 44 186
212 43 186
213 42 186
213 42 186
214 41 186
215 40 186
215 40 186
216 39 186
216 39 186
217 38 186
218 37 186
218 37 186
219 36 186
220 35 186
220 35 186
221 34 186
222 33 186
222 33 186
223 32 186
223 31 186
224 31 186
225 30 186
225 30 186
226 29 186
227 28 186
227 28 186
228 27 186
229 26 186
229 26 186
230 25 186
231 24 186
231 24 186
232 23 186
232 23 186
233 22 186
234 21 186
234 21 186
235 20 186
236 19 186
236 19 186
237 18 186
238 17 186
238 17 186
239 16 186
239 15 186
240 15 186
241 14 186
241 14 186
242 13 186
243 12 186
243 12 186
244 11 186
245 10 186
245 10 186
246 9 186
247 8 186
247 8 186
248 7 186
248 7 186
249 6 186
250 5 186
250 5 186
251 4 186
252 3 186
252 3 186
253 2 186
254 1 186
254 1 186
255 0 186
0 255 187
0 255 187
1 254 187
1 254 187
2 253 187
3 252 187
3 252 187
4 251 187
5 250 187
5 250 187
6 249 187
7 248 187
7 248 187
8 247 187
8 247 187
9 246 187
10 245 187
10 245 187
11 244 187
12 243 187
12 243 187
13 242 187
14 241 187
14 241 187
15 240 187
15 239 187
16 239 187
17 238 187
17 238 187
18 237 187
19 236 187
19 236 187
20 235 187
21 234 187
21 234 187
22 233 187
23 232 187
23 232 187
24 231 187
24 231 187
25 230 187
26 229 187
26 229 187
27 228 187
28 227 187
28 227 187
29 226 187
30 225 187
30 225 187
31 224 187
31 223 187
32 223 187
33 222 187
33 222 187
34 221 187
35 220 187
35 220 187
36 219 187
37 218 187
37 218 187
38 217 187
39 216 187
39 216 187
40 215 187
40 215 187
41 214 187
42 213 187
42 213 187
43 212 187
44 211 187
44 211 187
45 210 187
46 209 187
46 209 187
47 208 187
47 207 187
48 207 187
49 206 187
49 206 187
50 205 187
51 204 187
51 204 187
52 203 187
53 202 187
53 202 187
54 201 187
55 200 187
55 200 187
56 199 187
56 199 187
57 198 187
58 197 187
58 197 187
59 196 187
60 195 187
60 195 187
61 194 187
62 193 187
62 193 187
63 192 187
63 191 187
64 191 187
65 190 187
65 190 187
66 189 187
67 188 187
67 188 187
68 187 187
69 186 187
69 186 187
70 185 187
71 184 187
71 184 187
72 183 187
72 183 187
73 182 187
74 181 187
74 181 187
75 180 187
76 179 187
76 179 187
77 178 187
78 177 187
78 177 187
79 176 187
79 175 187
80 175 187
81 174 187
81 174 187
82 173 187
83 172 187
83 172 187
84 171 187
85 170 187
85 170 187
86 169 187
87 168 187
87 168 187
88 167 187
88 167 187
89 166 187
90 165 187
90 165 187
91 164 187
92 163 187
92 163 187
93 162 187
94 161 187
94 161 187
95 160 187
95 159 187
96 159 187
97 158 187
97 158 187
98 157 187
99 156 187
99 156 187
100 155 187
101 154 187
101 154 187
102 153 187
103 152 187
103 152 187
104 151 187
104 151 187
105 150 187
106 149 187
106 149 187
107 148 187
108 147 187
108 147 187
109 146 187
110 145 187
110 145 187
111 144 187
111 143 187
112 143 187
113 142 187
113 142 187
114 141 187
115 140 187
115 140 187
116 139 187
117 138 187
117 138 187
118 137 187
119 136 187
119 136 187
120 135 187
120 135 187
121 134 187
122 133 187
122 133 187
123 132 187
124 131 187
124 131 187
125 130 187
126 129 187
126 129 187
127 128 187
127 127 187
128 127 187
129 126 187
129 126 187
130 125 187
131 124 187
131 124 187
132 123 187
133 122 187
133 122 187
134 121 187
135 120 187
135 120 187
136 119 187
136 119 187
137 118 187
138 117 187
138 117 187
139 116 187
140 115 187
140 115 187
141 114 187
142 113 187
142 113 187
143 112 187
143 111 187
144 111 187
145 110 187
145 110 187
146 109 187
147 108 187
147 108 187
148 107 187
149 106 187
149 106 187
150 105 187
151 104 187
151 104 187
152 103 187
152 103 187
153 102 187
154 101 187
154 101 187
155 100 187
156 99 187
156 99 187
157 98 187
158 97 187
158 97 187
159 96 187
159 95 187
160 95 187
161 94 187
161 94 187
162 93 187
163 92 187
163 92 187
164 91 187
165 90 187
165 90 187
166 89 187
167 88 187
167 88 187
168 87 187
168 87 187
169 86 187
170 85 187
170 85 187
171 84 187
172 83 187
172 83 187
173 82 187
174 81 187
174 81 187
175 80 187
175 79 187
176 79 187
177 78 187
177 78 187
178 77 187
179 76 187
179 76 187
180 75 187
181 74 187
181 74 187
182 73 187
183 72 187
183 72 187
184 71 187
184 71 187
185 70 187
186 69 187
186 69 187
187 68 187
188 67 187
188 67 187
189 66 187
190 65 187
190 65 187
191 64 187
191 63 187
192 63 187
193 62 187
193 62 187
194 61 187
195 60 187
195 60 187
196 59 187
197 58 187
197 58 187
198 57 187
199 56 187
199 56 187
200 55 187
200 55 187
201 54 187
202 53 187
202 53 187
203 52 187
204 51 187
204 51 187
205 50 187
206 49 187
206 49 187
207 48 187
207 47 187
208 47 187
209 46 187
209 46 187
210 45 187
211 44 187
211 44 187
212 43 187
213 42 187
213 42 187
214 41 187
215 40 187
215 40 187
216 39 187
216 39 187
217 38 187
218 37 187
218 37 187
219 36 187
220 35 187
220 35 187
221 34 187
222 33 187
222 33 187
223 32 187
223 31 187
224 31 187
225 30 187
225 30 187
226 29 187
227 28 187
227 28 187
228 27 187
229 26 187
229 26 187
230 25 187
231 24 187
231 24 187
232 23 187
232 23 187
233 22 187
234 21 187
234 21 187
235 20 187
236 19 187
236 19 187
237 18 187
238 17 187
238 17 187
239 16 187
239 15 187
240 15 187
241 14 187
241 14 187
242 13 187
243 12 187
243 12 187
244 11 187
245 10 187
245 10 187
246 9 187
247 8 187
247 8 187
248 7 187
248 7 187
249 6 187
250 5 187
250 5 187
251 4 187
252 3 187
252 3 187
253 2 187
254 1 187
254 1 187
255 0 187
0 255 188
0 255 188
1 254 188
1 254 188
2 253 188
3 252 188
3 252 188
4 251 188
5 250 188
5 250 188
6 249 188
7 248 188
7 248 188
8 247 188
8 247 188
9 246 188
10 245 188
10 245 188
11 244 188
12 243 188
12 243 188
13 242 188
14 241 188
14 241 188
15 240 188
15 239 188
16 239 188
17 238 188
17 238 188
18 237 188
19 236 188
19 236 188
20 235 188
21 234 188
21 234 188
22 233 188
23 232 188
23 232 188
24 231 188
24 231 188
25 230 188
26 229 188
26 229 188
27 228 188
28 227 188
28 227 188
29 226 188
30 225 188
30 225 188
31 224 188
31 223 188
32 223 188
33 222 188
33 222 188
34 221 188
35 220 188
35 220 188
36 219 188
37 218 188
37 218 188
38 217 188
39 216 188
39 216 188
40 215 188
40 215 188
41 214 188
42 213 188
42 213 188
43 212 188
44 211 188
44 211 188
45 210 188
46 209 188
46 209 188
47 208 188
47 207 188
48 207 188
49 206 188
49 206 188
50 205 188
51 204 188
51 204 188
52 203 188
53 202 188
53 202 188
54 201 188
55 200 188
55 200 188
56 199 188
56 199 188
57 198 188
58 197 188
58 197 188
59 196 188
60 195 188
60 195 188
61 194 188
62 193 188
62 193 188
63 192 188
63 191 188
64 191 188
65 190 188
65 190 188
66 189 188
67 188 188
67 188 188
68 187 188
69 186 188
69 186 188
70 185 188
71 184 188
71 184 188
72 183 188
72 183 188
73 182 188
74 181 188
74 181 188
75 180 188
76 179 188
76 179 188
77 178 188
78 177 188
78 177 188
79 176 188
79 175 188
80 175 188
81 174 188
81 174 188
82 173 188
83 172 188
83 172 188
84 171 188
85 170 188
85 170 188
86 169 188
87 168 188
87 168 188
88 167 188
88 167 188
89 166 188
90 165 188
90 165 188
91 164 188
92 163 188
92 163 188
93 162 188
94 161 188
94 161 188
95 160 188
95 159 188
96 159 188
97 158 188
97 158 188
98 157 188
99 156 188
99 156 188
100 155 188
101 154 188
101 154 188
102 153 188
103 152 188
103 152 188
104 151 188
104 151 188
105 150 188
106 149 188
106 149 188
107 148 188
108 147 188
108 147 188
109 146 188
110 145 188
110 145 188
111 144 188
111 143 188
112 143 188
113 142 188
113 142 188
114 141 188
115 140 188
115 140 188
116 139 188
117 138 188
117 138 188
118 137 188
119 136 188
119 136 188
120 135 188
120 135 188
121 134 188
122 133 188
122 133 188
123 132 188
124 131 188
124 131 188
125 130 188
126 129 188
126 129 188
127 128 188
127 127 188
128 127 188
129 126 188
129 126 188
130 125 188
131 124 188
131 124 188
132 123 188
133 122 188
133 122 188
134 121 188
135 120 188
135 120 188
136 119 188
136 119 188
137 118 188
138 117 188
138 117 188
139 116 188
140 115 188
140 115 188
141 114 188
142 113 188
142 113 188
143 112 188
143 111 188
144 111 188
145 110 188
145 110 188
146 109 188
147 108 188
147 108 188
148 107 188
149 106 188
149 106 188
150 105 188
151 104 188
151 104 188
152 103 188
152 103 188
153 102 188
154 101 188
154 101 188
155 100 188
156 99 188
156 99 188
157 98 188
158 97 188
158 97 188
159 96 188
159 95 188
160 95 188
161 94 188
161 94 188
162 93 188
163 92 188
163 92 188
164 91 188
165 90 188
165 90 188
166 89 188
167 88 188
167 88 188
168 87 188
168 87 188
169 86 188
170 85 188
170 85 188
171 84 188
172 83 188
172 83 188
173 82 188
174 81 188
174 81 188
175 80 188
175 79 188
176 79 188
177 78 188
177 78 188
178 77 188
179 76 188
179 76 188
180 75 188
181 74 188
181 74 188
182 73 188
183 72 188
183 72 188
184 71 188
184 71 188
185 70 188
186 69 188
186 69 188
187 68 188
188 67 188
188 67 188
189 66 188
190 65 188
190 65 188
191 64 188
191 63 188
192 63 188
193 62 188
193 62 188
194 61 188
195 60 188
195 60 188
196 59 188
197 58 188
197 58 188
198 57 188
199 56 188
199 56 188
200 55 188
200 55 188
201 54 188
202 53 188
202 53 188
203 52 188
204 51 188
204 51 188
205 50 188
206 49 188
206 49 188
207 48 188
207 47 188
208 47 188
209 46 188
209 46 188
210 45 188
211 44 188
211 44 188
212 43 188
213 42 188
213 42 188
214 41 188
215 40 188
215 40 188
216 39 188
216 39 188
217 38 188
218 37 188
218 37 188
219 36 188
220 35 188
220 35 188
221 34 188
222 33 188
222 33 188
223 32 188
223 31 188
224 31 188
225 30 188
225 30 188
226 29 188
227 28 188
227 28 188
228 27 188
229 26 188
229 26 188
230 25 188
231 24 188
231 24 188
232 23 188
232 23 188
233 22 188
234 21 188
234 21 188
235 20 188
236 19 188
236 19 188
237 18 188
238 17 188
238 17 188
239 16 188
239 15 188
240 15 188
241 14 188
241 14 188
242 13 188
243 12 188
243 12 188
244 11 188
245 10 188
245 10 188
246 9 188
247 8 188
247 8 188
248 7 188
248 7 188
249 6 188
250 5 188
250 5 188
251 4 188
252 3 188
252 3 188
253 2 188
254 1 188
254 1 188
255 0 188
0 255 190
0 255 190
1 254 190
1 254 190
2 253 190
3 252 190
3 252 190
4 251 190
5 250 190
5 250 190
6 249 190
7 248 190
7 248 190
8 247 190
8 247 190
9 246 190
10 245 190
10 245 190
11 244 190
12 243 190
12 243 190
13 242 190
14 241 190
14 241 190
15 240 190
15 239 190
16 239 190
17 238 190
17 238 190
18 237 190
19 236 190
19 236 190
20 235 190
21 234 190
21 234 190
22 233 190
23 232 190
23 232 190
24 231 190
24 231 190
25 230 190
26 229 190
26 229 190
27 228 190
28 227 190
28 227 190
29 226 190
30 225 190
30 225 190
31 224 190
31 223 190
32 223 190
33 222 190
33 222 190
34 221 190
35 220 190
35 220 190
36 219 190
37 218 190
37 218 190
38 217 190
39 216 190
39 216 190
40 215 190
40 215 190
41 214 190
42 213 190
42 213 190
43 212 190
44 211 190
44 211 190
45 210 190
46 209 190
46 209 190
47 208 190
47 207 190
48 207 190
49 206 190
49 206 190
50 205 190
51 204 190
51 204 190
52 203 190
53 202 190
53 202 190
54 201 190
55 200 190
55 200 190
56 199 190
56 199 190
57 198 190
58 197 190
58 197 190
59 196 190
60 195 190
60 195 190
61 194 190
62 193 190
62 193 190
63 192 190
63 191 190
64 191 190
65 190 190
65 190 190
66 189 190
67 188 190
67 188 190
68 187 190
69 186 190
69 186 190
70 185 190
71 184 190
71 184 190
72 183 190
72 183 190
73 182 190
74 181 190
74 181 190
75 180 190
76 179 190
76 179 190
77 178 190
78 177 190
78 177 190
79 176 190
79 175 190
80 175 190
81 174 190
81 174 190
82 173 190
83 172 190
83 172 190
84 171 190
85 170 190
85 170 190
86 169 190
87 168 190
87 168 190
88 167 190
88 167 190
89 166 190
90 165 190
90 165 190
91 164 190
92 163 190
92 163 190
93 162 190
94 161 190
94 161 190
95 160 190
95 159 190
96 159 190
97 158 190
97 158 190
98 157 190
99 156 190
99 156 190
100 155 190
101 154 190
101 154 190
102 153 190
103 152 190
103 152 190
104 151 190
104 151 190
105 150 190
106 149 190
106 149 190
107 148 190
108 147 190
108 147 190
109 146 190
110 145 190
110 145 190
111 144 190
111 143 190
112 143 190
113 142 190
113 142 190
114 141 190
115 140 190
115 140 190
116 139 190
117 138 190
117 138 190
118 137 190
119 136 190
119 136 190
120 135 190
120 135 190
121 134 190
122 133 190
122 133 190
123 132 190
124 131 190
124 131 190
125 130 190
126 129 190
126 129 190
127 128 190
127 127 190
128 127 190
129 126 190
129 126 190
130 125 190
131 124 190
131 124 190
132 123 190
133 122 190
133 122 190
134 121 190
135 120 190
135 120 190
136 119 190
136 119 190
137 118 190
138 117 190
138 117 190
139 116 190
140 115 190
140 115 190
141 114 190
142 113 190
142 113 190
143 112 190
143 111 190
144 111 190
145 110 190
145 110 190
146 109 190
147 108 190
147 108 190
148 107 190
149 106 190
149 106 190
150 105 190
151 104 190
151 104 190
152 103 190
152 103 190
153 102 190
154 101 190
154 101 190
155 100 190
156 99 190
156 99 190
157 98 190
158 97 190
158 97 190
159 96 190
159 95 190
160 95 190
161 94 190
161 94 190
162 93 190
163 92 190
163 92 190
164 91 190
165 90 190
165 90 190
166 89 190
167 88 190
167 88 190
168 87 190
168 87 190
169 86 190
170 85 190
170 85 190
171 84 190
172 83 190
172 83 190
173 82 190
174 81 190
174 81 190
175 80 190
175 79 190
176 79 190
177 78 190
177 78 190
178 77 190
179 76 190
179 76 190
180 75 190
181 74 190
181 74 190
182 73 190
183 72 190
183 72 190
184 71 190
184 71 190
185 70 190
186 69 190
186 69 190
187 68 190
188 67 190
188 67 190
189 66 190
190 65 190
190 65 190
191 64 190
191 63 190
192 63 190
193 62 190
193 62 190
194 61 190
195 60 190
195 60 190
196 59 190
197 58 190
197 58 190
198 57 190
199 56 190
199 56 190
200 55 190
200 55 190
201 54 190
202 53 190
202 53 190
203 52 190
204 51 190
204 51 190
205 50 190
206 49 190
206 49 190
207 48 190
207 47 190
208 47 190
209 46 190
209 46 190
210 45 190
211 44 190
211 44 190
212 43 190
213 42 190
213 42 190
214 41 190
215 40 190
215 40 190
216 39 190
216 39 190
217 38 190
218 37 190
218 37 190
219 36 190
220 35 190
220 35 190
221 34 190
222 33 190
222 33 190
223 32 190
223 31 190
224 31 190
225 30 190
225 30 190
226 29 190
227 28 190
227 28 190
228 27 190
229 26 190
229 26 190
230 25 190
231 24 190
231 24 190
232 23 190
232 23 190
233 22 190
234 21 190
234 21 190
235 20 190
236 19 190
236 19 190
237 18 190
238 17 190
238 17 190
239 16 190
239 15 190
240 15 190
241 14 190
241 14 190
242 13 190
243 12 190
243 12 190
244 11 190
245 10 190
245 10 190
246 9 190
247 8 190
247 8 190
248 7 190
248 7 190
249 6 190
250 5 190
250 5 190
251 4 190
252 3 190
252 3 190
253 2 190
254 1 190
254 1 190
255 0 190
0 255 191
0 255 191
1 254 191
1 254 191
2 253 191
3 252 191
3 252 191
4 251 191
5 250 191
5 250 191
6 249 191
7 248 191
7 248 191
8 247 191
8 247 191
9 246 191
10 245 191
10 245 191
11 244 191
12 243 191
12 243 191
13 242 191
14 241 191
14 241 191
15 240 191
15 239 191
16 239 191
17 238 191
17 238 191
18 237 191
19 236 191
19 236 191
20 235 191
21 234 191
21 234 191
22 233 191
23 232 191
23 232 191
24 231 191
24 231 191
25 230 191
26 229 191
26 229 191
27 228 191
28 227 191
28 227 191
29 226 191
30 225 191
30 225 191
31 224 191
31 223 191
32 223 191
33 222 191
33 222 191
34 221 191
35 220 191
35 220 191
36 219 191
37 218 191
37 218 191
38 217 191
39 216 191
39 216 191
40 215 191
40 215 191
41 214 191
42 213 191
42 213 191
43 212 191
44 211 191
44 211 191
45 210 191
46 209 191
46 209 191
47 208 191
47 207 191
48 207 191
49 206 191
49 206 191
50 205 191
51 204 191
51 204 191
52 203 191
53 202 191
53 202 191
54 201 191
55 200 191
55 200 191
56 199 191
56 199 191
57 198 191
58 197 191
58 197 191
59 196 191
60 195 191
60 195 191
61 194 191
62 193 191
62 193 191
63 192 191
63 191 191
64 191 191
65 190 191
65 190 191
66 189 191
67 188 191
67 188 191
68 187 191
69 186 191
69 186 191
70 185 191
71 184 191
71 184 191
72 183 191
72 183 191
73 182 191
74 181 191
74 181 191
75 180 191
76 179 191
76 179 191
77 178 191
78 177 191
78 177 191
79 176 191
79 175 191
80 175 191
81 174 191
81 174 191
82 173 191
83 172 191
83 172 191
84 171 191
85 170 191
85 170 191
86 169 191
87 168 191
87 168 191
88 167 191
88 167 191
89 166 191
90 165 191
90 165 191
91 164 191
92 163 191
92 163 191
93 162 191
94 161 191
94 161 191
95 160 191
95 159 191
96 159 191
97 158 191
97 158 191
98 157 191
99 156 191
99 156 191
100 155 191
101 154 191
101 154 191
102 153 191
103 152 191
103 152 191
104 151 191
104 151 191
105 150 191
106 149 191
106 149 191
107 148 191
108 147 191
108 147 191
109 146 191
110 145 191
110 145 191
111 144 191
111 143 191
112 143 191
113 142 191
113 142 191
114 141 191
115 140 191
115 140 191
116 139 191
117 138 191
117 138 191
118 137 191
119 136 191
119 136 191
120 135 191
120 135 191
121 134 191
122 133 191
122 133 191
123 132 191
124 131 191
124 131 191
125 130 191
126 129 191
126 129 191
127 128 191
127 127 191
128 127 191
129 126 191
129 126 191
130 125 191
131 124 191
131 124 191
132 123 191
133 122 191
133 122 191
134 121 191
135 120 191
135 120 191
136 119 191
136 119 191
137 118 191
138 117 191
138 117 191
139 116 191
140 115 191
140 115 191
141 114 191
142 113 191
142 113 191
143 112 191
143 111 191
144 111 191
145 110 191
145 110 191
146 109 191
147 108 191
147 108 191
148 107 191
149 106 191
149 106 191
150 105 191
151 104 191
151 104 191
152 103 191
152 103 191
153 102 191
154 101 191
154 101 191
155 100 191
156 99 191
156 99 191
157 98 191
158 97 191
158 97 191
159 96 191
159 95 191
160 95 191
161 94 191
161 94 191
162 93 191
163 92 191
163 92 191
164 91 191
165 90 191
165 90 191
166 89 191
167 88 191
167 88 191
168 87 191
168 87 191
169 86 191
170 85 191
170 85 191
171 84 191
172 83 191
172 83 191
173 82 191
174 81 191
174 81 191
175 80 191
175 79 191
176 79 191
177 78 191
177 78 191
178 77 191
179 76 191
179 76 191
180 75 191
181 74 191
181 74 191
182 73 191
183 72 191
183 72 191
184 71 191
184 71 191
185 70 191
186 69 191
186 69 191
187 68 191
188 67 191
188 67 191
189 66 191
190 65 191
190 65 191
191 64 191
191 63 191
192 63 191
193 62 191
193 62 191
194 61 191
195 60 191
195 60 191
196 59 191
197 58 191
197 58 191
198 57 191
199 56 191
199 56 191
200 55 191
200 55 191
201 54 191
202 53 191
202 53 191
203 52 191
204 51 191
204 51 191
205 50 191
206 49 191
206 49 191
207 48 191
207 47 191
208 47 191
209 46 191
209 46 191
210 45 191
211 44 191
211 44 191
212 43 191
213 42 191
213 42 191
214 41 191
215 40 191
215 40 191
216 39 191
216 39 191
217 38 191
218 37 191
218 37 191
219 36 191
220 35 191
220 35 191
221 34 191
222 33 191
222 33 191
223 32 191
223 31 191
224 31 191
225 30 191
225 30 191
226 29 191
227 28 191
227 28 191
228 27 191
229 26 191
229 26 191
230 25 191
231 24 191
231 24 191
232 23 191
232 23 191
233 22 191
234 21 191
234 21 191
235 20 191
236 19 191
236 19 191
237 18 191
238 17 191
238 17 191
239 16 191
239 15 191
240 15 191
241 14 191
241 14 191
242 13 191
243 12 191
243 12 191
244 11 191
245 10 191
245 10 191
246 9 191
247 8 191
247 8 191
248 7 191
248 7 191
249 6 191
250 5 191
250 5 191
251 4 191
252 3 191
252 3 191
253 2 191
254 1 191
254 1 191
255 0 191
0 255 192
0 255 192
1 254 192
1 254 192
2 253 192
3 252 192
3 252 192
4 251 192
5 250 192
5 250 192
6 249 192
7 248 192
7 248 192
8 247 192
8 247 192
9 246 192
10 245 192
10 245 192
11 244 192
12 243 192
12 243 192
13 242 192
14 241 192
14 241 192
15 240 192
15 239 192
16 239 192
17 238 192
17 238 192
18 237 192
19 236 192
19 236 192
20 235 192
21 234 192
21 234 192
22 233 192
23 232 192
23 232 192
24 231 192
24 231 192
25 230 192
26 229 192
26 229 192
27 228 192
28 227 192
28 227 192
29 226 192
30 225 192
30 225 192
31 224 192
31 223 192
32 223 192
33 222 192
33 222 192
34 221 192
35 220 192
35 220 192
36 219 192
37 218 192
37 218 192
38 217 192
39 216 192
39 216 192
40 215 192
40 215 192
41 214 192
42 213 192
42 213 192
43 212 192
44 211 192
44 211 192
45 210 192
46 209 192
46 209 192
47 208 192
47 207 192
48 207 192
49 206 192
49 206 192
50 205 192
51 204 192
51 204 192
52 203 192
53 202 192
53 202 192
54 201 192
55 200 192
55 200 192
56 199 192
56 199 192
57 198 192
58 197 192
58 197 192
59 196 192
60 195 192
60 195 192
61 194 192
62 193 192
62 193 192
63 192 192
63 191 192
64 191 192
65 190 192
65 190 192
66 189 192
67 188 192
67 188 192
68 187 192
69 186 192
69 186 192
70 185 192
71 184 192
71 184 192
72 183 192
72 183 192
73 182 192
74 181 192
74 181 192
75 180 192
76 179 192
76 179 192
77 178 192
78 177 192
78 177 192
79 176 192
79 175 192
80 175 192
81 174 192
81 174 192
82 173 192
83 172 192
83 172 192
84 171 192
85 170 192
85 170 192
86 169 192
87 168 192
87 168 192
88 167 192
88 167 192
89 166 192
90 165 192
90 165 192
91 164 192
92 163 192
92 163 192
93 162 192
94 161 192
94 161 192
95 160 192
95 159 192
96 159 192
97 158 192
97 158 192
98 157 192
99 156 192
99 156 192
100 155 192
101 154 192
101 154 192
102 153 192
103 152 192
103 152 192
104 151 192
104 151 192
105 150 192
106 149 192
106 149 192
107 148 192
108 147 192
108 147 192
109 146 192
110 145 192
110 145 192
111 144 192
111 143 192
112 143 192
113 142 192
113 142 192
114 141 192
115 140 192
115 140 192
116 139 192
117 138 192
117 138 192
118 137 192
119 136 192
119 136 192
120 135 192
120 135 192
121 134 192
122 133 192
122 133 192
123 132 192
124 131 192
124 131 192
125 130 192
126 129 192
126 129 192
127 128 192
127 127 192
128 127 192
129 126 192
129 126 192
130 125 192
131 124 192
131 124 192
132 123 192
133 122 192
133 122 192
134 121 192
135 120 192
135 120 192
136 119 192
136 119 192
137 118 192
138 117 192
138 117 192
139 116 192
140 115 192
140 115 192
141 114 192
142 113 192
142 113 192
143 112 192
143 111 192
144 111 192
145 110 192
145 110 192
146 109 192
147 108 192
147 108 192
148 107 192
149 106 192
149 106 192
150 105 192
151 104 192
151 104 192
152 103 192
152 103 192
153 102 192
154 101 192
154 101 192
155 100 192
156 99 192
156 99 192
157 98 192
158 97 192
158 97 192
159 96 192
159 95 192
160 95 192
161 94 192
161 94 192
162 93 192
163 92 192
163 92 192
164 91 192
165 90 192
165 90 192
166 89 192
167 88 192
167 88 192
168 87 192
168 87 192
169 86 192
170 85 192
170 85 192
171 84 192
172 83 192
172 83 192
173 82 192
174 81 192
174 81 192
175 80 192
175 79 192
176 79 192
177 78 192
177 78 192
178 77 192
179 76 192
179 76 192
180 75 192
181 74 192
181 74 192
182 73 192
183 72 192
183 72 192
184 71 192
184 71 192
185 70 192
186 69 192
186 69 192
187 68 192
188 67 192
188 67 192
189 66 192
190 65 192
190 65 192
191 64 192
191 63 192
192 63 192
193 62 192
193 62 192
194 61 192
195 60 192
195 60 192
196 59 192
197 58 192
197 58 192
198 57 192
199 56 192
199 56 192
200 55 192
200 55 192
201 54 192
202 53 192
202 53 192
203 52 192
204 51 192
204 51 192
205 50 192
206 49 192
206 49 192
207 48 192
207 47 192
208 47 192
209 46 192
209 46 192
210 45 192
211 44 192
211 44 192
212 43 192
213 42 192
213 42 192
214 41 192
215 40 192
215 40 192
216 39 192
216 39 192
217 38 192
218 37 192
218 37 192
219 36 192
220 35 192
220 35 192
221 34 192
222 33 192
222 33 192
223 32 192
223 31 192
224 31 192
225 30 192
225 30 192
226 29 192
227 28 192
227 28 192
228 27 192
229 26 192
229 26 192
230 25 192
231 24 192
231 24 192
232 23 192
232 23 192
233 22 192
234 21 192
234 21 192
235 20 192
236 19 192
236 19 192
237 18 192
238 17 192
238 17 192
239 16 192
239 15 192
240 15 192
241 14 192
241 14 192
242 13 192
243 12 192
243 12 192
244 11 192
245 10 192
245 10 192
246 9 192
247 8 192
247 8 192
248 7 192
248 7 192
249 6 192
250 5 192
250 5 192
251 4 192
252 3 192
252 3 192
253 2 192
254 1 192
254 1 192
255 0 192
0 255 193
0 255 193
1 254 193
1 254 193
2 253 193
3 252 193
3 252 193
4 251 193
5 250 193
5 250 193
6 249 193
7 248 193
7 248 193
8 247 193
8 247 193
9 246 193
10 245 193
10 245 193
11 244 193
12 243 193
12 243 193
13 242 193
14 241 193
14 241 193
15 240 193
15 239 193
16 239 193
17 238 193
17 238 193
18 237 193
19 236 193
19 236 193
20 235 193
21 234 193
21 234 193
22 233 193
23 232 193
23 232 193
24 231 193
24 231 193
25 230 193
26 229 193
26 229 193
27 228 193
28 227 193
28 227 193
29 226 193
30 225 193
30 225 193
31 224 193
31 223 193
32 223 193
33 222 193
33 222 193
34 221 193
35 220 193
35 220 193
36 219 193
37 218 193
37 218 193
38 217 193
39 216 193
39 216 193
40 215 193
40 215 193
41 214 193
42 213 193
42 213 193
43 212 193
44 211 193
44 211 193
45 210 193
46 209 193
46 209 193
47 208 193
47 207 193
48 207 193
49 206 193
49 206 193
50 205 193
51 204 193
51 204 193
52 203 193
53 202 193
53 202 193
54 201 193
55 200 193
55 200 193
56 199 193
56 199 193
57 198 193
58 197 193
58 197 193
59 196 193
60 195 193
60 195 193
61 194 193
62 193 193
62 193 193
63 192 193
63 191 193
64 191 193
65 190 193
65 190 193
66 189 193
67 188 193
67 188 193
68 187 193
69 186 193
69 186 193
70 185 193
71 184 193
71 184 193
72 183 193
72 183 193
73 182 193
74 181 193
74 181 193
75 180 193
76 179 193
76 179 193
77 178 193
78 177 193
78 177 193
79 176 193
79 175 193
80 175 193
81 174 193
81 174 193
82 173 193
83 172 193
83 172 193
84 171 193
85 170 193
85 170 193
86 169 193
87 168 193
87 168 193
88 167 193
88 167 193
89 166 193
90 165 193
90 165 193
91 164 193
92 163 193
92 163 193
93 162 193
94 161 193
94 161 193
95 160 193
95 159 193
96 159 193
97 158 193
97 158 193
98 157 193
99 156 193
99 156 193
100 155 193
101 154 193
101 154 193
102 153 193
103 152 193
103 152 193
104 151 193
104 151 193
105 150 193
106 149 193
106 149 193
107 148 193
108 147 193
108 147 193
109 146 193
110 145 193
110 145 193
111 144 193
111 143 193
112 143 193
113 142 193
113 142 193
114 141 193
115 140 193
115 140 193
116 139 193
117 138 193
117 138 193
118 137 193
119 136 193
119 136 193
120 135 193
120 135 193
121 134 193
122 133 193
122 133 193
123 132 193
124 131 193
124 131 193
125 130 193
126 129 193
126 129 193
127 128 193
127 127 193
128 127 193
129 126 193
129 126 193
130 125 193
131 124 193
131 124 193
132 123 193
133 122 193
133 122 193
134 121 193
135 120 193
135 120 193
136 119 193
136 119 193
137 118 193
138 117 193
138 117 193
139 116 193
140 115 193
140 115 193
141 114 193
142 113 193
142 113 193
143 112 193
143 111 193
144 111 193
145 110 193
145 110 193
146 109 193
147 108 193
147 108 193
148 107 193
149 106 193
149 106 193
150 105 193
151 104 193
151 104 193
152 103 193
152 103 193
153 102 193
154 101 193
154 101 193
155 100 193
156 99 193
156 99 193
157 98 193
158 97 193
158 97 193
159 96 193
159 95 193
160 95 193
161 94 193
161 94 193
162 93 193
163 92 193
163 92 193
164 91 193
165 90 193
165 90 193
166 89 193
167 88 193
167 88 193
168 87 193
168 87 193
169 86 193
170 85 193
170 85 193
171 84 193
172 83 193
172 83 193
173 82 193
174 81 193
174 81 193
175 80 193
175 79 193
176 79 193
177 78 193
177 78 193
178 77 193
179 76 193
179 76 193
180 75 193
181 74 193
181 74 193
182 73 193
183 72 193
183 72 193
184 71 193
184 71 193
185 70 193
186 69 193
186 69 193
187 68 193
188 67 193
188 67 193
189 66 193
190 65 193
190 65 193
191 64 193
191 63 193
192 63 193
193 62 193
193 62 193
194 61 193
195 60 193
195 60 193
196 59 193
197 58 193
197 58 193
198 57 193
199 56 193
199 56 193
200 55 193
200 55 193
201 54 193
202 53 193
202 53 193
203 52 193
204 51 193
204 51 193
205 50 193
206 49 193
206 49 193
207 48 193
207 47 193
208 47 193
209 46 193
209 46 193
210 45 193
211 44 193
211 44 193
212 43 193
213 42 193
213 42 193
214 41 193
215 40 193
215 40 193
216 39 193
216 39 193
217 38 193
218 37 193
218 37 193
219 36 193
220 35 193
220 35 193
221 34 193
222 33 193
222 33 193
223 32 193
223 31 193
224 31 193
225 30 193
225 30 193
226 29 193
227 28 193
227 28 193
228 27 193
229 26 193
229 26 193
230 25 193
231 24 193
231 24 193
232 23 193
232 23 193
233 22 193
234 21 193
234 21 193
235 20 193
236 19 193
236 19 193
237 18 193
238 17 193
238 17 193
239 16 193
239 15 193
240 15 193
241 14 193
241 14 193
242 13 193
243 12 193
243 12 193
244 11 193
245 10 193
245 10 193
246 9 193
247 8 193
247 8 193
248 7 193
248 7 193
249 6 193
250 5 193
250 5 193
251 4 193
252 3 193
252 3 193
253 2 193
254 1 193
254 1 193
255 0 193
0 255 194
0 255 194
1 254 194
1 254 194
2 253 194
3 252 194
3 252 194
4 251 194
5 250 194
5 250 194
6 249 194
7 248 194
7 248 194
8 247 194
8 247 194
9 246 194
10 245 194
10 245 194
11 244 194
12 243 194
12 243 194
13 242 194
14 241 194
14 241 194
15 240 194
15 239 194
16 239 194
17 238 194
17 238 194
18 237 194
19 236 194
19 236 194
20 235 194
21 234 194
21 234 194
22 233 194
23 232 194
23 232 194
24 231 194
24 231 194
25 230 194
26 229 194
26 229 194
27 228 194
28 227 194
28 227 194
29 226 194
30 225 194
30 225 194
31 224 194
31 223 194
32 223 194
33 222 194
33 222 194
34 221 194
35 220 194
35 220 194
36 219 194
37 218 194
37 218 194
38 217 194
39 216 194
39 216 194
40 215 194
40 215 194
41 214 194
42 213 194
42 213 194
43 212 194
44 211 194
44 211 194
45 210 194
46 209 194
46 209 194
47 208 194
47 207 194
48 207 194
49 206 194
49 206 194
50 205 194
51 204 194
51 204 194
52 203 194
53 202 194
53 202 194
54 201 194
55 200 194
55 200 194
56 199 194
56 199 194
57 198 194
58 197 194
58 197 194
59 196 194
60 195 194
60 195 194
61 194 194
62 193 194
62 193 194
63 192 194
63 191 194
64 191 194
65 190 194
65 190 194
66 189 194
67 188 194
67 188 194
68 187 194
69 186 194
69 186 194
70 185 194
71 184 194
71 184 194
72 183 194
72 183 194
73 182 194
74 181 194
74 181 194
75 180 194
76 179 194
76 179 194
77 178 194
78 177 194
78 177 194
79 176 194
79 175 194
80 175 194
81 174 194
81 174 194
82 173 194
83 172 194
83 172 194
84 171 194
85 170 194
85 170 194
86 169 194
87 168 194
87 168 194
88 167 194
88 167 194
89 166 194
90 165 194
90 165 194
91 164 194
92 163 194
92 163 194
93 162 194
94 161 194
94 161 194
95 160 194
95 159 194
96 159 194
97 158 194
97 158 194
98 157 194
99 156 194
99 156 194
100 155 194
101 154 194
101 154 194
102 153 194
103 152 194
103 152 194
104 151 194
104 151 194
105 150 194
106 149 194
106 149 194
107 148 194
108 147 194
108 147 194
109 146 194
110 145 194
110 145 194
111 144 194
111 143 194
112 143 194
113 142 194
113 142 194
114 141 194
115 140 194
115 140 194
116 139 194
117 138 194
117 138 194
118 137 194
119 136 194
119 136 194
120 135 194
120 135 194
121 134 194
122 133 194
122 133 194
123 132 194
124 131 194
124 131 194
125 130 194
126 129 194
126 129 194
127 128 194
127 127 194
128 127 194
129 126 194
129 126 194
130 125 194
131 124 194
131 124 194
132 123 194
133 122 194
133 122 194
134 121 194
135 120 194
135 120 194
136 119 194
136 119 194
137 118 194
138 117 194
138 117 194
139 116 194
140 115 194
140 115 194
141 114 194
142 113 194
142 113 194
143 112 194
143 111 194
144 111 194
145 110 194
145 110 194
146 109 194
147 108 194
147 108 194
148 107 194
149 106 194
149 106 194
150 105 194
151 104 194
151 104 194
152 103 194
152 103 194
153 102 194
154 101 194
154 101 194
155 100 194
156 99 194
156 99 194
157 98 194
158 97 194
158 97 194
159 96 194
159 95 194
160 95 194
161 94 194
161 94 194
162 93 194
163 92 194
163 92 194
164 91 194
165 90 194
165 90 194
166 89 194
167 88 194
167 88 194
168 87 194
168 87 194
169 86 194
170 85 194
170 85 194
171 84 194
172 83 194
172 83 194
173 82 194
174 81 194
174 81 194
175 80 194
175 79 194
176 79 194
177 78 194
177 78 194
178 77 194
179 76 194
179 76 194
180 75 194
181 74 194
181 74 194
182 73 194
183 72 194
183 72 194
184 71 194
184 71 194
185 70 194
186 69 194
186 69 194
187 68 194
188 67 194
188 67 194
189 66 194
190 65 194
190 65 194
191 64 194
191 63 194
192 63 194
193 62 194
193 62 194
194 61 194
195 60 194
195 60 194
196 59 194
197 58 194
197 58 194
198 57 194
199 56 194
199 56 194
200 55 194
200 55 194
201 54 194
202 53 194
202 53 194
203 52 194
204 51 194
204 51 194
205 50 194
206 49 194
206 49 194
207 48 194
207 47 194
208 47 194
209 46 194
209 46 194
210 45 194
211 44 194
211 44 194
212 43 194
213 42 194
213 42 194
214 41 194
215 40 194
215 40 194
216 39 194
216 39 194
217 38 194
218 37 194
218 37 194
219 36 194
220 35 194
220 35 194
221 34 194
222 33 194
222 33 194
223 32 194
223 31 194
224 31 194
225 30 194
225 30 194
226 29 194
227 28 194
227 28 194
228 27 194
229 26 194
229 26 194
230 25 194
231 24 194
231 24 194
232 23 194
232 23 194
233 22 194
234 21 194
234 21 194
235 20 194
236 19 194
236 19 194
237 18 194
238 17 194
238 17 194
239 16 194
239 15 194
240 15 194
241 14 194
241 14 194
242 13 194
243 12 194
243 12 194
244 11 194
245 10 194
245 10 194
246 9 194
247 8 194
247 8 194
248 7 194
248 7 194
249 6 194
250 5 194
250 5 194
251 4 194
252 3 194
252 3 194
253 2 194
254 1 194
254 1 194
255 0 194
0 255 195
0 255 195
1 254 195
1 254 195
2 253 195
3 252 195
3 252 195
4 251 195
5 250 195
5 250 195
6 249 195
7 248 195
7 248 195
8 247 195
8 247 195
9 246 195
10 245 195
10 245 195
11 244 195
12 243 195
12 243 195
13 242 195
14 241 195
14 241 195
15 240 195
15 239 195
16 239 195
17 238 195
17 238 195
18 237 195
19 236 195
19 236 195
20 235 195
21 234 195
21 234 195
22 233 195
23 232 195
23 232 195
24 231 195
24 231 195
25 230 195
26 229 195
26 229 195
27 228 195
28 227 195
28 227 195
29 226 195
30 225 195
30 225 195
31 224 195
31 223 195
32 223 195
33 222 195
33 222 195
34 221 195
35 220 195
35 220 195
36 219 195
37 218 195
37 218 195
38 217 195
39 216 195
39 216 195
40 215 195
40 215 195
41 214 195
42 213 195
42 213 195
43 212 195
44 211 195
44 211 195
45 210 195
46 209 195
46 209 195
47 208 195
47 207 195
48 207 195
49 206 195
49 206 195
50 205 195
51 204 195
51 204 195
52 203 195
53 202 195
53 202 195
54 201 195
55 200 195
55 200 195
56 199 195
56 199 195
57 198 195
58 197 195
58 197 195
59 196 195
60 195 195
60 195 195
61 194 195
62 193 195
62 193 195
63 192 195
63 191 195
64 191 195
65 190 195
65 190 195
66 189 195
67 188 195
67 188 195
68 187 195
69 186 195
69 186 195
70 185 195
71 184 195
71 184 195
72 183 195
72 183 195
73 182 195
74 181 195
74 181 195
75 180 195
76 179 195
76 179 195
77 178 195
78 177 195
78 177 195
79 176 195
79 175 195
80 175 195
81 174 195
81 174 195
82 173 195
83 172 195
83 172 195
84 171 195
85 170 195
85 170 195
86 169 195
87 168 195
87 168 195
88 167 195
88 167 195
89 166 195
90 165 195
90 165 195
91 164 195
92 163 195
92 163 195
93 162 195
94 161 195
94 161 195
95 160 195
95 159 195
96 159 195
97 158 195
97 158 195
98 157 195
99 156 195
99 156 195
100 155 195
101 154 195
101 154 195
102 153 195
103 152 195
103 152 195
104 151 195
104 151 195
105 150 195
106 149 195
106 149 195
107 148 195
108 147 195
108 147 195
109 146 195
110 145 195
110 145 195
111 144 195
111 143 195
112 143 195
113 142 195
113 142 195
114 141 195
115 140 195
115 140 195
116 139 195
117 138 195
117 138 195
118 137 195
119 136 195
119 136 195
120 135 195
120 135 195
121 134 195
122 133 195
122 133 195
123 132 195
124 131 195
124 131 195
125 130 195
126 129 195
126 129 195
127 128 195
127 127 195
128 127 195
129 126 195
129 126 195
130 125 195
131 124 195
131 124 195
132 123 195
133 122 195
133 122 195
134 121 195
135 120 195
135 120 195
136 119 195
136 119 195
137 118 195
138 117 195
138 117 195
139 116 195
140 115 195
140 115 195
141 114 195
142 113 195
142 113 195
143 112 195
143 111 195
144 111 195
145 110 195
145 110 195
146 109 195
147 108 195
147 108 195
148 107 195
149 106 195
149 106 195
150 105 195
151 104 195
151 104 195
152 103 195
152 103 195
153 102 195
154 101 195
154 101 195
155 100 195
156 99 195
156 99 195
157 98 195
158 97 195
158 97 195
159 96 195
159 95 195
160 95 195
161 94 195
161 94 195
162 93 195
163 92 195
163 92 195
164 91 195
165 90 195
165 90 195
166 89 195
167 88 195
167 88 195
168 87 195
168 87 195
169 86 195
170 85 195
170 85 195
171 84 195
172 83 195
172 83 195
173 82 195
174 81 195
174 81 195
175 80 195
175 79 195
176 79 195
177 78 195
177 78 195
178 77 195
179 76 195
179 76 195
180 75 195
181 74 195
181 74 195
182 73 195
183 72 195
183 72 195
184 71 195
184 71 195
185 70 195
186 69 195
186 69 195
187 68 195
188 67 195
188 67 195
189 66 195
190 65 195
190 65 195
191 64 195
191 63 195
192 63 195
193 62 195
193 62 195
194 61 195
195 60 195
195 60 195
196 59 195
197 58 195
197 58 195
198 57 195
199 56 195
199 56 195
200 55 195
200 55 195
201 54 195
202 53 195
202 53 195
203 52 195
204 51 195
204 51 195
205 50 195
206 49 195
206 49 195
207 48 195
207 47 195
208 47 195
209 46 195
209 46 195
210 45 195
211 44 195
211 44 195
212 43 195
213 42 195
213 42 195
214 41 195
215 40 195
215 40 195
216 39 195
216 39 195
217 38 195
218 37 195
218 37 195
219 36 195
220 35 195
220 35 195
221 34 195
222 33 195
222 33 195
223 32 195
223 31 195
224 31 195
225 30 195
225 30 195
226 29 195
227 28 195
227 28 195
228 27 195
229 26 195
229 26 195
230 25 195
231 24 195
231 24 195
232 23 195
232 23 195
233 22 195
234 21 195
234 21 195
235 20 195
236 19 195
236 19 195
237 18 195
238 17 195
238 17 195
239 16 195
239 15 195
240 15 195
241 14 195
241 14 195
242 13 195
243 12 195
243 12 195
244 11 195
245 10 195
245 10 195
246 9 195
247 8 195
247 8 195
248 7 195
248 7 195
249 6 195
250 5 195
250 5 195
251 4 195
252 3 195
252 3 195
253 2 195
254 1 195
254 1 195
255 0 195
0 255 196
0 255 196
1 254 196
1 254 196
2 253 196
3 252 196
3 252 196
4 251 196
5 250 196
5 250 196
6 249 196
7 248 196
7 248 196
8 247 196
8 247 196
9 246 196
10 245 196
10 245 196
11 244 196
12 243 196
12 243 196
13 242 196
14 241 196
14 241 196
15 240 196
15 239 196
16 239 196
17 238 196
17 238 196
18 237 196
19 236 196
19 236 196
20 235 196
21 234 196
21 234 196
22 233 196
23 232 196
23 232 196
24 231 196
24 231 196
25 230 196
26 229 196
26 229 196
27 228 196
28 227 196
28 227 196
29 226 196
30 225 196
30 225 196
31 224 196
31 223 196
32 223 196
33 222 196
33 222 196
34 221 196
35 220 196
35 220 196
36 219 196
37 218 196
37 218 196
38 217 196
39 216 196
39 216 196
40 215 196
40 215 196
41 214 196
42 213 196
42 213 196
43 212 196
44 211 196
44 211 196
45 210 196
46 209 196
46 209 196
47 208 196
47 207 196
48 207 196
49 206 196
49 206 196
50 205 196
51 204 196
51 204 196
52 203 196
53 202 196
53 202 196
54 201 196
55 200 196
55 200 196
56 199 196
56 199 196
57 198 196
58 197 196
58 197 196
59 196 196
60 195 196
60 195 196
61 194 196
62 193 196
62 193 196
63 192 196
63 191 196
64 191 196
65 190 196
65 190 196
66 189 196
67 188 196
67 188 196
68 187 196
69 186 196
69 186 196
70 185 196
71 184 196
71 184 196
72 183 196
72 183 196
73 182 196
74 181 196
74 181 196
75 180 196
76 179 196
76 179 196
77 178 196
78 177 196
78 177 196
79 176 196
79 175 196
80 175 196
81 174 196
81 174 196
82 173 196
83 172 196
83 172 196
84 171 196
85 170 196
85 170 196
86 169 196
87 168 196
87 168 196
88 167 196
88 167 196
89 166 196
90 165 196
90 165 196
91 164 196
92 163 196
92 163 196
93 162 196
94 161 196
94 161 196
95 160 196
95 159 196
96 159 196
97 158 196
97 158 196
98 157 196
99 156 196
99 156 196
100 155 196
101 154 196
101 154 196
102 153 196
103 152 196
103 152 196
104 151 196
104 151 196
105 150 196
106 149 196
106 149 196
107 148 196
108 147 196
108 147 196
109 146 196
110 145 196
110 145 196
111 144 196
111 143 196
112 143 196
113 142 196
113 142 196
114 141 196
115 140 196
115 140 196
116 139 196
117 138 196
117 138 196
118 137 196
119 136 196
119 136 196
120 135 196
120 135 196
121 134 196
122 133 196
122 133 196
123 132 196
124 131 196
124 131 196
125 130 196
126 129 196
126 129 196
127 128 196
127 127 196
128 127 196
129 126 196
129 126 196
130 125 196
131 124 196
131 124 196
132 123 196
133 122 196
133 122 196
134 121 196
135 120 196
135 120 196
136 119 196
136 119 196
137 118 196
138 117 196
138 117 196
139 116 196
140 115 196
140 115 196
141 114 196
142 113 196
142 113 196
143 112 196
143 111 196
144 111 196
145 110 196
145 110 196
146 109 196
147 108 196
147 108 196
148 107 196
149 106 196
149 106 196
150 105 196
151 104 196
151 104 196
152 103 196
152 103 196
153 102 196
154 101 196
154 101 196
155 100 196
156 99 196
156 99 196
157 98 196
158 97 196
158 97 196
159 96 196
159 95 196
160 95 196
161 94 196
161 94 196
162 93 196
163 92 196
163 92 196
164 91 196
165 90 196
165 90 196
166 89 196
167 88 196
167 88 196
168 87 196
168 87 196
169 86 196
170 85 196
170 85 196
171 84 196
172 83 196
172 83 196
173 82 196
174 81 196
174 81 196
175 80 196
175 79 196
176 79 196
177 78 196
177 78 196
178 77 196
179 76 196
179 76 196
180 75 196
181 74 196
181 74 196
182 73 196
183 72 196
183 72 196
184 71 196
184 71 196
185 70 196
186 69 196
186 69 196
187 68 196
188 67 196
188 67 196
189 66 196
190 65 196
190 65 196
191 64 196
191 63 196
192 63 196
193 62 196
193 62 196
194 61 196
195 60 196
195 60 196
196 59 196
197 58 196
197 58 196
198 57 196
199 56 196
199 56 196
200 55 196
200 55 196
201 54 196
202 53 196
202 53 196
203 52 196
204 51 196
204 51 196
205 50 196
206 49 196
206 49 196
207 48 196
207 47 196
208 47 196
209 46 196
209 46 196
210 45 196
211 44 196
211 44 196
212 43 196
213 42 196
213 42 196
214 41 196
215 40 196
215 40 196
216 39 196
216 39 196
217 38 196
218 37 196
218 37 196
219 36 196
220 35 196
220 35 196
221 34 196
222 33 196
222 33 196
223 32 196
223 31 196
224 31 196
225 30 196
225 30 196
226 29 196
227 28 196
227 28 196
228 27 196
229 26 196
229 26 196
230 25 196
231 24 196
231 24 196
232 23 196
232 23 196
233 22 196
234 21 196
234 21 196
235 20 196
236 19 196
236 19 196
237 18 196
238 17 196
238 17 196
239 16 196
239 15 196
240 15 196
241 14 196
241 14 196
242 13 196
243 12 196
243 12 196
244 11 196
245 10 196
245 10 196
246 9 196
247 8 196
247 8 196
248 7 196
248 7 196
249 6 196
250 5 196
250 5 196
251 4 196
252 3 196
252 3 196
253 2 196
254 1 196
254 1 196
255 0 196
0 255 197
0 255 197
1 254 197
1 254 197
2 253 197
3 252 197
3 252 197
4 251 197
5 250 197
5 250 197
6 249 197
7 248 197
7 248 197
8 247 197
8 247 197
9 246 197
10 245 197
10 245 197
11 244 197
12 243 197
12 243 197
13 242 197
14 241 197
14 241 197
15 240 197
15 239 197
16 239 197
17 238 197
17 238 197
18 237 197
19 236 197
19 236 197
20 235 197
21 234 197
21 234 197
22 233 197
23 232 197
23 232 197
24 231 197
24 231 197
25 230 197
26 229 197
26 229 197
27 228 197
28 227 197
28 227 197
29 226 197
30 225 197
30 225 197
31 224 197
31 223 197
32 223 197
33 222 197
33 222 197
34 221 197
35 220 197
35 220 197
36 219 197
37 218 197
37 218 197
38 217 197
39 216 197
39 216 197
40 215 197
40 215 197
41 214 197
42 213 197
42 213 197
43 212 197
44 211 197
44 211 197
45 210 197
46 209 197
46 209 197
47 208 197
47 207 197
48 207 197
49 206 197
49 206 197
50 205 197
51 204 197
51 204 197
52 203 197
53 202 197
53 202 197
54 201 197
55 200 197
55 200 197
56 199 197
56 199 197
57 198 197
58 197 197
58 197 197
59 196 197
60 195 197
60 195 197
61 194 197
62 193 197
62 193 197
63 192 197
63 191 197
64 191 197
65 190 197
65 190 197
66 189 197
67 188 197
67 188 197
68 187 197
69 186 197
69 186 197
70 185 197
71 184 197
71 184 197
72 183 197
72 183 197
73 182 197
74 181 197
74 181 197
75 180 197
76 179 197
76 179 197
77 178 197
78 177 197
78 177 197
79 176 197
79 175 197
80 175 197
81 174 197
81 174 197
82 173 197
83 172 197
83 172 197
84 171 197
85 170 197
85 170 197
86 169 197
87 168 197
87 168 197
88 167 197
88 167 197
89 166 197
90 165 197
90 165 197
91 164 197
92 163 197
92 163 197
93 162 197
94 161 197
94 161 197
95 160 197
95 159 197
96 159 197
97 158 197
97 158 197
98 157 197
99 156 197
99 156 197
100 155 197
101 154 197
101 154 197
102 153 197
103 152 197
103 152 197
104 151 197
104 151 197
105 150 197
106 149 197
106 149 197
107 148 197
108 147 197
108 147 197
109 146 197
110 145 197
110 145 197
111 144 197
111 143 197
112 143 197
113 142 197
113 142 197
114 141 197
115 140 197
115 140 197
116 139 197
117 138 197
117 138 197
118 137 197
119 136 197
119 136 197
120 135 197
120 135 197
121 134 197
122 133 197
122 133 197
123 132 197
124 131 197
124 131 197
125 130 197
126 129 197
126 129 197
127 128 197
127 127 197
128 127 197
129 126 197
129 126 197
130 125 197
131 124 197
131 124 197
132 123 197
133 122 197
133 122 197
134 121 197
135 120 197
135 120 197
136 119 197
136 119 197
137 118 197
138 117 197
138 117 197
139 116 197
140 115 197
140 115 197
141 114 197
142 113 197
142 113 197
143 112 197
143 111 197
144 111 197
145 110 197
145 110 197
146 109 197
147 108 197
147 108 197
148 107 197
149 106 197
149 106 197
150 105 197
151 104 197
151 104 197
152 103 197
152 103 197
153 102 197
154 101 197
154 101 197
155 100 197
156 99 197
156 99 197
157 98 197
158 97 197
158 97 197
159 96 197
159 95 197
160 95 197
161 94 197
161 94 197
162 93 197
163 92 197
163 92 197
164 91 197
165 90 197
165 90 197
166 89 197
167 88 197
167 88 197
168 87 197
168 87 197
169 86 197
170 85 197
170 85 197
171 84 197
172 83 197
172 83 197
173 82 197
174 81 197
174 81 197
175 80 197
175 79 197
176 79 197
177 78 197
177 78 197
178 77 197
179 76 197
179 76 197
180 75 197
181 74 197
181 74 197
182 73 197
183 72 197
183 72 197
184 71 197
184 71 197
185 70 197
186 69 197
186 69 197
187 68 197
188 67 197
188 67 197
189 66 197
190 65 197
190 65 197
191 64 197
191 63 197
192 63 197
193 62 197
193 62 197
194 61 197
195 60 197
195 60 197
196 59 197
197 58 197
197 58 197
198 57 197
199 56 197
199 56 197
200 55 197
200 55 197
201 54 197
202 53 197
202 53 197
203 52 197
204 51 197
204 51 197
205 50 197
206 49 197
206 49 197
207 48 197
207 47 197
208 47 197
209 46 197
209 46 197
210 45 197
211 44 197
211 44 197
212 43 197
213 42 197
213 42 197
214 41 197
215 40 197
215 40 197
216 39 197
216 39 197
217 38 197
218 37 197
218 37 197
219 36 197
220 35 197
220 35 197
221 34 197
222 33 197
222 33 197
223 32 197
223 31 197
224 31 197
225 30 197
225 30 197
226 29 197
227 28 197
227 28 197
228 27 197
229 26 197
229 26 197
230 25 197
231 24 197
231 24 197
232 23 197
232 23 197
233 22 197
234 21 197
234 21 197
235 20 197
236 19 197
236 19 197
237 18 197
238 17 197
238 17 197
239 16 197
239 15 197
240 15 197
241 14 197
241 14 197
242 13 197
243 12 197
243 12 197
244 11 197
245 10 197
245 10 197
246 9 197
247 8 197
247 8 197
248 7 197
248 7 197
249 6 197
250 5 197
250 5 197
251 4 197
252 3 197
252 3 197
253 2 197
254 1 197
254 1 197
255 0 197
0 255 199
0 255 199
1 254 199
1 254 199
2 253 199
3 252 199
3 252 199
4 251 199
5 250 199
5 250 199
6 249 199
7 248 199
7 248 199
8 247 199
8 247 199
9 246 199
10 245 199
10 245 199
11 244 199
12 243 199
12 243 199
13 242 199
14 241 199
14 241 199
15 240 199
15 239 199
16 239 199
17 238 199
17 238 199
18 237 199
19 236 199
19 236 199
20 235 199
21 234 199
21 234 199
22 233 199
23 232 199
23 232 199
24 231 199
24 231 199
25 230 199
26 229 199
26 229 199
27 228 199
28 227 199
28 227 199
29 226 199
30 225 199
30 225 199
31 224 199
31 223 199
32 223 199
33 222 199
33 222 199
34 221 199
35 220 199
35 220 199
36 219 199
37 218 199
37 218 199
38 217 199
39 216 199
39 216 199
40 215 199
40 215 199
41 214 199
42 213 199
42 213 199
43 212 199
44 211 199
44 211 199
45 210 199
46 209 199
46 209 199
47 208 199
47 207 199
48 207 199
49 206 199
49 206 199
50 205 199
51 204 199
51 204 199
52 203 199
53 202 199
53 202 199
54 201 199
55 200 199
55 200 199
56 199 199
56 199 199
57 198 199
58 197 199
58 197 199
59 196 199
60 195 199
60 195 199
61 194 199
62 193 199
62 193 199
63 192 199
63 191 199
64 191 199
65 190 199
65 190 199
66 189 199
67 188 199
67 188 199
68 187 199
69 186 199
69 186 199
70 185 199
71 184 199
71 184 199
72 183 199
72 183 199
73 182 199
74 181 199
74 181 199
75 180 199
76 179 199
76 179 199
77 178 199
78 177 199
78 177 199
79 176 199
79 175 199
80 175 199
81 174 199
81 174 199
82 173 199
83 172 199
83 172 199
84 171 199
85 170 199
85 170 199
86 169 199
87 168 199
87 168 199
88 167 199
88 167 199
89 166 199
90 165 199
90 165 199
91 164 199
92 163 199
92 163 199
93 162 199
94 161 199
94 161 199
95 160 199
95 159 199
96 159 199
97 158 199
97 158 199
98 157 199
99 156 199
99 156 199
100 155 199
101 154 199
101 154 199
102 153 199
103 152 199
103 152 199
104 151 199
104 151 199
105 150 199
106 149 199
106 149 199
107 148 199
108 147 199
108 147 199
109 146 199
110 145 199
110 145 199
111 144 199
111 143 199
112 143 199
113 142 199
113 142 199
114 141 199
115 140 199
115 140 199
116 139 199
117 138 199
117 138 199
118 137 199
119 136 199
119 136 199
120 135 199
120 135 199
121 134 199
122 133 199
122 133 199
123 132 199
124 131 199
124 131 199
125 130 199
126 129 199
126 129 199
127 128 199
127 127 199
128 127 199
129 126 199
129 126 199
130 125 199
131 124 199
131 124 199
132 123 199
133 122 199
133 122 199
134 121 199
135 120 199
135 120 199
136 119 199
136 119 199
137 118 199
138 117 199
138 117 199
139 116 199
140 115 199
140 115 199
141 114 199
142 113 199
142 113 199
143 112 199
143 111 199
144 111 199
145 110 199
145 110 199
146 109 199
147 108 199
147 108 199
148 107 199
149 106 199
149 106 199
150 105 199
151 104 199
151 104 199
152 103 199
152 103 199
153 102 199
154 101 199
154 101 199
155 100 199
156 99 199
156 99 199
157 98 199
158 97 199
158 97 199
159 96 199
159 95 199
160 95 199
161 94 199
161 94 199
162 93 199
163 92 199
163 92 199
164 91 199
165 90 199
165 90 199
166 89 199
167 88 199
167 88 199
168 87 199
168 87 199
169 86 199
170 85 199
170 85 199
171 84 199
172 83 199
172 83 199
173 82 199
174 81 199
174 81 199
175 80 199
175 79 199
176 79 199
177 78 199
177 78 199
178 77 199
179 76 199
179 76 199
180 75 199
181 74 199
181 74 199
182 73 199
183 72 199
183 72 199
184 71 199
184 71 199
185 70 199
186 69 199
186 69 199
187 68 199
188 67 199
188 67 199
189 66 199
190 65 199
190 65 199
191 64 199
191 63 199
192 63 199
193 62 199
193 62 199
194 61 199
195 60 199
195 60 199
196 59 199
197 58 199
197 58 199
198 57 199
199 56 199
199 56 199
200 55 199
200 55 199
201 54 199
202 53 199
202 53 199
203 52 199
204 51 199
204 51 199
205 50 199
206 49 199
206 49 199
207 48 199
207 47 199
208 47 199
209 46 199
209 46 199
210 45 199
211 44 199
211 44 199
212 43 199
213 42 199
213 42 199
214 41 199
215 40 199
215 40 199
216 39 199
216 39 199
217 38 199
218 37 199
218 37 199
219 36 199
220 35 199
220 35 199
221 34 199
222 33 199
222 33 199
223 32 199
223 31 199
224 31 199
225 30 199
225 30 199
226 29 199
227 28 199
227 28 199
228 27 199
229 26 199
229 26 199
230 25 199
231 24 199
231 24 199
232 23 199
232 23 199
233 22 199
234 21 199
234 21 199
235 20 199
236 19 199
236 19 199
237 18 199
238 17 199
238 17 199
239 16 199
239 15 199
240 15 199
241 14 199
241 14 199
242 13 199
243 12 199
243 12 199
244 11 199
245 10 199
245 10 199
246 9 199
247 8 199
247 8 199
248 7 199
248 7 199
249 6 199
250 5 199
250 5 199
251 4 199
252 3 199
252 3 199
253 2 199
254 1 199
254 1 199
255 0 199
0 255 200
0 255 200
1 254 200
1 254 200
2 253 200
3 252 200
3 252 200
4 251 200
5 250 200
5 250 200
6 249 200
7 248 200
7 248 200
8 247 200
8 247 200
9 246 200
10 245 200
10 245 200
11 244 200
12 243 200
12 243 200
13 242 200
14 241 200
14 241 200
15 240 200
15 239 200
16 239 200
17 238 200
17 238 200
18 237 200
19 236 200
19 236 200
20 235 200
21 234 200
21 234 200
22 233 200
23 232 200
23 232 200
24 231 200
24 231 200
25 230 200
26 229 200
26 229 200
27 228 200
28 227 200
28 227 200
29 226 200
30 225 200
30 225 200
31 224 200
31 223 200
32 223 200
33 222 200
33 222 200
34 221 200
35 220 200
35 220 200
36 219 200
37 218 200
37 218 200
38 217 200
39 216 200
39 216 200
40 215 200
40 215 200
41 214 200
42 213 200
42 213 200
43 212 200
44 211 200
44 211 200
45 210 200
46 209 200
46 209 200
47 208 200
47 207 200
48 207 200
49 206 200
49 206 200
50 205 200
51 204 200
51 204 200
52 203 200
53 202 200
53 202 200
54 201 200
55 200 200
55 200 200
56 199 200
56 199 200
57 198 200
58 197 200
58 197 200
59 196 200
60 195 200
60 195 200
61 194 200
62 193 200
62 193 200
63 192 200
63 191 200
64 191 200
65 190 200
65 190 200
66 189 200
67 188 200
67 188 200
68 187 200
69 186 200
69 186 200
70 185 200
71 184 200
71 184 200
72 183 200
72 183 200
73 182 200
74 181 200
74 181 200
75 180 200
76 179 200
76 179 200
77 178 200
78 177 200
78 177 200
79 176 200
79 175 200
80 175 200
81 174 200
81 174 200
82 173 200
83 172 200
83 172 200
84 171 200
85 170 200
85 170 200
86 169 200
87 168 200
87 168 200
88 167 200
88 167 200
89 166 200
90 165 200
90 165 200
91 164 200
92 163 200
92 163 200
93 162 200
94 161 200
94 161 200
95 160 200
95 159 200
96 159 200
97 158 200
97 158 200
98 157 200
99 156 200
99 156 200
100 155 200
101 154 200
101 154 200
102 153 200
103 152 200
103 152 200
104 151 200
104 151 200
105 150 200
106 149 200
106 149 200
107 148 200
108 147 200
108 147 200
109 146 200
110 145 200
110 145 200
111 144 200
111 143 200
112 143 200
113 142 200
113 142 200
114 141 200
115 140 200
115 140 200
116 139 200
117 138 200
117 138 200
118 137 200
119 136 200
119 136 200
120 135 200
120 135 200
121 134 200
122 133 200
122 133 200
123 132 200
124 131 200
124 131 200
125 130 200
126 129 200
126 129 200
127 128 200
127 127 200
128 127 200
129 126 200
129 126 200
130 125 200
131 124 200
131 124 200
132 123 200
133 122 200
133 122 200
134 121 200
135 120 200
135 120 200
136 119 200
136 119 200
137 118 200
138 117 200
138 117 200
139 116 200
140 115 200
140 115 200
141 114 200
142 113 200
142 113 200
143 112 200
143 111 200
144 111 200
145 110 200
145 110 200
146 109 200
147 108 200
147 108 200
148 107 200
149 106 200
149 106 200
150 105 200
151 104 200
151 104 200
152 103 200
152 103 200
153 102 200
154 101 200
154 101 200
155 100 200
156 99 200
156 99 200
157 98 200
158 97 200
158 97 200
159 96 200
159 95 200
160 95 200
161 94 200
161 94 200
162 93 200
163 92 200
163 92 200
164 91 200
165 90 200
165 90 200
166 89 200
167 88 200
167 88 200
168 87 200
168 87 200
169 86 200
170 85 200
170 85 200
171 84 200
172 83 200
172 83 200
173 82 200
174 81 200
174 81 200
175 80 200
175 79 200
176 79 200
177 78 200
177 78 200
178 77 200
179 76 200
179 76 200
180 75 200
181 74 200
181 74 200
182 73 200
183 72 200
183 72 200
184 71 200
184 71 200
185 70 200
186 69 200
186 69 200
187 68 200
188 67 200
188 67 200
189 66 200
190 65 200
190 65 200
191 64 200
191 63 200
192 63 200
193 62 200
193 62 200
194 61 200
195 60 200
195 60 200
196 59 200
197 58 200
197 58 200
198 57 200
199 56 200
199 56 200
200 55 200
200 55 200
201 54 200
202 53 200
202 53 200
203 52 200
204 51 200
204 51 200
205 50 200
206 49 200
206 49 200
207 48 200
207 47 200
208 47 200
209 46 200
209 46 200
210 45 200
211 44 200
211 44 200
212 43 200
213 42 200
213 42 200
214 41 200
215 40 200
215 40 200
216 39 200
216 39 200
217 38 200
218 37 200
218 37 200
219 36 200
220 35 200
220 35 200
221 34 200
222 33 200
222 33 200
223 32 200
223 31 200
224 31 200
225 30 200
225 30 200
226 29 200
227 28 200
227 28 200
228 27 200
229 26 200
229 26 200
230 25 200
231 24 200
231 24 200
232 23 200
232 23 200
233 22 200
234 21 200
234 21 200
235 20 200
236 19 200
236 19 200
237 18 200
238 17 200
238 17 200
239 16 200
239 15 200
240 15 200
241 14 200
241 14 200
242 13 200
243 12 200
243 12 200
244 11 200
245 10 200
245 10 200
246 9 200
247 8 200
247 8 200
248 7 200
248 7 200
249 6 200
250 5 200
250 5 200
251 4 200
252 3 200
252 3 200
253 2 200
254 1 200
254 1 200
255 0 200
0 255 201
0 255 201
1 254 201
1 254 201
2 253 201
3 252 201
3 252 201
4 251 201
5 250 201
5 250 201
6 249 201
7 248 201
7 248 201
8 247 201
8 247 201
9 246 201
10 245 201
10 245 201
11 244 201
12 243 201
12 243 201
13 242 201
14 241 201
14 241 201
15 240 201
15 239 201
16 239 201
17 238 201
17 238 201
18 237 201
19 236 201
19 236 201
20 235 201
21 234 201
21 234 201
22 233 201
23 232 201
23 232 201
24 231 201
24 231 201
25 230 201
26 229 201
26 229 201
27 228 201
28 227 201
28 227 201
29 226 201
30 225 201
30 225 201
31 224 201
31 223 201
32 223 201
33 222 201
33 222 201
34 221 201
35 220 201
35 220 201
36 219 201
37 218 201
37 218 201
38 217 201
39 216 201
39 216 201
40 215 201
40 215 201
41 214 201
42 213 201
42 213 201
43 212 201
44 211 201
44 211 201
45 210 201
46 209 201
46 209 201
47 208 201
47 207 201
48 207 201
49 206 201
49 206 201
50 205 201
51 204 201
51 204 201
52 203 201
53 202 201
53 202 201
54 201 201
55 200 201
55 200 201
56 199 201
56 199 201
57 198 201
58 197 201
58 197 201
59 196 201
60 195 201
60 195 201
61 194 201
62 193 201
62 193 201
63 192 201
63 191 201
64 191 201
65 190 201
65 190 201
66 189 201
67 188 201
67 188 201
68 187 201
69 186 201
69 186 201
70 185 201
71 184 201
71 184 201
72 183 201
72 183 201
73 182 201
74 181 201
74 181 201
75 180 201
76 179 201
76 179 201
77 178 201
78 177 201
78 177 201
79 176 201
79 175 201
80 175 201
81 174 201
81 174 201
82 173 201
83 172 201
83 172 201
84 171 201
85 170 201
85 170 201
86 169 201
87 168 201
87 168 201
88 167 201
88 167 201
89 166 201
90 165 201
90 165 201
91 164 201
92 163 201
92 163 201
93 162 201
94 161 201
94 161 201
95 160 201
95 159 201
96 159 201
97 158 201
97 158 201
98 157 201
99 156 201
99 156 201
100 155 201
101 154 201
101 154 201
102 153 201
103 152 201
103 152 201
104 151 201
104 151 201
105 150 201
106 149 201
106 149 201
107 148 201
108 147 201
108 147 201
109 146 201
110 145 201
110 145 201
111 144 201
111 143 201
112 143 201
113 142 201
113 142 201
114 141 201
115 140 201
115 140 201
116 139 201
117 138 201
117 138 201
118 137 201
119 136 201
119 136 201
120 135 201
120 135 201
121 134 201
122 133 201
122 133 201
123 132 201
124 131 201
124 131 201
125 130 201
126 129 201
126 129 201
127 128 201
127 127 201
128 127 201
129 126 201
129 126 201
130 125 201
131 124 201
131 124 201
132 123 201
133 122 201
133 122 201
134 121 201
135 120 201
135 120 201
136 119 201
136 119 201
137 118 201
138 117 201
138 117 201
139 116 201
140 115 201
140 115 201
141 114 201
142 113 201
142 113 201
143 112 201
143 111 201
144 111 201
145 110 201
145 110 201
146 109 201
147 108 201
147 108 201
148 107 201
149 106 201
149 106 201
150 105 201
151 104 201
151 104 201
152 103 201
152 103 201
153 102 201
154 101 201
154 101 201
155 100 201
156 99 201
156 99 201
157 98 201
158 97 201
158 97 201
159 96 201
159 95 201
160 95 201
161 94 201
161 94 201
162 93 201
163 92 201
163 92 201
164 91 201
165 90 201
165 90 201
166 89 201
167 88 201
167 88 201
168 87 201
168 87 201
169 86 201
170 85 201
170 85 201
171 84 201
172 83 201
172 83 201
173 82 201
174 81 201
174 81 201
175 80 201
175 79 201
176 79 201
177 78 201
177 78 201
178 77 201
179 76 201
179 76 201
180 75 201
181 74 201
181 74 201
182 73 201
183 72 201
183 72 201
184 71 201
184 71 201
185 70 201
186 69 201
186 69 201
187 68 201
188 67 201
188 67 201
189 66 201
190 65 201
190 65 201
191 64 201
191 63 201
192 63 201
193 62 201
193 62 201
194 61 201
195 60 201
195 60 201
196 59 201
197 58 201
197 58 201
198 57 201
199 56 201
199 56 201
200 55 201
200 55 201
201 54 201
202 53 201
202 53 201
203 52 201
204 51 201
204 51 201
205 50 201
206 49 201
206 49 201
207 48 201
207 47 201
208 47 201
209 46 201
209 46 201
210 45 201
211 44 201
211 44 201
212 43 201
213 42 201
213 42 201
214 41 201
215 40 201
215 40 201
216 39 201
216 39 201
217 38 201
218 37 201
218 37 201
219 36 201
220 35 201
220 35 201
221 34 201
222 33 201
222 33 201
223 32 201
223 31 201
224 31 201
225 30 201
225 30 201
226 29 201
227 28 201
227 28 201
228 27 201
229 26 201
229 26 201
230 25 201
231 24 201
231 24 201
232 23 201
232 23 201
233 22 201
234 21 201
234 21 201
235 20 201
236 19 201
236 19 201
237 18 201
238 17 201
238 17 201
239 16 201
239 15 201
240 15 201
241 14 201
241 14 201
242 13 201
243 12 201
243 12 201
244 11 201
245 10 201
245 10 201
246 9 201
247 8 201
247 8 201
248 7 201
248 7 201
249 6 201
250 5 201
250 5 201
251 4 201
252 3 201
252 3 201
253 2 201
254 1 201
254 1 201
255 0 201
0 255 202
0 255 202
1 254 202
1 254 202
2 253 202
3 252 202
3 252 202
4 251 202
5 250 202
5 250 202
6 249 202
7 248 202
7 248 202
8 247 202
8 247 202
9 246 202
10 245 202
10 245 202
11 244 202
12 243 202
12 243 202
13 242 202
14 241 202
14 241 202
15 240 202
15 239 202
16 239 202
17 238 202
17 238 202
18 237 202
19 236 202
19 236 202
20 235 202
21 234 202
21 234 202
22 233 202
23 232 202
23 232 202
24 231 202
24 231 202
25 230 202
26 229 202
26 229 202
27 228 202
28 227 202
28 227 202
29 226 202
30 225 202
30 225 202
31 224 202
31 223 202
32 223 202
33 222 202
33 222 202
34 221 202
35 220 202
35 220 202
36 219 202
37 218 202
37 218 202
38 217 202
39 216 202
39 216 202
40 215 202
40 215 202
41 214 202
42 213 202
42 213 202
43 212 202
44 211 202
44 211 202
45 210 202
46 209 202
46 209 202
47 208 202
47 207 202
48 207 202
49 206 202
49 206 202
50 205 202
51 204 202
51 204 202
52 203 202
53 202 202
53 202 202
54 201 202
55 200 202
55 200 202
56 199 202
56 199 202
57 198 202
58 197 202
58 197 202
59 196 202
60 195 202
60 195 202
61 194 202
62 193 202
62 193 202
63 192 202
63 191 202
64 191 202
65 190 202
65 190 202
66 189 202
67 188 202
67 188 202
68 187 202
69 186 202
69 186 202
70 185 202
71 184 202
71 184 202
72 183 202
72 183 202
73 182 202
74 181 202
74 181 202
75 180 202
76 179 202
76 179 202
77 178 202
78 177 202
78 177 202
79 176 202
79 175 202
80 175 202
81 174 202
81 174 202
82 173 202
83 172 202
83 172 202
84 171 202
85 170 202
85 170 202
86 169 202
87 168 202
87 168 202
88 167 202
88 167 202
89 166 202
90 165 202
90 165 202
91 164 202
92 163 202
92 163 202
93 162 202
94 161 202
94 161 202
95 160 202
95 159 202
96 159 202
97 158 202
97 158 202
98 157 202
99 156 202
99 156 202
100 155 202
101 154 202
101 154 202
102 153 202
103 152 202
103 152 202
104 151 202
104 151 202
105 150 202
106 149 202
106 149 202
107 148 202
108 147 202
108 147 202
109 146 202
110 145 202
110 145 202
111 144 202
111 143 202
112 143 202
113 142 202
113 142 202
114 141 202
115 140 202
115 140 202
116 139 202
117 138 202
117 138 202
118 137 202
119 136 202
119 136 202
120 135 202
120 135 202
121 134 202
122 133 202
122 133 202
123 132 202
124 131 202
124 131 202
125 130 202
126 129 202
126 129 202
127 128 202
127 127 202
128 127 202
129 126 202
129 126 202
130 125 202
131 124 202
131 124 202
132 123 202
133 122 202
133 122 202
134 121 202
135 120 202
135 120 202
136 119 202
136 119 202
137 118 202
138 117 202
138 117 202
139 116 202
140 115 202
140 115 202
141 114 202
142 113 202
142 113 202
143 112 202
143 111 202
144 111 202
145 110 202
145 110 202
146 109 202
147 108 202
147 108 202
148 107 202
149 106 202
149 106 202
150 105 202
151 104 202
151 104 202
152 103 202
152 103 202
153 102 202
154 101 202
154 101 202
155 100 202
156 99 202
156 99 202
157 98 202
158 97 202
158 97 202
159 96 202
159 95 202
160 95 202
161 94 202
161 94 202
162 93 202
163 92 202
163 92 202
164 91 202
165 90 202
165 90 202
166 89 202
167 88 202
167 88 202
168 87 202
168 87 202
169 86 202
170 85 202
170 85 202
171 84 202
172 83 202
172 83 202
173 82 202
174 81 202
174 81 202
175 80 202
175 79 202
176 79 202
177 78 202
177 78 202
178 77 202
179 76 202
179 76 202
180 75 202
181 74 202
181 74 202
182 73 202
183 72 202
183 72 202
184 71 202
184 71 202
185 70 202
186 69 202
186 69 202
187 68 202
188 67 202
188 67 202
189 66 202
190 65 202
190 65 202
191 64 202
191 63 202
192 63 202
193 62 202
193 62 202
194 61 202
195 60 202
195 60 202
196 59 202
197 58 202
197 58 202
198 57 202
199 56 202
199 56 202
200 55 202
200 55 202
201 54 202
202 53 202
202 53 202
203 52 202
204 51 202
204 51 202
205 50 202
206 49 202
206 49 202
207 48 202
207 47 202
208 47 202
209 46 202
209 46 202
210 45 202
211 44 202
211 44 202
212 43 202
213 42 202
213 42 202
214 41 202
215 40 202
215 40 202
216 39 202
216 39 202
217 38 202
218 37 202
218 37 202
219 36 202
220 35 202
220 35 202
221 34 202
222 33 202
222 33 202
223 32 202
223 31 202
224 31 202
225 30 202
225 30 202
226 29 202
227 28 202
227 28 202
228 27 202
229 26 202
229 26 202
230 25 202
231 24 202
231 24 202
232 23 202
232 23 202
233 22 202
234 21 202
234 21 202
235 20 202
236 19 202
236 19 202
237 18 202
238 17 202
238 17 202
239 16 202
239 15 202
240 15 202
241 14 202
241 14 202
242 13 202
243 12 202
243 12 202
244 11 202
245 10 202
245 10 202
246 9 202
247 8 202
247 8 202
248 7 202
248 7 202
249 6 202
250 5 202
250 5 202
251 4 202
252 3 202
252 3 202
253 2 202
254 1 202
254 1 202
255 0 202
0 255 203
0 255 203
1 254 203
1 254 203
2 253 203
3 252 203
3 252 203
4 251 203
5 250 203
5 250 203
6 249 203
7 248 203
7 248 203
8 247 203
8 247 203
9 246 203
10 245 203
10 245 203
11 244 203
12 243 203
12 243 203
13 242 203
14 241 203
14 241 203
15 240 203
15 239 203
16 239 203
17 238 203
17 238 203
18 237 203
19 236 203
19 236 203
20 235 203
21 234 203
21 234 203
22 233 203
23 232 203
23 232 203
24 231 203
24 231 203
25 230 203
26 229 203
26 229 203
27 228 203
28 227 203
28 227 203
29 226 203
30 225 203
30 225 203
31 224 203
31 223 203
32 223 203
33 222 203
33 222 203
34 221 203
35 220 203
35 220 203
36 219 203
37 218 203
37 218 203
38 217 203
39 216 203
39 216 203
40 215 203
40 215 203
41 214 203
42 213 203
42 213 203
43 212 203
44 211 203
44 211 203
45 210 203
46 209 203
46 209 203
47 208 203
47 207 203
48 207 203
49 206 203
49 206 203
50 205 203
51 204 203
51 204 203
52 203 203
53 202 203
53 202 203
54 201 203
55 200 203
55 200 203
56 199 203
56 199 203
57 198 203
58 197 203
58 197 203
59 196 203
60 195 203
60 195 203
61 194 203
62 193 203
62 193 203
63 192 203
63 191 203
64 191 203
65 190 203
65 190 203
66 189 203
67 188 203
67 188 203
68 187 203
69 186 203
69 186 203
70 185 203
71 184 203
71 184 203
72 183 203
72 183 203
73 182 203
74 181 203
74 181 203
75 180 203
76 179 203
76 179 203
77 178 203
78 177 203
78 177 203
79 176 203
79 175 203
80 175 203
81 174 203
81 174 203
82 173 203
83 172 203
83 172 203
84 171 203
85 170 203
85 170 203
86 169 203
87 168 203
87 168 203
88 167 203
88 167 203
89 166 203
90 165 203
90 165 203
91 164 203
92 163 203
92 163 203
93 162 203
94 161 203
94 161 203
95 160 203
95 159 203
96 159 203
97 158 203
97 158 203
98 157 203
99 156 203
99 156 203
100 155 203
101 154 203
101 154 203
102 153 203
103 152 203
103 152 203
104 151 203
104 151 203
105 150 203
106 149 203
106 149 203
107 148 203
108 147 203
108 147 203
109 146 203
110 145 203
110 145 203
111 144 203
111 143 203
112 143 203
113 142 203
113 142 203
114 141 203
115 140 203
115 140 203
116 139 203
117 138 203
117 138 203
118 137 203
119 136 203
119 136 203
120 135 203
120 135 203
121 134 203
122 133 203
122 133 203
123 132 203
124 131 203
124 131 203
125 130 203
126 129 203
126 129 203
127 128 203
127 127 203
128 127 203
129 126 203
129 126 203
130 125 203
131 124 203
131 124 203
132 123 203
133 122 203
133 122 203
134 121 203
135 120 203
135 120 203
136 119 203
136 119 203
137 118 203
138 117 203
138 117 203
139 116 203
140 115 203
140 115 203
141 114 203
142 113 203
142 113 203
143 112 203
143 111 203
144 111 203
145 110 203
145 110 203
146 109 203
147 108 203
147 108 203
148 107 203
149 106 203
149 106 203
150 105 203
151 104 203
151 104 203
152 103 203
152 103 203
153 102 203
154 101 203
154 101 203
155 100 203
156 99 203
156 99 203
157 98 203
158 97 203
158 97 203
159 96 203
159 95 203
160 95 203
161 94 203
161 94 203
162 93 203
163 92 203
163 92 203
164 91 203
165 90 203
165 90 203
166 89 203
167 88 203
167 88 203
168 87 203
168 87 203
169 86 203
170 85 203
170 85 203
171 84 203
172 83 203
172 83 203
173 82 203
174 81 203
174 81 203
175 80 203
175 79 203
176 79 203
177 78 203
177 78 203
178 77 203
179 76 203
179 76 203
180 75 203
181 74 203
181 74 203
182 73 203
183 72 203
183 72 203
184 71 203
184 71 203
185 70 203
186 69 203
186 69 203
187 68 203
188 67 203
188 67 203
189 66 203
190 65 203
190 65 203
191 64 203
191 63 203
192 63 203
193 62 203
193 62 203
194 61 203
195 60 203
195 60 203
196 59 203
197 58 203
197 58 203
198 57 203
199 56 203
199 56 203
200 55 203
200 55 203
201 54 203
202 53 203
202 53 203
203 52 203
204 51 203
204 51 203
205 50 203
206 49 203
206 49 203
207 48 203
207 47 203
208 47 203
209 46 203
209 46 203
210 45 203
211 44 203
211 44 203
212 43 203
213 42 203
213 42 203
214 41 203
215 40 203
215 40 203
216 39 203
216 39 203
217 38 203
218 37 203
218 37 203
219 36 203
220 35 203
220 35 203
221 34 203
222 33 203
222 33 203
223 32 203
223 31 203
224 31 203
225 30 203
225 30 203
226 29 203
227 28 203
227 28 203
228 27 203
229 26 203
229 26 203
230 25 203
231 24 203
231 24 203
232 23 203
232 23 203
233 22 203
234 21 203
234 21 203
235 20 203
236 19 203
236 19 203
237 18 203
238 17 203
238 17 203
239 16 203
239 15 203
240 15 203
241 14 203
241 14 203
242 13 203
243 12 203
243 12 203
244 11 203
245 10 203
245 10 203
246 9 203
247 8 203
247 8 203
248 7 203
248 7 203
249 6 203
250 5 203
250 5 203
251 4 203
252 3 203
252 3 203
253 2 203
254 1 203
254 1 203
255 0 203
0 255 204
0 255 204
1 254 204
1 254 204
2 253 204
3 252 204
3 252 204
4 251 204
5 250 204
5 250 204
6 249 204
7 248 204
7 248 204
8 247 204
8 247 204
9 246 204
10 245 204
10 245 204
11 244 204
12 243 204
12 243 204
13 242 204
14 241 204
14 241 204
15 240 204
15 239 204
16 239 204
17 238 204
17 238 204
18 237 204
19 236 204
19 236 204
20 235 204
21 234 204
21 234 204
22 233 204
23 232 204
23 232 204
24 231 204
24 231 204
25 230 204
26 229 204
26 229 204
27 228 204
28 227 204
28 227 204
29 226 204
30 225 204
30 225 204
31 224 204
31 223 204
32 223 204
33 222 204
33 222 204
34 221 204
35 220 204
35 220 204
36 219 204
37 218 204
37 218 204
38 217 204
39 216 204
39 216 204
40 215 204
40 215 204
41 214 204
42 213 204
42 213 204
43 212 204
44 211 204
44 211 204
45 210 204
46 209 204
46 209 204
47 208 204
47 207 204
48 207 204
49 206 204
49 206 204
50 205 204
51 204 204
51 204 204
52 203 204
53 202 204
53 202 204
54 201 204
55 200 204
55 200 204
56 199 204
56 199 204
57 198 204
58 197 204
58 197 204
59 196 204
60 195 204
60 195 204
61 194 204
62 193 204
62 193 204
63 192 204
63 191 204
64 191 204
65 190 204
65 190 204
66 189 204
67 188 204
67 188 204
68 187 204
69 186 204
69 186 204
70 185 204
71 184 204
71 184 204
72 183 204
72 183 204
73 182 204
74 181 204
74 181 204
75 180 204
76 179 204
76 179 204
77 178 204
78 177 204
78 177 204
79 176 204
79 175 204
80 175 204
81 174 204
81 174 204
82 173 204
83 172 204
83 172 204
84 171 204
85 170 204
85 170 204
86 169 204
87 168 204
87 168 204
88 167 204
88 167 204
89 166 204
90 165 204
90 165 204
91 164 204
92 163 204
92 163 204
93 162 204
94 161 204
94 161 204
95 160 204
95 159 204
96 159 204
97 158 204
97 158 204
98 157 204
99 156 204
99 156 204
100 155 204
101 154 204
101 154 204
102 153 204
103 152 204
103 152 204
104 151 204
104 151 204
105 150 204
106 149 204
106 149 204
107 148 204
108 147 204
108 147 204
109 146 204
110 145 204
110 145 204
111 144 204
111 143 204
112 143 204
113 142 204
113 142 204
114 141 204
115 140 204
115 140 204
116 139 204
117 138 204
117 138 204
118 137 204
119 136 204
119 136 204
120 135 204
120 135 204
121 134 204
122 133 204
122 133 204
123 132 204
124 131 204
124 131 204
125 130 204
126 129 204
126 129 204
127 128 204
127 127 204
128 127 204
129 126 204
129 126 204
130 125 204
131 124 204
131 124 204
132 123 204
133 122 204
133 122 204
134 121 204
135 120 204
135 120 204
136 119 204
136 119 204
137 118 204
138 117 204
138 117 204
139 116 204
140 115 204
140 115 204
141 114 204
142 113 204
142 113 204
143 112 204
143 111 204
144 111 204
145 110 204
145 110 204
146 109 204
147 108 204
147 108 204
148 107 204
149 106 204
149 106 204
150 105 204
151 104 204
151 104 204
152 103 204
152 103 204
153 102 204
154 101 204
154 101 204
155 100 204
156 99 204
156 99 204
157 98 204
158 97 204
158 97 204
159 96 204
159 95 204
160 95 204
161 94 204
161 94 204
162 93 204
163 92 204
163 92 204
164 91 204
165 90 204
165 90 204
166 89 204
167 88 204
167 88 204
168 87 204
168 87 204
169 86 204
170 85 204
170 85 204
171 84 204
172 83 204
172 83 204
173 82 204
174 81 204
174 81 204
175 80 204
175 79 204
176 79 204
177 78 204
177 78 204
178 77 204
179 76 204
179 76 204
180 75 204
181 74 204
181 74 204
182 73 204
183 72 204
183 72 204
184 71 204
184 71 204
185 70 204
186 69 204
186 69 204
187 68 204
188 67 204
188 67 204
189 66 204
190 65 204
190 65 204
191 64 204
191 63 204
192 63 204
193 62 204
193 62 204
194 61 204
195 60 204
195 60 204
196 59 204
197 58 204
197 58 204
198 57 204
199 56 204
199 56 204
200 55 204
200 55 204
201 54 204
202 53 204
202 53 204
203 52 204
204 51 204
204 51 204
205 50 204
206 49 204
206 49 204
207 48 204
207 47 204
208 47 204
209 46 204
209 46 204
210 45 204
211 44 204
211 44 204
212 43 204
213 42 204
213 42 204
214 41 204
215 40 204
215 40 204
216 39 204
216 39 204
217 38 204
218 37 204
218 37 204
219 36 204
220 35 204
220 35 204
221 34 204
222 33 204
222 33 204
223 32 204
223 31 204
224 31 204
225 30 204
225 30 204
226 29 204
227 28 204
227 28 204
228 27 204
229 26 204
229 26 204
230 25 204
231 24 204
231 24 204
232 23 204
232 23 204
233 22 204
234 21 204
234 21 204
235 20 204
236 19 204
236 19 204
237 18 204
238 17 204
238 17 204
239 16 204
239 15 204
240 15 204
241 14 204
241 14 204
242 13 204
243 12 204
243 12 204
244 11 204
245 10 204
245 10 204
246 9 204
247 8 204
247 8 204
248 7 204
248 7 204
249 6 204
250 5 204
250 5 204
251 4 204
252 3 204
252 3 204
253 2 204
254 1 204
254 1 204
255 0 204
0 255 205
0 255 205
1 254 205
1 254 205
2 253 205
3 252 205
3 252 205
4 251 205
5 250 205
5 250 205
6 249 205
7 248 205
7 248 205
8 247 205
8 247 205
9 246 205
10 245 205
10 245 205
11 244 205
12 243 205
12 243 205
13 242 205
14 241 205
14 241 205
15 240 205
15 239 205
16 239 205
17 238 205
17 238 205
18 237 205
19 236 205
19 236 205
20 235 205
21 234 205
21 234 205
22 233 205
23 232 205
23 232 205
24 231 205
24 231 205
25 230 205
26 229 205
26 229 205
27 228 205
28 227 205
28 227 205
29 226 205
30 225 205
30 225 205
31 224 205
31 223 205
32 223 205
33 222 205
33 222 205
34 221 205
35 220 205
35 220 205
36 219 205
37 218 205
37 218 205
38 217 205
39 216 205
39 216 205
40 215 205
40 215 205
41 214 205
42 213 205
42 213 205
43 212 205
44 211 205
44 211 205
45 210 205
46 209 205
46 209 205
47 208 205
47 207 205
48 207 205
49 206 205
49 206 205
50 205 205
51 204 205
51 204 205
52 203 205
53 202 205
53 202 205
54 201 205
55 200 205
55 200 205
56 199 205
56 199 205
57 198 205
58 197 205
58 197 205
59 196 205
60 195 205
60 195 205
61 194 205
62 193 205
62 193 205
63 192 205
63 191 205
64 191 205
65 190 205
65 190 205
66 189 205
67 188 205
67 188 205
68 187 205
69 186 205
69 186 205
70 185 205
71 184 205
71 184 205
72 183 205
72 183 205
73 182 205
74 181 205
74 181 205
75 180 205
76 179 205
76 179 205
77 178 205
78 177 205
78 177 205
79 176 205
79 175 205
80 175 205
81 174 205
81 174 205
82 173 205
83 172 205
83 172 205
84 171 205
85 170 205
85 170 205
86 169 205
87 168 205
87 168 205
88 167 205
88 167 205
89 166 205
90 165 205
90 165 205
91 164 205
92 163 205
92 163 205
93 162 205
94 161 205
94 161 205
95 160 205
95 159 205
96 159 205
97 158 205
97 158 205
98 157 205
99 156 205
99 156 205
100 155 205
101 154 205
101 154 205
102 153 205
103 152 205
103 152 205
104 151 205
104 151 205
105 150 205
106 149 205
106 149 205
107 148 205
108 147 205
108 147 205
109 146 205
110 145 205
110 145 205
111 144 205
111 143 205
112 143 205
113 142 205
113 142 205
114 141 205
115 140 205
115 140 205
116 139 205
117 138 205
117 138 205
118 137 205
119 136 205
119 136 205
120 135 205
120 135 205
121 134 205
122 133 205
122 133 205
123 132 205
124 131 205
124 131 205
125 130 205
126 129 205
126 129 205
127 128 205
127 127 205
128 127 205
129 126 205
129 126 205
130 125 205
131 124 205
131 124 205
132 123 205
133 122 205
133 122 205
134 121 205
135 120 205
135 120 205
136 119 205
136 119 205
137 118 205
138 117 205
138 117 205
139 116 205
140 115 205
140 115 205
141 114 205
142 113 205
142 113 205
143 112 205
143 111 205
144 111 205
145 110 205
145 110 205
146 109 205
147 108 205
147 108 205
148 107 205
149 106 205
149 106 205
150 105 205
151 104 205
151 104 205
152 103 205
152 103 205
153 102 205
154 101 205
154 101 205
155 100 205
156 99 205
156 99 205
157 98 205
158 97 205
158 97 205
159 96 205
159 95 205
160 95 205
161 94 205
161 94 205
162 93 205
163 92 205
163 92 205
164 91 205
165 90 205
165 90 205
166 89 205
167 88 205
167 88 205
168 87 205
168 87 205
169 86 205
170 85 205
170 85 205
171 84 205
172 83 205
172 83 205
173 82 205
174 81 205
174 81 205
175 80 205
175 79 205
176 79 205
177 78 205
177 78 205
178 77 205
179 76 205
179 76 205
180 75 205
181 74 205
181 74 205
182 73 205
183 72 205
183 72 205
184 71 205
184 71 205
185 70 205
186 69 205
186 69 205
187 68 205
188 67 205
188 67 205
189 66 205
190 65 205
190 65 205
191 64 205
191 63 205
192 63 205
193 62 205
193 62 205
194 61 205
195 60 205
195 60 205
196 59 205
197 58 205
197 58 205
198 57 205
199 56 205
199 56 205
200 55 205
200 55 205
201 54 205
202 53 205
202 53 205
203 52 205
204 51 205
204 51 205
205 50 205
206 49 205
206 49 205
207 48 205
207 47 205
208 47 205
209 46 205
209 46 205
210 45 205
211 44 205
211 44 205
212 43 205
213 42 205
213 42 205
214 41 205
215 40 205
215 40 205
216 39 205
216 39 205
217 38 205
218 37 205
218 37 205
219 36 205
220 35 205
220 35 205
221 34 205
222 33 205
222 33 205
223 32 205
223 31 205
224 31 205
225 30 205
225 30 205
226 29 205
227 28 205
227 28 205
228 27 205
229 26 205
229 26 205
230 25 205
231 24 205
231 24 205
232 23 205
232 23 205
233 22 205
234 21 205
234 21 205
235 20 205
236 19 205
236 19 205
237 18 205
238 17 205
238 17 205
239 16 205
239 15 205
240 15 205
241 14 205
241 14 205
242 13 205
243 12 205
243 12 205
244 11 205
245 10 205
245 10 205
246 9 205
247 8 205
247 8 205
248 7 205
248 7 205
249 6 205
250 5 205
250 5 205
251 4 205
252 3 205
252 3 205
253 2 205
254 1 205
254 1 205
255 0 205
0 255 207
0 255 207
1 254 207
1 254 207
2 253 207
3 252 207
3 252 207
4 251 207
5 250 207
5 250 207
6 249 207
7 248 207
7 248 207
8 247 207
8 247 207
9 246 207
10 245 207
10 245 207
11 244 207
12 243 207
12 243 207
13 242 207
14 241 207
14 241 207
15 240 207
15 239 207
16 239 207
17 238 207
17 238 207
18 237 207
19 236 207
19 236 207
20 235 207
21 234 207
21 234 207
22 233 207
23 232 207
23 232 207
24 231 207
24 231 207
25 230 207
26 229 207
26 229 207
27 228 207
28 227 207
28 227 207
29 226 207
30 225 207
30 225 207
31 224 207
31 223 207
32 223 207
33 222 207
33 222 207
34 221 207
35 220 207
35 220 207
36 219 207
37 218 207
37 218 207
38 217 207
39 216 207
39 216 207
40 215 207
40 215 207
41 214 207
42 213 207
42 213 207
43 212 207
44 211 207
44 211 207
45 210 207
46 209 207
46 209 207
47 208 207
47 207 207
48 207 207
49 206 207
49 206 207
50 205 207
51 204 207
51 204 207
52 203 207
53 202 207
53 202 207
54 201 207
55 200 207
55 200 207
56 199 207
56 199 207
57 198 207
58 197 207
58 197 207
59 196 207
60 195 207
60 195 207
61 194 207
62 193 207
62 193 207
63 192 207
63 191 207
64 191 207
65 190 207
65 190 207
66 189 207
67 188 207
67 188 207
68 187 207
69 186 207
69 186 207
70 185 207
71 184 207
71 184 207
72 183 207
72 183 207
73 182 207
74 181 207
74 181 207
75 180 207
76 179 207
76 179 207
77 178 207
78 177 207
78 177 207
79 176 207
79 175 207
80 175 207
81 174 207
81 174 207
82 173 207
83 172 207
83 172 207
84 171 207
85 170 207
85 170 207
86 169 207
87 168 207
87 168 207
88 167 207
88 167 207
89 166 207
90 165 207
90 165 207
91 164 207
92 163 207
92 163 207
93 162 207
94 161 207
94 161 207
95 160 207
95 159 207
96 159 207
97 158 207
97 158 207
98 157 207
99 156 207
99 156 207
100 155 207
101 154 207
101 154 207
102 153 207
103 152 207
103 152 207
104 151 207
104 151 207
105 150 207
106 149 207
106 149 207
107 148 207
108 147 207
108 147 207
109 146 207
110 145 207
110 145 207
111 144 207
111 143 207
112 143 207
113 142 207
113 142 207
114 141 207
115 140 207
115 140 207
116 139 207
117 138 207
117 138 207
118 137 207
119 136 207
119 136 207
120 135 207
120 135 207
121 134 207
122 133 207
122 133 207
123 132 207
124 131 207
124 131 207
125 130 207
126 129 207
126 129 207
127 128 207
127 127 207
128 127 207
129 126 207
129 126 207
130 125 207
131 124 207
131 124 207
132 123 207
133 122 207
133 122 207
134 121 207
135 120 207
135 120 207
136 119 207
136 119 207
137 118 207
138 117 207
138 117 207
139 116 207
140 115 207
140 115 207
141 114 207
142 113 207
142 113 207
143 112 207
143 111 207
144 111 207
145 110 207
145 110 207
146 109 207
147 108 207
147 108 207
148 107 207
149 106 207
149 106 207
150 105 207
151 104 207
151 104 207
152 103 207
152 103 207
153 102 207
154 101 207
154 101 207
155 100 207
156 99 207
156 99 207
157 98 207
158 97 207
158 97 207
159 96 207
159 95 207
160 95 207
161 94 207
161 94 207
162 93 207
163 92 207
163 92 207
164 91 207
165 90 207
165 90 207
166 89 207
167 88 207
167 88 207
168 87 207
168 87 207
169 86 207
170 85 207
170 85 207
171 84 207
172 83 207
172 83 207
173 82 207
174 81 207
174 81 207
175 80 207
175 79 207
176 79 207
177 78 207
177 78 207
178 77 207
179 76 207
179 76 207
180 75 207
181 74 207
181 74 207
182 73 207
183 72 207
183 72 207
184 71 207
184 71 207
185 70 207
186 69 207
186 69 207
187 68 207
188 67 207
188 67 207
189 66 207
190 65 207
190 65 207
191 64 207
191 63 207
192 63 207
193 62 207
193 62 207
194 61 207
195 60 207
195 60 207
196 59 207
197 58 207
197 58 207
198 57 207
199 56 207
199 56 207
200 55 207
200 55 207
201 54 207
202 53 207
202 53 207
203 52 207
204 51 207
204 51 207
205 50 207
206 49 207
206 49 207
207 48 207
207 47 207
208 47 207
209 46 207
209 46 207
210 45 207
211 44 207
211 44 207
212 43 207
213 42 207
213 42 207
214 41 207
215 40 207
215 40 207
216 39 207
216 39 207
217 38 207
218 37 207
218 37 207
219 36 207
220 35 207
220 35 207
221 34 207
222 33 207
222 33 207
223 32 207
223 31 207
224 31 207
225 30 207
225 30 207
226 29 207
227 28 207
227 28 207
228 27 207
229 26 207
229 26 207
230 25 207
231 24 207
231 24 207
232 23 207
232 23 207
233 22 207
234 21 207
234 21 207
235 20 207
236 19 207
236 19 207
237 18 207
238 17 207
238 17 207
239 16 207
239 15 207
240 15 207
241 14 207
241 14 207
242 13 207
243 12 207
243 12 207
244 11 207
245 10 207
245 10 207
246 9 207
247 8 207
247 8 207
248 7 207
248 7 207
249 6 207
250 5 207
250 5 207
251 4 207
252 3 207
252 3 207
253 2 207
254 1 207
254 1 207
255 0 207
0 255 208
0 255 208
1 254 208
1 254 208
2 253 208
3 252 208
3 252 208
4 251 208
5 250 208
5 250 208
6 249 208
7 248 208
7 248 208
8 247 208
8 247 208
9 246 208
10 245 208
10 245 208
11 244 208
12 243 208
12 243 208
13 242 208
14 241 208
14 241 208
15 240 208
15 239 208
16 239 208
17 238 208
17 238 208
18 237 208
19 236 208
19 236 208
20 235 208
21 234 208
21 234 208
22 233 208
23 232 208
23 232 208
24 231 208
24 231 208
25 230 208
26 229 208
26 229 208
27 228 208
28 227 208
28 227 208
29 226 208
30 225 208
30 225 208
31 224 208
31 223 208
32 223 208
33 222 208
33 222 208
34 221 208
35 220 208
35 220 208
36 219 208
37 218 208
37 218 208
38 217 208
39 216 208
39 216 208
40 215 208
40 215 208
41 214 208
42 213 208
42 213 208
43 212 208
44 211 208
44 211 208
45 210 208
46 209 208
46 209 208
47 208 208
47 207 208
48 207 208
49 206 208
49 206 208
50 205 208
51 204 208
51 204 208
52 203 208
53 202 208
53 202 208
54 201 208
55 200 208
55 200 208
56 199 208
56 199 208
57 198 208
58 197 208
58 197 208
59 196 208
60 195 208
60 195 208
61 194 208
62 193 208
62 193 208
63 192 208
63 191 208
64 191 208
65 190 208
65 190 208
66 189 208
67 188 208
67 188 208
68 187 208
69 186 208
69 186 208
70 185 208
71 184 208
71 184 208
72 183 208
72 183 208
73 182 208
74 181 208
74 181 208
75 180 208
76 179 208
76 179 208
77 178 208
78 177 208
78 177 208
79 176 208
79 175 208
80 175 208
81 174 208
81 174 208
82 173 208
83 172 208
83 172 208
84 171 208
85 170 208
85 170 208
86 169 208
87 168 208
87 168 208
88 167 208
88 167 208
89 166 208
90 165 208
90 165 208
91 164 208
92 163 208
92 163 208
93 162 208
94 161 208
94 161 208
95 160 208
95 159 208
96 159 208
97 158 208
97 158 208
98 157 208
99 156 208
99 156 208
100 155 208
101 154 208
101 154 208
102 153 208
103 152 208
103 152 208
104 151 208
104 151 208
105 150 208
106 149 208
106 149 208
107 148 208
108 147 208
108 147 208
109 146 208
110 145 208
110 145 208
111 144 208
111 143 208
112 143 208
113 142 208
113 142 208
114 141 208
115 140 208
115 140 208
116 139 208
117 138 208
117 138 208
118 137 208
119 136 208
119 136 208
120 135 208
120 135 208
121 134 208
122 133 208
122 133 208
123 132 208
124 131 208
124 131 208
125 130 208
126 129 208
126 129 208
127 128 208
127 127 208
128 127 208
129 126 208
129 126 208
130 125 208
131 124 208
131 124 208
132 123 208
133 122 208
133 122 208
134 121 208
135 120 208
135 120 208
136 119 208
136 119 208
137 118 208
138 117 208
138 117 208
139 116 208
140 115 208
140 115 208
141 114 208
142 113 208
142 113 208
143 112 208
143 111 208
144 111 208
145 110 208
145 110 208
146 109 208
147 108 208
147 108 208
148 107 208
149 106 208
149 106 208
150 105 208
151 104 208
151 104 208
152 103 208
152 103 208
153 102 208
154 101 208
154 101 208
155 100 208
156 99 208
156 99 208
157 98 208
158 97 208
158 97 208
159 96 208
159 95 208
160 95 208
161 94 208
161 94 208
162 93 208
163 92 208
163 92 208
164 91 208
165 90 208
165 90 208
166 89 208
167 88 208
167 88 208
168 87 208
168 87 208
169 86 208
170 85 208
170 85 208
171 84 208
172 83 208
172 83 208
173 82 208
174 81 208
174 81 208
175 80 208
175 79 208
176 79 208
177 78 208
177 78 208
178 77 208
179 76 208
179 76 208
180 75 208
181 74 208
181 74 208
182 73 208
183 72 208
183 72 208
184 71 208
184 71 208
185 70 208
186 69 208
186 69 208
187 68 208
188 67 208
188 67 208
189 66 208
190 65 208
190 65 208
191 64 208
191 63 208
192 63 208
193 62 208
193 62 208
194 61 208
195 60 208
195 60 208
196 59 208
197 58 208
197 58 208
198 57 208
199 56 208
199 56 208
200 55 208
200 55 208
201 54 208
202 53 208
202 53 208
203 52 208
204 51 208
204 51 208
205 50 208
206 49 208
206 49 208
207 48 208
207 47 208
208 47 208
209 46 208
209 46 208
210 45 208
211 44 208
211 44 208
212 43 208
213 42 208
213 42 208
214 41 208
215 40 208
215 40 208
216 39 208
216 39 208
217 38 208
218 37 208
218 37 208
219 36 208
220 35 208
220 35 208
221 34 208
222 33 208
222 33 208
223 32 208
223 31 208
224 31 208
225 30 208
225 30 208
226 29 208
227 28 208
227 28 208
228 27 208
229 26 208
229 26 208
230 25 208
231 24 208
231 24 208
232 23 208
232 23 208
233 22 208
234 21 208
234 21 208
235 20 208
236 19 208
236 19 208
237 18 208
238 17 208
238 17 208
239 16 208
239 15 208
240 15 208
241 14 208
241 14 208
242 13 208
243 12 208
243 12 208
244 11 208
245 10 208
245 10 208
246 9 208
247 8 208
247 8 208
248 7 208
248 7 208
249 6 208
250 5 208
250 5 208
251 4 208
252 3 208
252 3 208
253 2 208
254 1 208
254 1 208
255 0 208
0 255 209
0 255 209
1 254 209
1 254 209
2 253 209
3 252 209
3 252 209
4 251 209
5 250 209
5 250 209
6 249 209
7 248 209
7 248 209
8 247 209
8 247 209
9 246 209
10 245 209
10 245 209
11 244 209
12 243 209
12 243 209
13 242 209
14 241 209
14 241 209
15 240 209
15 239 209
16 239 209
17 238 209
17 238 209
18 237 209
19 236 209
19 236 209
20 235 209
21 234 209
21 234 209
22 233 209
23 232 209
23 232 209
24 231 209
24 231 209
25 230 209
26 229 209
26 229 209
27 228 209
28 227 209
28 227 209
29 226 209
30 225 209
30 225 209
31 224 209
31 223 209
32 223 209
33 222 209
33 222 209
34 221 209
35 220 209
35 220 209
36 219 209
37 218 209
37 218 209
38 217 209
39 216 209
39 216 209
40 215 209
40 215 209
41 214 209
42 213 209
42 213 209
43 212 209
44 211 209
44 211 209
45 210 209
46 209 209
46 209 209
47 208 209
47 207 209
48 207 209
49 206 209
49 206 209
50 205 209
51 204 209
51 204 209
52 203 209
53 202 209
53 202 209
54 201 209
55 200 209
55 200 209
56 199 209
56 199 209
57 198 209
58 197 209
58 197 209
59 196 209
60 195 209
60 195 209
61 194 209
62 193 209
62 193 209
63 192 209
63 191 209
64 191 209
65 190 209
65 190 209
66 189 209
67 188 209
67 188 209
68 187 209
69 186 209
69 186 209
70 185 209
71 184 209
71 184 209
72 183 209
72 183 209
73 182 209
74 181 209
74 181 209
75 180 209
76 179 209
76 179 209
77 178 209
78 177 209
78 177 209
79 176 209
79 175 209
80 175 209
81 174 209
81 174 209
82 173 209
83 172 209
83 172 209
84 171 209
85 170 209
85 170 209
86 169 209
87 168 209
87 168 209
88 167 209
88 167 209
89 166 209
90 165 209
90 165 209
91 164 209
92 163 209
92 163 209
93 162 209
94 161 209
94 161 209
95 160 209
95 159 209
96 159 209
97 158 209
97 158 209
98 157 209
99 156 209
99 156 209
100 155 209
101 154 209
101 154 209
102 153 209
103 152 209
103 152 209
104 151 209
104 151 209
105 150 209
106 149 209
106 149 209
107 148 209
108 147 209
108 147 209
109 146 209
110 145 209
110 145 209
111 144 209
111 143 209
112 143 209
113 142 209
113 142 209
114 141 209
115 140 209
115 140 209
116 139 209
117 138 209
117 138 209
118 137 209
119 136 209
119 136 209
120 135 209
120 135 209
121 134 209
122 133 209
122 133 209
123 132 209
124 131 209
124 131 209
125 130 209
126 129 209
126 129 209
127 128 209
127 127 209
128 127 209
129 126 209
129 126 209
130 125 209
131 124 209
131 124 209
132 123 209
133 122 209
133 122 209
134 121 209
135 120 209
135 120 209
136 119 209
136 119 209
137 118 209
138 117 209
138 117 209
139 116 209
140 115 209
140 115 209
141 114 209
142 113 209
142 113 209
143 112 209
143 111 209
144 111 209
145 110 209
145 110 209
146 109 209
147 108 209
147 108 209
148 107 209
149 106 209
149 106 209
150 105 209
151 104 209
151 104 209
152 103 209
152 103 209
153 102 209
154 101 209
154 101 209
155 100 209
156 99 209
156 99 209
157 98 209
158 97 209
158 97 209
159 96 209
159 95 209
160 95 209
161 94 209
161 94 209
162 93 209
163 92 209
163 92 209
164 91 209
165 90 209
165 90 209
166 89 209
167 88 209
167 88 209
168 87 209
168 87 209
169 86 209
170 85 209
170 85 209
171 84 209
172 83 209
172 83 209
173 82 209
174 81 209
174 81 209
175 80 209
175 79 209
176 79 209
177 78 209
177 78 209
178 77 209
179 76 209
179 76 209
180 75 209
181 74 209
181 74 209
182 73 209
183 72 209
183 72 209
184 71 209
184 71 209
185 70 209
186 69 209
186 69 209
187 68 209
188 67 209
188 67 209
189 66 209
190 65 209
190 65 209
191 64 209
191 63 209
192 63 209
193 62 209
193 62 209
194 61 209
195 60 209
195 60 209
196 59 209
197 58 209
197 58 209
198 57 209
199 56 209
199 56 209
200 55 209
200 55 209
201 54 209
202 53 209
202 53 209
203 52 209
204 51 209
204 51 209
205 50 209
206 49 209
206 49 209
207 48 209
207 47 209
208 47 209
209 46 209
209 46 209
210 45 209
211 44 209
211 44 209
212 43 209
213 42 209
213 42 209
214 41 209
215 40 209
215 40 209
216 39 209
216 39 209
217 38 209
218 37 209
218 37 209
219 36 209
220 35 209
220 35 209
221 34 209
222 33 209
222 33 209
223 32 209
223 31 209
224 31 209
225 30 209
225 30 209
226 29 209
227 28 209
227 28 209
228 27 209
229 26 209
229 26 209
230 25 209
231 24 209
231 24 209
232 23 209
232 23 209
233 22 209
234 21 209
234 21 209
235 20 209
236 19 209
236 19 209
237 18 209
238 17 209
238 17 209
239 16 209
239 15 209
240 15 209
241 14 209
241 14 209
242 13 209
243 12 209
243 12 209
244 11 209
245 10 209
245 10 209
246 9 209
247 8 209
247 8 209
248 7 209
248 7 209
249 6 209
250 5 209
250 5 209
251 4 209
252 3 209
252 3 209
253 2 209
254 1 209
254 1 209
255 0 209
0 255 210
0 255 210
1 254 210
1 254 210
2 253 210
3 252 210
3 252 210
4 251 210
5 250 210
5 250 210
6 249 210
7 248 210
7 248 210
8 247 210
8 247 210
9 246 210
10 245 210
10 245 210
11 244 210
12 243 210
12 243 210
13 242 210
14 241 210
14 241 210
15 240 210
15 239 210
16 239 210
17 238 210
17 238 210
18 237 210
19 236 210
19 236 210
20 235 210
21 234 210
21 234 210
22 233 210
23 232 210
23 232 210
24 231 210
24 231 210
25 230 210
26 229 210
26 229 210
27 228 210
28 227 210
28 227 210
29 226 210
30 225 210
30 225 210
31 224 210
31 223 210
32 223 210
33 222 210
33 222 210
34 221 210
35 220 210
35 220 210
36 219 210
37 218 210
37 218 210
38 217 210
39 216 210
39 216 210
40 215 210
40 215 210
41 214 210
42 213 210
42 213 210
43 212 210
44 211 210
44 211 210
45 210 210
46 209 210
46 209 210
47 208 210
47 207 210
48 207 210
49 206 210
49 206 210
50 205 210
51 204 210
51 204 210
52 203 210
53 202 210
53 202 210
54 201 210
55 200 210
55 200 210
56 199 210
56 199 210
57 198 210
58 197 210
58 197 210
59 196 210
60 195 210
60 195 210
61 194 210
62 193 210
62 193 210
63 192 210
63 191 210
64 191 210
65 190 210
65 190 210
66 189 210
67 188 210
67 188 210
68 187 210
69 186 210
69 186 210
70 185 210
71 184 210
71 184 210
72 183 210
72 183 210
73 182 210
74 181 210
74 181 210
75 180 210
76 179 210
76 179 210
77 178 210
78 177 210
78 177 210
79 176 210
79 175 210
80 175 210
81 174 210
81 174 210
82 173 210
83 172 210
83 172 210
84 171 210
85 170 210
85 170 210
86 169 210
87 168 210
87 168 210
88 167 210
88 167 210
89 166 210
90 165 210
90 165 210
91 164 210
92 163 210
92 163 210
93 162 210
94 161 210
94 161 210
95 160 210
95 159 210
96 159 210
97 158 210
97 158 210
98 157 210
99 156 210
99 156 210
100 155 210
101 154 210
101 154 210
102 153 210
103 152 210
103 152 210
104 151 210
104 151 210
105 150 210
106 149 210
106 149 210
107 148 210
108 147 210
108 147 210
109 146 210
110 145 210
110 145 210
111 144 210
111 143 210
112 143 210
113 142 210
113 142 210
114 141 210
115 140 210
115 140 210
116 139 210
117 138 210
117 138 210
118 137 210
119 136 210
119 136 210
120 135 210
120 135 210
121 134 210
122 133 210
122 133 210
123 132 210
124 131 210
124 131 210
125 130 210
126 129 210
126 129 210
127 128 210
127 127 210
128 127 210
129 126 210
129 126 210
130 125 210
131 124 210
131 124 210
132 123 210
133 122 210
133 122 210
134 121 210
135 120 210
135 120 210
136 119 210
136 119 210
137 118 210
138 117 210
138 117 210
139 116 210
140 115 210
140 115 210
141 114 210
142 113 210
142 113 210
143 112 210
143 111 210
144 111 210
145 110 210
145 110 210
146 109 210
147 108 210
147 108 210
148 107 210
149 106 210
149 106 210
150 105 210
151 104 210
151 104 210
152 103 210
152 103 210
153 102 210
154 101 210
154 101 210
155 100 210
156 99 210
156 99 210
157 98 210
158 97 210
158 97 210
159 96 210
159 95 210
160 95 210
161 94 210
161 94 210
162 93 210
163 92 210
163 92 210
164 91 210
165 90 210
165 90 210
166 89 210
167 88 210
167 88 210
168 87 210
168 87 210
169 86 210
170 85 210
170 85 210
171 84 210
172 83 210
172 83 210
173 82 210
174 81 210
174 81 210
175 80 210
175 79 210
176 79 210
177 78 210
177 78 210
178 77 210
179 76 210
179 76 210
180 75 210
181 74 210
181 74 210
182 73 210
183 72 210
183 72 210
184 71 210
184 71 210
185 70 210
186 69 210
186 69 210
187 68 210
188 67 210
188 67 210
189 66 210
190 65 210
190 65 210
191 64 210
191 63 210
192 63 210
193 62 210
193 62 210
194 61 210
195 60 210
195 60 210
196 59 210
197 58 210
197 58 210
198 57 210
199 56 210
199 56 210
200 55 210
200 55 210
201 54 210
202 53 210
202 53 210
203 52 210
204 51 210
204 51 210
205 50 210
206 49 210
206 49 210
207 48 210
207 47 210
208 47 210
209 46 210
209 46 210
210 45 210
211 44 210
211 44 210
212 43 210
213 42 210
213 42 210
214 41 210
215 40 210
215 40 210
216 39 210
216 39 210
217 38 210
218 37 210
218 37 210
219 36 210
220 35 210
220 35 210
221 34 210
222 33 210
222 33 210
223 32 210
223 31 210
224 31 210
225 30 210
225 30 210
226 29 210
227 28 210
227 28 210
228 27 210
229 26 210
229 26 210
230 25 210
231 24 210
231 24 210
232 23 210
232 23 210
233 22 210
234 21 210
234 21 210
235 20 210
236 19 210
236 19 210
237 18 210
238 17 210
238 17 210
239 16 210
239 15 210
240 15 210
241 14 210
241 14 210
242 13 210
243 12 210
243 12 210
244 11 210
245 10 210
245 10 210
246 9 210
247 8 210
247 8 210
248 7 210
248 7 210
249 6 210
250 5 210
250 5 210
251 4 210
252 3 210
252 3 210
253 2 210
254 1 210
254 1 210
255 0 210
0 255 211
0 255 211
1 254 211
1 254 211
2 253 211
3 252 211
3 252 211
4 251 211
5 250 211
5 250 211
6 249 211
7 248 211
7 248 211
8 247 211
8 247 211
9 246 211
10 245 211
10 245 211
11 244 211
12 243 211
12 243 211
13 242 211
14 241 211
14 241 211
15 240 211
15 239 211
16 239 211
17 238 211
17 238 211
18 237 211
19 236 211
19 236 211
20 235 211
21 234 211
21 234 211
22 233 211
23 232 211
23 232 211
24 231 211
24 231 211
25 230 211
26 229 211
26 229 211
27 228 211
28 227 211
28 227 211
29 226 211
30 225 211
30 225 211
31 224 211
31 223 211
32 223 211
33 222 211
33 222 211
34 221 211
35 220 211
35 220 211
36 219 211
37 218 211
37 218 211
38 217 211
39 216 211
39 216 211
40 215 211
40 215 211
41 214 211
42 213 211
42 213 211
43 212 211
44 211 211
44 211 211
45 210 211
46 209 211
46 209 211
47 208 211
47 207 211
48 207 211
49 206 211
49 206 211
50 205 211
51 204 211
51 204 211
52 203 211
53 202 211
53 202 211
54 201 211
55 200 211
55 200 211
56 199 211
56 199 211
57 198 211
58 197 211
58 197 211
59 196 211
60 195 211
60 195 211
61 194 211
62 193 211
62 193 211
63 192 211
63 191 211
64 191 211
65 190 211
65 190 211
66 189 211
67 188 211
67 188 211
68 187 211
69 186 211
69 186 211
70 185 211
71 184 211
71 184 211
72 183 211
72 183 211
73 182 211
74 181 211
74 181 211
75 180 211
76 179 211
76 179 211
77 178 211
78 177 211
78 177 211
79 176 211
79 175 211
80 175 211
81 174 211
81 174 211
82 173 211
83 172 211
83 172 211
84 171 211
85 170 211
85 170 211
86 169 211
87 168 211
87 168 211
88 167 211
88 167 211
89 166 211
90 165 211
90 165 211
91 164 211
92 163 211
92 163 211
93 162 211
94 161 211
94 161 211
95 160 211
95 159 211
96 159 211
97 158 211
97 158 211
98 157 211
99 156 211
99 156 211
100 155 211
101 154 211
101 154 211
102 153 211
103 152 211
103 152 211
104 151 211
104 151 211
105 150 211
106 149 211
106 149 211
107 148 211
108 147 211
108 147 211
109 146 211
110 145 211
110 145 211
111 144 211
111 143 211
112 143 211
113 142 211
113 142 211
114 141 211
115 140 211
115 140 211
116 139 211
117 138 211
117 138 211
118 137 211
119 136 211
119 136 211
120 135 211
120 135 211
121 134 211
122 133 211
122 133 211
123 132 211
124 131 211
124 131 211
125 130 211
126 129 211
126 129 211
127 128 211
127 127 211
128 127 211
129 126 211
129 126 211
130 125 211
131 124 211
131 124 211
132 123 211
133 122 211
133 122 211
134 121 211
135 120 211
135 120 211
136 119 211
136 119 211
137 118 211
138 117 211
138 117 211
139 116 211
140 115 211
140 115 211
141 114 211
142 113 211
142 113 211
143 112 211
143 111 211
144 111 211
145 110 211
145 110 211
146 109 211
147 108 211
147 108 211
148 107 211
149 106 211
149 106 211
150 105 211
151 104 211
151 104 211
152 103 211
152 103 211
153 102 211
154 101 211
154 101 211
155 100 211
156 99 211
156 99 211
157 98 211
158 97 211
158 97 211
159 96 211
159 95 211
160 95 211
161 94 211
161 94 211
162 93 211
163 92 211
163 92 211
164 91 211
165 90 211
165 90 211
166 89 211
167 88 211
167 88 211
168 87 211
168 87 211
169 86 211
170 85 211
170 85 211
171 84 211
172 83 211
172 83 211
173 82 211
174 81 211
174 81 211
175 80 211
175 79 211
176 79 211
177 78 211
177 78 211
178 77 211
179 76 211
179 76 211
180 75 211
181 74 211
181 74 211
182 73 211
183 72 211
183 72 211
184 71 211
184 71 211
185 70 211
186 69 211
186 69 211
187 68 211
188 67 211
188 67 211
189 66 211
190 65 211
190 65 211
191 64 211
191 63 211
192 63 211
193 62 211
193 62 211
194 61 211
195 60 211
195 60 211
196 59 211
197 58 211
197 58 211
198 57 211
199 56 211
199 56 211
200 55 211
200 55 211
201 54 211
202 53 211
202 53 211
203 52 211
204 51 211
204 51 211
205 50 211
206 49 211
206 49 211
207 48 211
207 47 211
208 47 211
209 46 211
209 46 211
210 45 211
211 44 211
211 44 211
212 43 211
213 42 211
213 42 211
214 41 211
215 40 211
215 40 211
216 39 211
216 39 211
217 38 211
218 37 211
218 37 211
219 36 211
220 35 211
220 35 211
221 34 211
222 33 211
222 33 211
223 32 211
223 31 211
224 31 211
225 30 211
225 30 211
226 29 211
227 28 211
227 28 211
228 27 211
229 26 211
229 26 211
230 25 211
231 24 211
231 24 211
232 23 211
232 23 211
233 22 211
234 21 211
234 21 211
235 20 211
236 19 211
236 19 211
237 18 211
238 17 211
238 17 211
239 16 211
239 15 211
240 15 211
241 14 211
241 14 211
242 13 211
243 12 211
243 12 211
244 11 211
245 10 211
245 10 211
246 9 211
247 8 211
247 8 211
248 7 211
248 7 211
249 6 211
250 5 211
250 5 211
251 4 211
252 3 211
252 3 211
253 2 211
254 1 211
254 1 211
255 0 211
0 255 212
0 255 212
1 254 212
1 254 212
2 253 212
3 252 212
3 252 212
4 251 212
5 250 212
5 250 212
6 249 212
7 248 212
7 248 212
8 247 212
8 247 212
9 246 212
10 245 212
10 245 212
11 244 212
12 243 212
12 243 212
13 242 212
14 241 212
14 241 212
15 240 212
15 239 212
16 239 212
17 238 212
17 238 212
18 237 212
19 236 212
19 236 212
20 235 212
21 234 212
21 234 212
22 233 212
23 232 212
23 232 212
24 231 212
24 231 212
25 230 212
26 229 212
26 229 212
27 228 212
28 227 212
28 227 212
29 226 212
30 225 212
30 225 212
31 224 212
31 223 212
32 223 212
33 222 212
33 222 212
34 221 212
35 220 212
35 220 212
36 219 212
37 218 212
37 218 212
38 217 212
39 216 212
39 216 212
40 215 212
40 215 212
41 214 212
42 213 212
42 213 212
43 212 212
44 211 212
44 211 212
45 210 212
46 209 212
46 209 212
47 208 212
47 207 212
48 207 212
49 206 212
49 206 212
50 205 212
51 204 212
51 204 212
52 203 212
53 202 212
53 202 212
54 201 212
55 200 212
55 200 212
56 199 212
56 199 212
57 198 212
58 197 212
58 197 212
59 196 212
60 195 212
60 195 212
61 194 212
62 193 212
62 193 212
63 192 212
63 191 212
64 191 212
65 190 212
65 190 212
66 189 212
67 188 212
67 188 212
68 187 212
69 186 212
69 186 212
70 185 212
71 184 212
71 184 212
72 183 212
72 183 212
73 182 212
74 181 212
74 181 212
75 180 212
76 179 212
76 179 212
77 178 212
78 177 212
78 177 212
79 176 212
79 175 212
80 175 212
81 174 212
81 174 212
82 173 212
83 172 212
83 172 212
84 171 212
85 170 212
85 170 212
86 169 212
87 168 212
87 168 212
88 167 212
88 167 212
89 166 212
90 165 212
90 165 212
91 164 212
92 163 212
92 163 212
93 162 212
94 161 212
94 161 212
95 160 212
95 159 212
96 159 212
97 158 212
97 158 212
98 157 212
99 156 212
99 156 212
100 155 212
101 154 212
101 154 212
102 153 212
103 152 212
103 152 212
104 151 212
104 151 212
105 150 212
106 149 212
106 149 212
107 148 212
108 147 212
108 147 212
109 146 212
110 145 212
110 145 212
111 144 212
111 143 212
112 143 212
113 142 212
113 142 212
114 141 212
115 140 212
115 140 212
116 139 212
117 138 212
117 138 212
118 137 212
119 136 212
119 136 212
120 135 212
120 135 212
121 134 212
122 133 212
122 133 212
123 132 212
124 131 212
124 131 212
125 130 212
126 129 212
126 129 212
127 128 212
127 127 212
128 127 212
129 126 212
129 126 212
130 125 212
131 124 212
131 124 212
132 123 212
133 122 212
133 122 212
134 121 212
135 120 212
135 120 212
136 119 212
136 119 212
137 118 212
138 117 212
138 117 212
139 116 212
140 115 212
140 115 212
141 114 212
142 113 212
142 113 212
143 112 212
143 111 212
144 111 212
145 110 212
145 110 212
146 109 212
147 108 212
147 108 212
148 107 212
149 106 212
149 106 212
150 105 212
151 104 212
151 104 212
152 103 212
152 103 212
153 102 212
154 101 212
154 101 212
155 100 212
156 99 212
156 99 212
157 98 212
158 97 212
158 97 212
159 96 212
159 95 212
160 95 212
161 94 212
161 94 212
162 93 212
163 92 212
163 92 212
164 91 212
165 90 212
165 90 212
166 89 212
167 88 212
167 88 212
168 87 212
168 87 212
169 86 212
170 85 212
170 85 212
171 84 212
172 83 212
172 83 212
173 82 212
174 81 212
174 81 212
175 80 212
175 79 212
176 79 212
177 78 212
177 78 212
178 77 212
179 76 212
179 76 212
180 75 212
181 74 212
181 74 212
182 73 212
183 72 212
183 72 212
184 71 212
184 71 212
185 70 212
186 69 212
186 69 212
187 68 212
188 67 212
188 67 212
189 66 212
190 65 212
190 65 212
191 64 212
191 63 212
192 63 212
193 62 212
193 62 212
194 61 212
195 60 212
195 60 212
196 59 212
197 58 212
197 58 212
198 57 212
199 56 212
199 56 212
200 55 212
200 55 212
201 54 212
202 53 212
202 53 212
203 52 212
204 51 212
204 51 212
205 50 212
206 49 212
206 49 212
207 48 212
207 47 212
208 47 212
209 46 212
209 46 212
210 45 212
211 44 212
211 44 212
212 43 212
213 42 212
213 42 212
214 41 212
215 40 212
215 40 212
216 39 212
216 39 212
217 38 212
218 37 212
218 37 212
219 36 212
220 35 212
220 35 212
221 34 212
222 33 212
222 33 212
223 32 212
223 31 212
224 31 212
225 30 212
225 30 212
226 29 212
227 28 212
227 28 212
228 27 212
229 26 212
229 26 212
230 25 212
231 24 212
231 24 212
232 23 212
232 23 212
233 22 212
234 21 212
234 21 212
235 20 212
236 19 212
236 19 212
237 18 212
238 17 212
238 17 212
239 16 212
239 15 212
240 15 212
241 14 212
241 14 212
242 13 212
243 12 212
243 12 212
244 11 212
245 10 212
245 10 212
246 9 212
247 8 212
247 8 212
248 7 212
248 7 212
249 6 212
250 5 212
250 5 212
251 4 212
252 3 212
252 3 212
253 2 212
254 1 212
254 1 212
255 0 212
0 255 213
0 255 213
1 254 213
1 254 213
2 253 213
3 252 213
3 252 213
4 251 213
5 250 213
5 250 213
6 249 213
7 248 213
7 248 213
8 247 213
8 247 213
9 246 213
10 245 213
10 245 213
11 244 213
12 243 213
12 243 213
13 242 213
14 241 213
14 241 213
15 240 213
15 239 213
16 239 213
17 238 213
17 238 213
18 237 213
19 236 213
19 236 213
20 235 213
21 234 213
21 234 213
22 233 213
23 232 213
23 232 213
24 231 213
24 231 213
25 230 213
26 229 213
26 229 213
27 228 213
28 227 213
28 227 213
29 226 213
30 225 213
30 225 213
31 224 213
31 223 213
32 223 213
33 222 213
33 222 213
34 221 213
35 220 213
35 220 213
36 219 213
37 218 213
37 218 213
38 217 213
39 216 213
39 216 213
40 215 213
40 215 213
41 214 213
42 213 213
42 213 213
43 212 213
44 211 213
44 211 213
45 210 213
46 209 213
46 209 213
47 208 213
47 207 213
48 207 213
49 206 213
49 206 213
50 205 213
51 204 213
51 204 213
52 203 213
53 202 213
53 202 213
54 201 213
55 200 213
55 200 213
56 199 213
56 199 213
57 198 213
58 197 213
58 197 213
59 196 213
60 195 213
60 195 213
61 194 213
62 193 213
62 193 213
63 192 213
63 191 213
64 191 213
65 190 213
65 190 213
66 189 213
67 188 213
67 188 213
68 187 213
69 186 213
69 186 213
70 185 213
71 184 213
71 184 213
72 183 213
72 183 213
73 182 213
74 181 213
74 181 213
75 180 213
76 179 213
76 179 213
77 178 213
78 177 213
78 177 213
79 176 213
79 175 213
80 175 213
81 174 213
81 174 213
82 173 213
83 172 213
83 172 213
84 171 213
85 170 213
85 170 213
86 169 213
87 168 213
87 168 213
88 167 213
88 167 213
89 166 213
90 165 213
90 165 213
91 164 213
92 163 213
92 163 213
93 162 213
94 161 213
94 161 213
95 160 213
95 159 213
96 159 213
97 158 213
97 158 213
98 157 213
99 156 213
99 156 213
100 155 213
101 154 213
101 154 213
102 153 213
103 152 213
103 152 213
104 151 213
104 151 213
105 150 213
106 149 213
106 149 213
107 148 213
108 147 213
108 147 213
109 146 213
110 145 213
110 145 213
111 144 213
111 143 213
112 143 213
113 142 213
113 142 213
114 141 213
115 140 213
115 140 213
116 139 213
117 138 213
117 138 213
118 137 213
119 136 213
119 136 213
120 135 213
120 135 213
121 134 213
122 133 213
122 133 213
123 132 213
124 131 213
124 131 213
125 130 213
126 129 213
126 129 213
127 128 213
127 127 213
128 127 213
129 126 213
129 126 213
130 125 213
131 124 213
131 124 213
132 123 213
133 122 213
133 122 213
134 121 213
135 120 213
135 120 213
136 119 213
136 119 213
137 118 213
138 117 213
138 117 213
139 116 213
140 115 213
140 115 213
141 114 213
142 113 213
142 113 213
143 112 213
143 111 213
144 111 213
145 110 213
145 110 213
146 109 213
147 108 213
147 108 213
148 107 213
149 106 213
149 106 213
150 105 213
151 104 213
151 104 213
152 103 213
152 103 213
153 102 213
154 101 213
154 101 213
155 100 213
156 99 213
156 99 213
157 98 213
158 97 213
158 97 213
159 96 213
159 95 213
160 95 213
161 94 213
161 94 213
162 93 213
163 92 213
163 92 213
164 91 213
165 90 213
165 90 213
166 89 213
167 88 213
167 88 213
168 87 213
168 87 213
169 86 213
170 85 213
170 85 213
171 84 213
172 83 213
172 83 213
173 82 213
174 81 213
174 81 213
175 80 213
175 79 213
176 79 213
177 78 213
177 78 213
178 77 213
179 76 213
179 76 213
180 75 213
181 74 213
181 74 213
182 73 213
183 72 213
183 72 213
184 71 213
184 71 213
185 70 213
186 69 213
186 69 213
187 68 213
188 67 213
188 67 213
189 66 213
190 65 213
190 65 213
191 64 213
191 63 213
192 63 213
193 62 213
193 62 213
194 61 213
195 60 213
195 60 213
196 59 213
197 58 213
197 58 213
198 57 213
199 56 213
199 56 213
200 55 213
200 55 213
201 54 213
202 53 213
202 53 213
203 52 213
204 51 213
204 51 213
205 50 213
206 49 213
206 49 213
207 48 213
207 47 213
208 47 213
209 46 213
209 46 213
210 45 213
211 44 213
211 44 213
212 43 213
213 42 213
213 42 213
214 41 213
215 40 213
215 40 213
216 39 213
216 39 213
217 38 213
218 37 213
218 37 213
219 36 213
220 35 213
220 35 213
221 34 213
222 33 213
222 33 213
223 32 213
223 31 213
224 31 213
225 30 213
225 30 213
226 29 213
227 28 213
227 28 213
228 27 213
229 26 213
229 26 213
230 25 213
231 24 213
231 24 213
232 23 213
232 23 213
233 22 213
234 21 213
234 21 213
235 20 213
236 19 213
236 19 213
237 18 213
238 17 213
238 17 213
239 16 213
239 15 213
240 15 213
241 14 213
241 14 213
242 13 213
243 12 213
243 12 213
244 11 213
245 10 213
245 10 213
246 9 213
247 8 213
247 8 213
248 7 213
248 7 213
249 6 213
250 5 213
250 5 213
251 4 213
252 3 213
252 3 213
253 2 213
254 1 213
254 1 213
255 0 213
0 255 215
0 255 215
1 254 215
1 254 215
2 253 215
3 252 215
3 252 215
4 251 215
5 250 215
5 250 215
6 249 215
7 248 215
7 248 215
8 247 215
8 247 215
9 246 215
10 245 215
10 245 215
11 244 215
12 243 215
12 243 215
13 242 215
14 241 215
14 241 215
15 240 215
15 239 215
16 239 215
17 238 215
17 238 215
18 237 215
19 236 215
19 236 215
20 235 215
21 234 215
21 234 215
22 233 215
23 232 215
23 232 215
24 231 215
24 231 215
25 230 215
26 229 215
26 229 215
27 228 215
28 227 215
28 227 215
29 226 215
30 225 215
30 225 215
31 224 215
31 223 215
32 223 215
33 222 215
33 222 215
34 221 215
35 220 215
35 220 215
36 219 215
37 218 215
37 218 215
38 217 215
39 216 215
39 216 215
40 215 215
40 215 215
41 214 215
42 213 215
42 213 215
43 212 215
44 211 215
44 211 215
45 210 215
46 209 215
46 209 215
47 208 215
47 207 215
48 207 215
49 206 215
49 206 215
50 205 215
51 204 215
51 204 215
52 203 215
53 202 215
53 202 215
54 201 215
55 200 215
55 200 215
56 199 215
56 199 215
57 198 215
58 197 215
58 197 215
59 196 215
60 195 215
60 195 215
61 194 215
62 193 215
62 193 215
63 192 215
63 191 215
64 191 215
65 190 215
65 190 215
66 189 215
67 188 215
67 188 215
68 187 215
69 186 215
69 186 215
70 185 215
71 184 215
71 184 215
72 183 215
72 183 215
73 182 215
74 181 215
74 181 215
75 180 215
76 179 215
76 179 215
77 178 215
78 177 215
78 177 215
79 176 215
79 175 215
80 175 215
81 174 215
81 174 215
82 173 215
83 172 215
83 172 215
84 171 215
85 170 215
85 170 215
86 169 215
87 168 215
87 168 215
88 167 215
88 167 215
89 166 215
90 165 215
90 165 215
91 164 215
92 163 215
92 163 215
93 162 215
94 161 215
94 161 215
95 160 215
95 159 215
96 159 215
97 158 215
97 158 215
98 157 215
99 156 215
99 156 215
100 155 215
101 154 215
101 154 215
102 153 215
103 152 215
103 152 215
104 151 215
104 151 215
105 150 215
106 149 215
106 149 215
107 148 215
108 147 215
108 147 215
109 146 215
110 145 215
110 145 215
111 144 215
111 143 215
112 143 215
113 142 215
113 142 215
114 141 215
115 140 215
115 140 215
116 139 215
117 138 215
117 138 215
118 137 215
119 136 215
119 136 215
120 135 215
120 135 215
121 134 215
122 133 215
122 133 215
123 132 215
124 131 215
124 131 215
125 130 215
126 129 215
126 129 215
127 128 215
127 127 215
128 127 215
129 126 215
129 126 215
130 125 215
131 124 215
131 124 215
132 123 215
133 122 215
133 122 215
134 121 215
135 120 215
135 120 215
136 119 215
136 119 215
137 118 215
138 117 215
138 117 215
139 116 215
140 115 215
140 115 215
141 114 215
142 113 215
142 113 215
143 112 215
143 111 215
144 111 215
145 110 215
145 110 215
146 109 215
147 108 215
147 108 215
148 107 215
149 106 215
149 106 215
150 105 215
151 104 215
151 104 215
152 103 215
152 103 215
153 102 215
154 101 215
154 101 215
155 100 215
156 99 215
156 99 215
157 98 215
158 97 215
158 97 215
159 96 215
159 95 215
160 95 215
161 94 215
161 94 215
162 93 215
163 92 215
163 92 215
164 91 215
165 90 215
165 90 215
166 89 215
167 88 215
167 88 215
168 87 215
168 87 215
169 86 215
170 85 215
170 85 215
171 84 215
172 83 215
172 83 215
173 82 215
174 81 215
174 81 215
175 80 215
175 79 215
176 79 215
177 78 215
177 78 215
178 77 215
179 76 215
179 76 215
180 75 215
181 74 215
181 74 215
182 73 215
183 72 215
183 72 215
184 71 215
184 71 215
185 70 215
186 69 215
186 69 215
187 68 215
188 67 215
188 67 215
189 66 215
190 65 215
190 65 215
191 64 215
191 63 215
192 63 215
193 62 215
193 62 215
194 61 215
195 60 215
195 60 215
196 59 215
197 58 215
197 58 215
198 57 215
199 56 215
199 56 215
200 55 215
200 55 215
201 54 215
202 53 215
202 53 215
203 52 215
204 51 215
204 51 215
205 50 215
206 49 215
206 49 215
207 48 215
207 47 215
208 47 215
209 46 215
209 46 215
210 45 215
211 44 215
211 44 215
212 43 215
213 42 215
213 42 215
214 41 215
215 40 215
215 40 215
216 39 215
216 39 215
217 38 215
218 37 215
218 37 215
219 36 215
220 35 215
220 35 215
221 34 215
222 33 215
222 33 215
223 32 215
223 31 215
224 31 215
225 30 215
225 30 215
226 29 215
227 28 215
227 28 215
228 27 215
229 26 215
229 26 215
230 25 215
231 24 215
231 24 215
232 23 215
232 23 215
233 22 215
234 21 215
234 21 215
235 20 215
236 19 215
236 19 215
237 18 215
238 17 215
238 17 215
239 16 215
239 15 215
240 15 215
241 14 215
241 14 215
242 13 215
243 12 215
243 12 215
244 11 215
245 10 215
245 10 215
246 9 215
247 8 215
247 8 215
248 7 215
248 7 215
249 6 215
250 5 215
250 5 215
251 4 215
252 3 215
252 3 215
253 2 215
254 1 215
254 1 215
255 0 215
0 255 216
0 255 216
1 254 216
1 254 216
2 253 216
3 252 216
3 252 216
4 251 216
5 250 216
5 250 216
6 249 216
7 248 216
7 248 216
8 247 216
8 247 216
9 246 216
10 245 216
10 245 216
11 244 216
12 243 216
12 243 216
13 242 216
14 241 216
14 241 216
15 240 216
15 239 216
16 239 216
17 238 216
17 238 216
18 237 216
19 236 216
19 236 216
20 235 216
21 234 216
21 234 216
22 233 216
23 232 216
23 232 216
24 231 216
24 231 216
25 230 216
26 229 216
26 229 216
27 228 216
28 227 216
28 227 216
29 226 216
30 225 216
30 225 216
31 224 216
31 223 216
32 223 216
33 222 216
33 222 216
34 221 216
35 220 216
35 220 216
36 219 216
37 218 216
37 218 216
38 217 216
39 216 216
39 216 216
40 215 216
40 215 216
41 214 216
42 213 216
42 213 216
43 212 216
44 211 216
44 211 216
45 210 216
46 209 216
46 209 216
47 208 216
47 207 216
48 207 216
49 206 216
49 206 216
50 205 216
51 204 216
51 204 216
52 203 216
53 202 216
53 202 216
54 201 216
55 200 216
55 200 216
56 199 216
56 199 216
57 198 216
58 197 216
58 197 216
59 196 216
60 195 216
60 195 216
61 194 216
62 193 216
62 193 216
63 192 216
63 191 216
64 191 216
65 190 216
65 190 216
66 189 216
67 188 216
67 188 216
68 187 216
69 186 216
69 186 216
70 185 216
71 184 216
71 184 216
72 183 216
72 183 216
73 182 216
74 181 216
74 181 216
75 180 216
76 179 216
76 179 216
77 178 216
78 177 216
78 177 216
79 176 216
79 175 216
80 175 216
81 174 216
81 174 216
82 173 216
83 172 216
83 172 216
84 171 216
85 170 216
85 170 216
86 169 216
87 168 216
87 168 216
88 167 216
88 167 216
89 166 216
90 165 216
90 165 216
91 164 216
92 163 216
92 163 216
93 162 216
94 161 216
94 161 216
95 160 216
95 159 216
96 159 216
97 158 216
97 158 216
98 157 216
99 156 216
99 156 216
100 155 216
101 154 216
101 154 216
102 153 216
103 152 216
103 152 216
104 151 216
104 151 216
105 150 216
106 149 216
106 149 216
107 148 216
108 147 216
108 147 216
109 146 216
110 145 216
110 145 216
111 144 216
111 143 216
112 143 216
113 142 216
113 142 216
114 141 216
115 140 216
115 140 216
116 139 216
117 138 216
117 138 216
118 137 216
119 136 216
119 136 216
120 135 216
120 135 216
121 134 216
122 133 216
122 133 216
123 132 216
124 131 216
124 131 216
125 130 216
126 129 216
126 129 216
127 128 216
127 127 216
128 127 216
129 126 216
129 126 216
130 125 216
131 124 216
131 124 216
132 123 216
133 122 216
133 122 216
134 121 216
135 120 216
135 120 216
136 119 216
136 119 216
137 118 216
138 117 216
138 117 216
139 116 216
140 115 216
140 115 216
141 114 216
142 113 216
142 113 216
143 112 216
143 111 216
144 111 216
145 110 216
145 110 216
146 109 216
147 108 216
147 108 216
148 107 216
149 106 216
149 106 216
150 105 216
151 104 216
151 104 216
152 103 216
152 103 216
153 102 216
154 101 216
154 101 216
155 100 216
156 99 216
156 99 216
157 98 216
158 97 216
158 97 216
159 96 216
159 95 216
160 95 216
161 94 216
161 94 216
162 93 216
163 92 216
163 92 216
164 91 216
165 90 216
165 90 216
166 89 216
167 88 216
167 88 216
168 87 216
168 87 216
169 86 216
170 85 216
170 85 216
171 84 216
172 83 216
172 83 216
173 82 216
174 81 216
174 81 216
175 80 216
175 79 216
176 79 216
177 78 216
177 78 216
178 77 216
179 76 216
179 76 216
180 75 216
181 74 216
181 74 216
182 73 216
183 72 216
183 72 216
184 71 216
184 71 216
185 70 216
186 69 216
186 69 216
187 68 216
188 67 216
188 67 216
189 66 216
190 65 216
190 65 216
191 64 216
191 63 216
192 63 216
193 62 216
193 62 216
194 61 216
195 60 216
195 60 216
196 59 216
197 58 216
197 58 216
198 57 216
199 56 216
199 56 216
200 55 216
200 55 216
201 54 216
202 53 216
202 53 216
203 52 216
204 51 216
204 51 216
205 50 216
206 49 216
206 49 216
207 48 216
207 47 216
208 47 216
209 46 216
209 46 216
210 45 216
211 44 216
211 44 216
212 43 216
213 42 216
213 42 216
214 41 216
215 40 216
215 40 216
216 39 216
216 39 216
217 38 216
218 37 216
218 37 216
219 36 216
220 35 216
220 35 216
221 34 216
222 33 216
222 33 216
223 32 216
223 31 216
224 31 216
225 30 216
225 30 216
226 29 216
227 28 216
227 28 216
228 27 216
229 26 216
229 26 216
230 25 216
231 24 216
231 24 216
232 23 216
232 23 216
233 22 216
234 21 216
234 21 216
235 20 216
236 19 216
236 19 216
237 18 216
238 17 216
238 17 216
239 16 216
239 15 216
240 15 216
241 14 216
241 14 216
242 13 216
243 12 216
243 12 216
244 11 216
245 10 216
245 10 216
246 9 216
247 8 216
247 8 216
248 7 216
248 7 216
249 6 216
250 5 216
250 5 216
251 4 216
252 3 216
252 3 216
253 2 216
254 1 216
254 1 216
255 0 216
0 255 217
0 255 217
1 254 217
1 254 217
2 253 217
3 252 217
3 252 217
4 251 217
5 250 217
5 250 217
6 249 217
7 248 217
7 248 217
8 247 217
8 247 217
9 246 217
10 245 217
10 245 217
11 244 217
12 243 217
12 243 217
13 242 217
14 241 217
14 241 217
15 240 217
15 239 217
16 239 217
17 238 217
17 238 217
18 237 217
19 236 217
19 236 217
20 235 217
21 234 217
21 234 217
22 233 217
23 232 217
23 232 217
24 231 217
24 231 217
25 230 217
26 229 217
26 229 217
27 228 217
28 227 217
28 227 217
29 226 217
30 225 217
30 225 217
31 224 217
31 223 217
32 223 217
33 222 217
33 222 217
34 221 217
35 220 217
35 220 217
36 219 217
37 218 217
37 218 217
38 217 217
39 216 217
39 216 217
40 215 217
40 215 217
41 214 217
42 213 217
42 213 217
43 212 217
44 211 217
44 211 217
45 210 217
46 209 217
46 209 217
47 208 217
47 207 217
48 207 217
49 206 217
49 206 217
50 205 217
51 204 217
51 204 217
52 203 217
53 202 217
53 202 217
54 201 217
55 200 217
55 200 217
56 199 217
56 199 217
57 198 217
58 197 217
58 197 217
59 196 217
60 195 217
60 195 217
61 194 217
62 193 217
62 193 217
63 192 217
63 191 217
64 191 217
65 190 217
65 190 217
66 189 217
67 188 217
67 188 217
68 187 217
69 186 217
69 186 217
70 185 217
71 184 217
71 184 217
72 183 217
72 183 217
73 182 217
74 181 217
74 181 217
75 180 217
76 179 217
76 179 217
77 178 217
78 177 217
78 177 217
79 176 217
79 175 217
80 175 217
81 174 217
81 174 217
82 173 217
83 172 217
83 172 217
84 171 217
85 170 217
85 170 217
86 169 217
87 168 217
87 168 217
88 167 217
88 167 217
89 166 217
90 165 217
90 165 217
91 164 217
92 163 217
92 163 217
93 162 217
94 161 217
94 161 217
95 160 217
95 159 217
96 159 217
97 158 217
97 158 217
98 157 217
99 156 217
99 156 217
100 155 217
101 154 217
101 154 217
102 153 217
103 152 217
103 152 217
104 151 217
104 151 217
105 150 217
106 149 217
106 149 217
107 148 217
108 147 217
108 147 217
109 146 217
110 145 217
110 145 217
111 144 217
111 143 217
112 143 217
113 142 217
113 142 217
114 141 217
115 140 217
115 140 217
116 139 217
117 138 217
117 138 217
118 137 217
119 136 217
119 136 217
120 135 217
120 135 217
121 134 217
122 133 217
122 133 217
123 132 217
124 131 217
124 131 217
125 130 217
126 129 217
126 129 217
127 128 217
127 127 217
128 127 217
129 126 217
129 126 217
130 125 217
131 124 217
131 124 217
132 123 217
133 122 217
133 122 217
134 121 217
135 120 217
135 120 217
136 119 217
136 119 217
137 118 217
138 117 217
138 117 217
139 116 217
140 115 217
140 115 217
141 114 217
142 113 217
142 113 217
143 112 217
143 111 217
144 111 217
145 110 217
145 110 217
146 109 217
147 108 217
147 108 217
148 107 217
149 106 217
149 106 217
150 105 217
151 104 217
151 104 217
152 103 217
152 103 217
153 102 217
154 101 217
154 101 217
155 100 217
156 99 217
156 99 217
157 98 217
158 97 217
158 97 217
159 96 217
159 95 217
160 95 217
161 94 217
161 94 217
162 93 217
163 92 217
163 92 217
164 91 217
165 90 217
165 90 217
166 89 217
167 88 217
167 88 217
168 87 217
168 87 217
169 86 217
170 85 217
170 85 217
171 84 217
172 83 217
172 83 217
173 82 217
174 81 217
174 81 217
175 80 217
175 79 217
176 79 217
177 78 217
177 78 217
178 77 217
179 76 217
179 76 217
180 75 217
181 74 217
181 74 217
182 73 217
183 72 217
183 72 217
184 71 217
184 71 217
185 70 217
186 69 217
186 69 217
187 68 217
188 67 217
188 67 217
189 66 217
190 65 217
190 65 217
191 64 217
191 63 217
192 63 217
193 62 217
193 62 217
194 61 217
195 60 217
195 60 217
196 59 217
197 58 217
197 58 217
198 57 217
199 56 217
199 56 217
200 55 217
200 55 217
201 54 217
202 53 217
202 53 217
203 52 217
204 51 217
204 51 217
205 50 217
206 49 217
206 49 217
207 48 217
207 47 217
208 47 217
209 46 217
209 46 217
210 45 217
211 44 217
211 44 217
212 43 217
213 42 217
213 42 217
214 41 217
215 40 217
215 40 217
216 39 217
216 39 217
217 38 217
218 37 217
218 37 217
219 36 217
220 35 217
220 35 217
221 34 217
222 33 217
222 33 217
223 32 217
223 31 217
224 31 217
225 30 217
225 30 217
226 29 217
227 28 217
227 28 217
228 27 217
229 26 217
229 26 217
230 25 217
231 24 217
231 24 217
232 23 217
232 23 217
233 22 217
234 21 217
234 21 217
235 20 217
236 19 217
236 19 217
237 18 217
238 17 217
238 17 217
239 16 217
239 15 217
240 15 217
241 14 217
241 14 217
242 13 217
243 12 217
243 12 217
244 11 217
245 10 217
245 10 217
246 9 217
247 8 217
247 8 217
248 7 217
248 7 217
249 6 217
250 5 217
250 5 217
251 4 217
252 3 217
252 3 217
253 2 217
254 1 217
254 1 217
255 0 217
0 255 218
0 255 218
1 254 218
1 254 218
2 253 218
3 252 218
3 252 218
4 251 218
5 250 218
5 250 218
6 249 218
7 248 218
7 248 218
8 247 218
8 247 218
9 246 218
10 245 218
10 245 218
11 244 218
12 243 218
12 243 218
13 242 218
14 241 218
14 241 218
15 240 218
15 239 218
16 239 218
17 238 218
17 238 218
18 237 218
19 236 218
19 236 218
20 235 218
21 234 218
21 234 218
22 233 218
23 232 218
23 232 218
24 231 218
24 231 218
25 230 218
26 229 218
26 229 218
27 228 218
28 227 218
28 227 218
29 226 218
30 225 218
30 225 218
31 224 218
31 223 218
32 223 218
33 222 218
33 222 218
34 221 218
35 220 218
35 220 218
36 219 218
37 218 218
37 218 218
38 217 218
39 216 218
39 216 218
40 215 218
40 215 218
41 214 218
42 213 218
42 213 218
43 212 218
44 211 218
44 211 218
45 210 218
46 209 218
46 209 218
47 208 218
47 207 218
48 207 218
49 206 218
49 206 218
50 205 218
51 204 218
51 204 218
52 203 218
53 202 218
53 202 218
54 201 218
55 200 218
55 200 218
56 199 218
56 199 218
57 198 218
58 197 218
58 197 218
59 196 218
60 195 218
60 195 218
61 194 218
62 193 218
62 193 218
63 192 218
63 191 218
64 191 218
65 190 218
65 190 218
66 189 218
67 188 218
67 188 218
68 187 218
69 186 218
69 186 218
70 185 218
71 184 218
71 184 218
72 183 218
72 183 218
73 182 218
74 181 218
74 181 218
75 180 218
76 179 218
76 179 218
77 178 218
78 177 218
78 177 218
79 176 218
79 175 218
80 175 218
81 174 218
81 174 218
82 173 218
83 172 218
83 172 218
84 171 218
85 170 218
85 170 218
86 169 218
87 168 218
87 168 218
88 167 218
88 167 218
89 166 218
90 165 218
90 165 218
91 164 218
92 163 218
92 163 218
93 162 218
94 161 218
94 161 218
95 160 218
95 159 218
96 159 218
97 158 218
97 158 218
98 157 218
99 156 218
99 156 218
100 155 218
101 154 218
101 154 218
102 153 218
103 152 218
103 152 218
104 151 218
104 151 218
105 150 218
106 149 218
106 149 218
107 148 218
108 147 218
108 147 218
109 146 218
110 145 218
110 145 218
111 144 218
111 143 218
112 143 218
113 142 218
113 142 218
114 141 218
115 140 218
115 140 218
116 139 218
117 138 218
117 138 218
118 137 218
119 136 218
119 136 218
120 135 218
120 135 218
121 134 218
122 133 218
122 133 218
123 132 218
124 131 218
124 131 218
125 130 218
126 129 218
126 129 218
127 128 218
127 127 218
128 127 218
129 126 218
129 126 218
130 125 218
131 124 218
131 124 218
132 123 218
133 122 218
133 122 218
134 121 218
135 120 218
135 120 218
136 119 218
136 119 218
137 118 218
138 117 218
138 117 218
139 116 218
140 115 218
140 115 218
141 114 218
142 113 218
142 113 218
143 112 218
143 111 218
144 111 218
145 110 218
145 110 218
146 109 218
147 108 218
147 108 218
148 107 218
149 106 218
149 106 218
150 105 218
151 104 218
151 104 218
152 103 218
152 103 218
153 102 218
154 101 218
154 101 218
155 100 218
156 99 218
156 99 218
157 98 218
158 97 218
158 97 218
159 96 218
159 95 218
160 95 218
161 94 218
161 94 218
162 93 218
163 92 218
163 92 218
164 91 218
165 90 218
165 90 218
166 89 218
167 88 218
167 88 218
168 87 218
168 87 218
169 86 218
170 85 218
170 85 218
171 84 218
172 83 218
172 83 218
173 82 218
174 81 218
174 81 218
175 80 218
175 79 218
176 79 218
177 78 218
177 78 218
178 77 218
179 76 218
179 76 218
180 75 218
181 74 218
181 74 218
182 73 218
183 72 218
183 72 218
184 71 218
184 71 218
185 70 218
186 69 218
186 69 218
187 68 218
188 67 218
188 67 218
189 66 218
190 65 218
190 65 218
191 64 218
191 63 218
192 63 218
193 62 218
193 62 218
194 61 218
195 60 218
195 60 218
196 59 218
197 58 218
197 58 218
198 57 218
199 56 218
199 56 218
200 55 218
200 55 218
201 54 218
202 53 218
202 53 218
203 52 218
204 51 218
204 51 218
205 50 218
206 49 218
206 49 218
207 48 218
207 47 218
208 47 218
209 46 218
209 46 218
210 45 218
211 44 218
211 44 218
212 43 218
213 42 218
213 42 218
214 41 218
215 40 218
215 40 218
216 39 218
216 39 218
217 38 218
218 37 218
218 37 218
219 36 218
220 35 218
220 35 218
221 34 218
222 33 218
222 33 218
223 32 218
223 31 218
224 31 218
225 30 218
225 30 218
226 29 218
227 28 218
227 28 218
228 27 218
229 26 218
229 26 218
230 25 218
231 24 218
231 24 218
232 23 218
232 23 218
233 22 218
234 21 218
234 21 218
235 20 218
236 19 218
236 19 218
237 18 218
238 17 218
238 17 218
239 16 218
239 15 218
240 15 218
241 14 218
241 14 218
242 13 218
243 12 218
243 12 218
244 11 218
245 10 218
245 10 218
246 9 218
247 8 218
247 8 218
248 7 218
248 7 218
249 6 218
250 5 218
250 5 218
251 4 218
252 3 218
252 3 218
253 2 218
254 1 218
254 1 218
255 0 218
0 255 219
0 255 219
1 254 219
1 254 219
2 253 219
3 252 219
3 252 219
4 251 219
5 250 219
5 250 219
6 249 219
7 248 219
7 248 219
8 247 219
8 247 219
9 246 219
10 245 219
10 245 219
11 244 219
12 243 219
12 243 219
13 242 219
14 241 219
14 241 219
15 240 219
15 239 219
16 239 219
17 238 219
17 238 219
18 237 219
19 236 219
19 236 219
20 235 219
21 234 219
21 234 219
22 233 219
23 232 219
23 232 219
24 231 219
24 231 219
25 230 219
26 229 219
26 229 219
27 228 219
28 227 219
28 227 219
29 226 219
30 225 219
30 225 219
31 224 219
31 223 219
32 223 219
33 222 219
33 222 219
34 221 219
35 220 219
35 220 219
36 219 219
37 218 219
37 218 219
38 217 219
39 216 219
39 216 219
40 215 219
40 215 219
41 214 219
42 213 219
42 213 219
43 212 219
44 211 219
44 211 219
45 210 219
46 209 219
46 209 219
47 208 219
47 207 219
48 207 219
49 206 219
49 206 219
50 205 219
51 204 219
51 204 219
52 203 219
53 202 219
53 202 219
54 201 219
55 200 219
55 200 219
56 199 219
56 199 219
57 198 219
58 197 219
58 197 219
59 196 219
60 195 219
60 195 219
61 194 219
62 193 219
62 193 219
63 192 219
63 191 219
64 191 219
65 190 219
65 190 219
66 189 219
67 188 219
67 188 219
68 187 219
69 186 219
69 186 219
70 185 219
71 184 219
71 184 219
72 183 219
72 183 219
73 182 219
74 181 219
74 181 219
75 180 219
76 179 219
76 179 219
77 178 219
78 177 219
78 177 219
79 176 219
79 175 219
80 175 219
81 174 219
81 174 219
82 173 219
83 172 219
83 172 219
84 171 219
85 170 219
85 170 219
86 169 219
87 168 219
87 168 219
88 167 219
88 167 219
89 166 219
90 165 219
90 165 219
91 164 219
92 163 219
92 163 219
93 162 219
94 161 219
94 161 219
95 160 219
95 159 219
96 159 219
97 158 219
97 158 219
98 157 219
99 156 219
99 156 219
100 155 219
101 154 219
101 154 219
102 153 219
103 152 219
103 152 219
104 151 219
104 151 219
105 150 219
106 149 219
106 149 219
107 148 219
108 147 219
108 147 219
109 146 219
110 145 219
110 145 219
111 144 219
111 143 219
112 143 219
113 142 219
113 142 219
114 141 219
115 140 219
115 140 219
116 139 219
117 138 219
117 138 219
118 137 219
119 136 219
119 136 219
120 135 219
120 135 219
121 134 219
122 133 219
122 133 219
123 132 219
124 131 219
124 131 219
125 130 219
126 129 219
126 129 219
127 128 219
127 127 219
128 127 219
129 126 219
129 126 219
130 125 219
131 124 219
131 124 219
132 123 219
133 122 219
133 122 219
134 121 219
135 120 219
135 120 219
136 119 219
136 119 219
137 118 219
138 117 219
138 117 219
139 116 219
140 115 219
140 115 219
141 114 219
142 113 219
142 113 219
143 112 219
143 111 219
144 111 219
145 110 219
145 110 219
146 109 219
147 108 219
147 108 219
148 107 219
149 106 219
149 106 219
150 105 219
151 104 219
151 104 219
152 103 219
152 103 219
153 102 219
154 101 219
154 101 219
155 100 219
156 99 219
156 99 219
157 98 219
158 97 219
158 97 219
159 96 219
159 95 219
160 95 219
161 94 219
161 94 219
162 93 219
163 92 219
163 92 219
164 91 219
165 90 219
165 90 219
166 89 219
167 88 219
167 88 219
168 87 219
168 87 219
169 86 219
170 85 219
170 85 219
171 84 219
172 83 219
172 83 219
173 82 219
174 81 219
174 81 219
175 80 219
175 79 219
176 79 219
177 78 219
177 78 219
178 77 219
179 76 219
179 76 219
180 75 219
181 74 219
181 74 219
182 73 219
183 72 219
183 72 219
184 71 219
184 71 219
185 70 219
186 69 219
186 69 219
187 68 219
188 67 219
188 67 219
189 66 219
190 65 219
190 65 219
191 64 219
191 63 219
192 63 219
193 62 219
193 62 219
194 61 219
195 60 219
195 60 219
196 59 219
197 58 219
197 58 219
198 57 219
199 56 219
199 56 219
200 55 219
200 55 219
201 54 219
202 53 219
202 53 219
203 52 219
204 51 219
204 51 219
205 50 219
206 49 219
206 49 219
207 48 219
207 47 219
208 47 219
209 46 219
209 46 219
210 45 219
211 44 219
211 44 219
212 43 219
213 42 219
213 42 219
214 41 219
215 40 219
215 40 219
216 39 219
216 39 219
217 38 219
218 37 219
218 37 219
219 36 219
220 35 219
220 35 219
221 34 219
222 33 219
222 33 219
223 32 219
223 31 219
224 31 219
225 30 219
225 30 219
226 29 219
227 28 219
227 28 219
228 27 219
229 26 219
229 26 219
230 25 219
231 24 219
231 24 219
232 23 219
232 23 219
233 22 219
234 21 219
234 21 219
235 20 219
236 19 219
236 19 219
237 18 219
238 17 219
238 17 219
239 16 219
239 15 219
240 15 219
241 14 219
241 14 219
242 13 219
243 12 219
243 12 219
244 11 219
245 10 219
245 10 219
246 9 219
247 8 219
247 8 219
248 7 219
248 7 219
249 6 219
250 5 219
250 5 219
251 4 219
252 3 219
252 3 219
253 2 219
254 1 219
254 1 219
255 0 219
0 255 220
0 255 220
1 254 220
1 254 220
2 253 220
3 252 220
3 252 220
4 251 220
5 250 220
5 250 220
6 249 220
7 248 220
7 248 220
8 247 220
8 247 220
9 246 220
10 245 220
10 245 220
11 244 220
12 243 220
12 243 220
13 242 220
14 241 220
14 241 220
15 240 220
15 239 220
16 239 220
17 238 220
17 238 220
18 237 220
19 236 220
19 236 220
20 235 220
21 234 220
21 234 220
22 233 220
23 232 220
23 232 220
24 231 220
24 231 220
25 230 220
26 229 220
26 229 220
27 228 220
28 227 220
28 227 220
29 226 220
30 225 220
30 225 220
31 224 220
31 223 220
32 223 220
33 222 220
33 222 220
34 221 220
35 220 220
35 220 220
36 219 220
37 218 220
37 218 220
38 217 220
39 216 220
39 216 220
40 215 220
40 215 220
41 214 220
42 213 220
42 213 220
43 212 220
44 211 220
44 211 220
45 210 220
46 209 220
46 209 220
47 208 220
47 207 220
48 207 220
49 206 220
49 206 220
50 205 220
51 204 220
51 204 220
52 203 220
53 202 220
53 202 220
54 201 220
55 200 220
55 200 220
56 199 220
56 199 220
57 198 220
58 197 220
58 197 220
59 196 220
60 195 220
60 195 220
61 194 220
62 193 220
62 193 220
63 192 220
63 191 220
64 191 220
65 190 220
65 190 220
66 189 220
67 188 220
67 188 220
68 187 220
69 186 220
69 186 220
70 185 220
71 184 220
71 184 220
72 183 220
72 183 220
73 182 220
74 181 220
74 181 220
75 180 220
76 179 220
76 179 220
77 178 220
78 177 220
78 177 220
79 176 220
79 175 220
80 175 220
81 174 220
81 174 220
82 173 220
83 172 220
83 172 220
84 171 220
85 170 220
85 170 220
86 169 220
87 168 220
87 168 220
88 167 220
88 167 220
89 166 220
90 165 220
90 165 220
91 164 220
92 163 220
92 163 220
93 162 220
94 161 220
94 161 220
95 160 220
95 159 220
96 159 220
97 158 220
97 158 220
98 157 220
99 156 220
99 156 220
100 155 220
101 154 220
101 154 220
102 153 220
103 152 220
103 152 220
104 151 220
104 151 220
105 150 220
106 149 220
106 149 220
107 148 220
108 147 220
108 147 220
109 146 220
110 145 220
110 145 220
111 144 220
111 143 220
112 143 220
113 142 220
113 142 220
114 141 220
115 140 220
115 140 220
116 139 220
117 138 220
117 138 220
118 137 220
119 136 220
119 136 220
120 135 220
120 135 220
121 134 220
122 133 220
122 133 220
123 132 220
124 131 220
124 131 220
125 130 220
126 129 220
126 129 220
127 128 220
127 127 220
128 127 220
129 126 220
129 126 220
130 125 220
131 124 220
131 124 220
132 123 220
133 122 220
133 122 220
134 121 220
135 120 220
135 120 220
136 119 220
136 119 220
137 118 220
138 117 220
138 117 220
139 116 220
140 115 220
140 115 220
141 114 220
142 113 220
142 113 220
143 112 220
143 111 220
144 111 220
145 110 220
145 110 220
146 109 220
147 108 220
147 108 220
148 107 220
149 106 220
149 106 220
150 105 220
151 104 220
151 104 220
152 103 220
152 103 220
153 102 220
154 101 220
154 101 220
155 100 220
156 99 220
156 99 220
157 98 220
158 97 220
158 97 220
159 96 220
159 95 220
160 95 220
161 94 220
161 94 220
162 93 220
163 92 220
163 92 220
164 91 220
165 90 220
165 90 220
166 89 220
167 88 220
167 88 220
168 87 220
168 87 220
169 86 220
170 85 220
170 85 220
171 84 220
172 83 220
172 83 220
173 82 220
174 81 220
174 81 220
175 80 220
175 79 220
176 79 220
177 78 220
177 78 220
178 77 220
179 76 220
179 76 220
180 75 220
181 74 220
181 74 220
182 73 220
183 72 220
183 72 220
184 71 220
184 71 220
185 70 220
186 69 220
186 69 220
187 68 220
188 67 220
188 67 220
189 66 220
190 65 220
190 65 220
191 64 220
191 63 220
192 63 220
193 62 220
193 62 220
194 61 220
195 60 220
195 60 220
196 59 220
197 58 220
197 58 220
198 57 220
199 56 220
199 56 220
200 55 220
200 55 220
201 54 220
202 53 220
202 53 220
203 52 220
204 51 220
204 51 220
205 50 220
206 49 220
206 49 220
207 48 220
207 47 220
208 47 220
209 46 220
209 46 220
210 45 220
211 44 220
211 44 220
212 43 220
213 42 220
213 42 220
214 41 220
215 40 220
215 40 220
216 39 220
216 39 220
217 38 220
218 37 220
218 37 220
219 36 220
220 35 220
220 35 220
221 34 220
222 33 220
222 33 220
223 32 220
223 31 220
224 31 220
225 30 220
225 30 220
226 29 220
227 28 220
227 28 220
228 27 220
229 26 220
229 26 220
230 25 220
231 24 220
231 24 220
232 23 220
232 23 220
233 22 220
234 21 220
234 21 220
235 20 220
236 19 220
236 19 220
237 18 220
238 17 220
238 17 220
239 16 220
239 15 220
240 15 220
241 14 220
241 14 220
242 13 220
243 12 220
243 12 220
244 11 220
245 10 220
245 10 220
246 9 220
247 8 220
247 8 220
248 7 220
248 7 220
249 6 220
250 5 220
250 5 220
251 4 220
252 3 220
252 3 220
253 2 220
254 1 220
254 1 220
255 0 220
0 255 221
0 255 221
1 254 221
1 254 221
2 253 221
3 252 221
3 252 221
4 251 221
5 250 221
5 250 221
6 249 221
7 248 221
7 248 221
8 247 221
8 247 221
9 246 221
10 245 221
10 245 221
11 244 221
12 243 221
12 243 221
13 242 221
14 241 221
14 241 221
15 240 221
15 239 221
16 239 221
17 238 221
17 238 221
18 237 221
19 236 221
19 236 221
20 235 221
21 234 221
21 234 221
22 233 221
23 232 221
23 232 221
24 231 221
24 231 221
25 230 221
26 229 221
26 229 221
27 228 221
28 227 221
28 227 221
29 226 221
30 225 221
30 225 221
31 224 221
31 223 221
32 223 221
33 222 221
33 222 221
34 221 221
35 220 221
35 220 221
36 219 221
37 218 221
37 218 221
38 217 221
39 216 221
39 216 221
40 215 221
40 215 221
41 214 221
42 213 221
42 213 221
43 212 221
44 211 221
44 211 221
45 210 221
46 209 221
46 209 221
47 208 221
47 207 221
48 207 221
49 206 221
49 206 221
50 205 221
51 204 221
51 204 221
52 203 221
53 202 221
53 202 221
54 201 221
55 200 221
55 200 221
56 199 221
56 199 221
57 198 221
58 197 221
58 197 221
59 196 221
60 195 221
60 195 221
61 194 221
62 193 221
62 193 221
63 192 221
63 191 221
64 191 221
65 190 221
65 190 221
66 189 221
67 188 221
67 188 221
68 187 221
69 186 221
69 186 221
70 185 221
71 184 221
71 184 221
72 183 221
72 183 221
73 182 221
74 181 221
74 181 221
75 180 221
76 179 221
76 179 221
77 178 221
78 177 221
78 177 221
79 176 221
79 175 221
80 175 221
81 174 221
81 174 221
82 173 221
83 172 221
83 172 221
84 171 221
85 170 221
85 170 221
86 169 221
87 168 221
87 168 221
88 167 221
88 167 221
89 166 221
90 165 221
90 165 221
91 164 221
92 163 221
92 163 221
93 162 221
94 161 221
94 161 221
95 160 221
95 159 221
96 159 221
97 158 221
97 158 221
98 157 221
99 156 221
99 156 221
100 155 221
101 154 221
101 154 221
102 153 221
103 152 221
103 152 221
104 151 221
104 151 221
105 150 221
106 149 221
106 149 221
107 148 221
108 147 221
108 147 221
109 146 221
110 145 221
110 145 221
111 144 221
111 143 221
112 143 221
113 142 221
113 142 221
114 141 221
115 140 221
115 140 221
116 139 221
117 138 221
117 138 221
118 137 221
119 136 221
119 136 221
120 135 221
120 135 221
121 134 221
122 133 221
122 133 221
123 132 221
124 131 221
124 131 221
125 130 221
126 129 221
126 129 221
127 128 221
127 127 221
128 127 221
129 126 221
129 126 221
130 125 221
131 124 221
131 124 221
132 123 221
133 122 221
133 122 221
134 121 221
135 120 221
135 120 221
136 119 221
136 119 221
137 118 221
138 117 221
138 117 221
139 116 221
140 115 221
140 115 221
141 114 221
142 113 221
142 113 221
143 112 221
143 111 221
144 111 221
145 110 221
145 110 221
146 109 221
147 108 221
147 108 221
148 107 221
149 106 221
149 106 221
150 105 221
151 104 221
151 104 221
152 103 221
152 103 221
153 102 221
154 101 221
154 101 221
155 100 221
156 99 221
156 99 221
157 98 221
158 97 221
158 97 221
159 96 221
159 95 221
160 95 221
161 94 221
161 94 221
162 93 221
163 92 221
163 92 221
164 91 221
165 90 221
165 90 221
166 89 221
167 88 221
167 88 221
168 87 221
168 87 221
169 86 221
170 85 221
170 85 221
171 84 221
172 83 221
172 83 221
173 82 221
174 81 221
174 81 221
175 80 221
175 79 221
176 79 221
177 78 221
177 78 221
178 77 221
179 76 221
179 76 221
180 75 221
181 74 221
181 74 221
182 73 221
183 72 221
183 72 221
184 71 221
184 71 221
185 70 221
186 69 221
186 69 221
187 68 221
188 67 221
188 67 221
189 66 221
190 65 221
190 65 221
191 64 221
191 63 221
192 63 221
193 62 221
193 62 221
194 61 221
195 60 221
195 60 221
196 59 221
197 58 221
197 58 221
198 57 221
199 56 221
199 56 221
200 55 221
200 55 221
201 54 221
202 53 221
202 53 221
203 52 221
204 51 221
204 51 221
205 50 221
206 49 221
206 49 221
207 48 221
207 47 221
208 47 221
209 46 221
209 46 221
210 45 221
211 44 221
211 44 221
212 43 221
213 42 221
213 42 221
214 41 221
215 40 221
215 40 221
216 39 221
216 39 221
217 38 221
218 37 221
218 37 221
219 36 221
220 35 221
220 35 221
221 34 221
222 33 221
222 33 221
223 32 221
223 31 221
224 31 221
225 30 221
225 30 221
226 29 221
227 28 221
227 28 221
228 27 221
229 26 221
229 26 221
230 25 221
231 24 221
231 24 221
232 23 221
232 23 221
233 22 221
234 21 221
234 21 221
235 20 221
236 19 221
236 19 221
237 18 221
238 17 221
238 17 221
239 16 221
239 15 221
240 15 221
241 14 221
241 14 221
242 13 221
243 12 221
243 12 221
244 11 221
245 10 221
245 10 221
246 9 221
247 8 221
247 8 221
248 7 221
248 7 221
249 6 221
250 5 221
250 5 221
251 4 221
252 3 221
252 3 221
253 2 221
254 1 221
254 1 221
255 0 221
0 255 223
0 255 223
1 254 223
1 254 223
2 253 223
3 252 223
3 252 223
4 251 223
5 250 223
5 250 223
6 249 223
7 248 223
7 248 223
8 247 223
8 247 223
9 246 223
10 245 223
10 245 223
11 244 223
12 243 223
12 243 223
13 242 223
14 241 223
14 241 223
15 240 223
15 239 223
16 239 223
17 238 223
17 238 223
18 237 223
19 236 223
19 236 223
20 235 223
21 234 223
21 234 223
22 233 223
23 232 223
23 232 223
24 231 223
24 231 223
25 230 223
26 229 223
26 229 223
27 228 223
28 227 223
28 227 223
29 226 223
30 225 223
30 225 223
31 224 223
31 223 223
32 223 223
33 222 223
33 222 223
34 221 223
35 220 223
35 220 223
36 219 223
37 218 223
37 218 223
38 217 223
39 216 223
39 216 223
40 215 223
40 215 223
41 214 223
42 213 223
42 213 223
43 212 223
44 211 223
44 211 223
45 210 223
46 209 223
46 209 223
47 208 223
47 207 223
48 207 223
49 206 223
49 206 223
50 205 223
51 204 223
51 204 223
52 203 223
53 202 223
53 202 223
54 201 223
55 200 223
55 200 223
56 199 223
56 199 223
57 198 223
58 197 223
58 197 223
59 196 223
60 195 223
60 195 223
61 194 223
62 193 223
62 193 223
63 192 223
63 191 223
64 191 223
65 190 223
65 190 223
66 189 223
67 188 223
67 188 223
68 187 223
69 186 223
69 186 223
70 185 223
71 184 223
71 184 223
72 183 223
72 183 223
73 182 223
74 181 223
74 181 223
75 180 223
76 179 223
76 179 223
77 178 223
78 177 223
78 177 223
79 176 223
79 175 223
80 175 223
81 174 223
81 174 223
82 173 223
83 172 223
83 172 223
84 171 223
85 170 223
85 170 223
86 169 223
87 168 223
87 168 223
88 167 223
88 167 223
89 166 223
90 165 223
90 165 223
91 164 223
92 163 223
92 163 223
93 162 223
94 161 223
94 161 223
95 160 223
95 159 223
96 159 223
97 158 223
97 158 223
98 157 223
99 156 223
99 156 223
100 155 223
101 154 223
101 154 223
102 153 223
103 152 223
103 152 223
104 151 223
104 151 223
105 150 223
106 149 223
106 149 223
107 148 223
108 147 223
108 147 223
109 146 223
110 145 223
110 145 223
111 144 223
111 143 223
112 143 223
113 142 223
113 142 223
114 141 223
115 140 223
115 140 223
116 139 223
117 138 223
117 138 223
118 137 223
119 136 223
119 136 223
120 135 223
120 135 223
121 134 223
122 133 223
122 133 223
123 132 223
124 131 223
124 131 223
125 130 223
126 129 223
126 129 223
127 128 223
127 127 223
128 127 223
129 126 223
129 126 223
130 125 223
131 124 223
131 124 223
132 123 223
133 122 223
133 122 223
134 121 223
135 120 223
135 120 223
136 119 223
136 119 223
137 118 223
138 117 223
138 117 223
139 116 223
140 115 223
140 115 223
141 114 223
142 113 223
142 113 223
143 112 223
143 111 223
144 111 223
145 110 223
145 110 223
146 109 223
147 108 223
147 108 223
148 107 223
149 106 223
149 106 223
150 105 223
151 104 223
151 104 223
152 103 223
152 103 223
153 102 223
154 101 223
154 101 223
155 100 223
156 99 223
156 99 223
157 98 223
158 97 223
158 97 223
159 96 223
159 95 223
160 95 223
161 94 223
161 94 223
162 93 223
163 92 223
163 92 223
164 91 223
165 90 223
165 90 223
166 89 223
167 88 223
167 88 223
168 87 223
168 87 223
169 86 223
170 85 223
170 85 223
171 84 223
172 83 223
172 83 223
173 82 223
174 81 223
174 81 223
175 80 223
175 79 223
176 79 223
177 78 223
177 78 223
178 77 223
179 76 223
179 76 223
180 75 223
181 74 223
181 74 223
182 73 223
183 72 223
183 72 223
184 71 223
184 71 223
185 70 223
186 69 223
186 69 223
187 68 223
188 67 223
188 67 223
189 66 223
190 65 223
190 65 223
191 64 223
191 63 223
192 63 223
193 62 223
193 62 223
194 61 223
195 60 223
195 60 223
196 59 223
197 58 223
197 58 223
198 57 223
199 56 223
199 56 223
200 55 223
200 55 223
201 54 223
202 53 223
202 53 223
203 52 223
204 51 223
204 51 223
205 50 223
206 49 223
206 49 223
207 48 223
207 47 223
208 47 223
209 46 223
209 46 223
210 45 223
211 44 223
211 44 223
212 43 223
213 42 223
213 42 223
214 41 223
215 40 223
215 40 223
216 39 223
216 39 223
217 38 223
218 37 223
218 37 223
219 36 223
220 35 223
220 35 223
221 34 223
222 33 223
222 33 223
223 32 223
223 31 223
224 31 223
225 30 223
225 30 223
226 29 223
227 28 223
227 28 223
228 27 223
229 26 223
229 26 223
230 25 223
231 24 223
231 24 223
232 23 223
232 23 223
233 22 223
234 21 223
234 21 223
235 20 223
236 19 223
236 19 223
237 18 223
238 17 223
238 17 223
239 16 223
239 15 223
240 15 223
241 14 223
241 14 223
242 13 223
243 12 223
243 12 223
244 11 223
245 10 223
245 10 223
246 9 223
247 8 223
247 8 223
248 7 223
248 7 223
249 6 223
250 5 223
250 5 223
251 4 223
252 3 223
252 3 223
253 2 223
254 1 223
254 1 223
255 0 223
0 255 224
0 255 224
1 254 224
1 254 224
2 253 224
3 252 224
3 252 224
4 251 224
5 250 224
5 250 224
6 249 224
7 248 224
7 248 224
8 247 224
8 247 224
9 246 224
10 245 224
10 245 224
11 244 224
12 243 224
12 243 224
13 242 224
14 241 224
14 241 224
15 240 224
15 239 224
16 239 224
17 238 224
17 238 224
18 237 224
19 236 224
19 236 224
20 235 224
21 234 224
21 234 224
22 233 224
23 232 224
23 232 224
24 231 224
24 231 224
25 230 224
26 229 224
26 229 224
27 228 224
28 227 224
28 227 224
29 226 224
30 225 224
30 225 224
31 224 224
31 223 224
32 223 224
33 222 224
33 222 224
34 221 224
35 220 224
35 220 224
36 219 224
37 218 224
37 218 224
38 217 224
39 216 224
39 216 224
40 215 224
40 215 224
41 214 224
42 213 224
42 213 224
43 212 224
44 211 224
44 211 224
45 210 224
46 209 224
46 209 224
47 208 224
47 207 224
48 207 224
49 206 224
49 206 224
50 205 224
51 204 224
51 204 224
52 203 224
53 202 224
53 202 224
54 201 224
55 200 224
55 200 224
56 199 224
56 199 224
57 198 224
58 197 224
58 197 224
59 196 224
60 195 224
60 195 224
61 194 224
62 193 224
62 193 224
63 192 224
63 191 224
64 191 224
65 190 224
65 190 224
66 189 224
67 188 224
67 188 224
68 187 224
69 186 224
69 186 224
70 185 224
71 184 224
71 184 224
72 183 224
72 183 224
73 182 224
74 181 224
74 181 224
75 180 224
76 179 224
76 179 224
77 178 224
78 177 224
78 177 224
79 176 224
79 175 224
80 175 224
81 174 224
81 174 224
82 173 224
83 172 224
83 172 224
84 171 224
85 170 224
85 170 224
86 169 224
87 168 224
87 168 224
88 167 224
88 167 224
89 166 224
90 165 224
90 165 224
91 164 224
92 163 224
92 163 224
93 162 224
94 161 224
94 161 224
95 160 224
95 159 224
96 159 224
97 158 224
97 158 224
98 157 224
99 156 224
99 156 224
100 155 224
101 154 224
101 154 224
102 153 224
103 152 224
103 152 224
104 151 224
104 151 224
105 150 224
106 149 224
106 149 224
107 148 224
108 147 224
108 147 224
109 146 224
110 145 224
110 145 224
111 144 224
111 143 224
112 143 224
113 142 224
113 142 224
114 141 224
115 140 224
115 140 224
116 139 224
117 138 224
117 138 224
118 137 224
119 136 224
119 136 224
120 135 224
120 135 224
121 134 224
122 133 224
122 133 224
123 132 224
124 131 224
124 131 224
125 130 224
126 129 224
126 129 224
127 128 224
127 127 224
128 127 224
129 126 224
129 126 224
130 125 224
131 124 224
131 124 224
132 123 224
133 122 224
133 122 224
134 121 224
135 120 224
135 120 224
136 119 224
136 119 224
137 118 224
138 117 224
138 117 224
139 116 224
140 115 224
140 115 224
141 114 224
142 113 224
142 113 224
143 112 224
143 111 224
144 111 224
145 110 224
145 110 224
146 109 224
147 108 224
147 108 224
148 107 224
149 106 224
149 106 224
150 105 224
151 104 224
151 104 224
152 103 224
152 103 224
153 102 224
154 101 224
154 101 224
155 100 224
156 99 224
156 99 224
157 98 224
158 97 224
158 97 224
159 96 224
159 95 224
160 95 224
161 94 224
161 94 224
162 93 224
163 92 224
163 92 224
164 91 224
165 90 224
165 90 224
166 89 224
167 88 224
167 88 224
168 87 224
168 87 224
169 86 224
170 85 224
170 85 224
171 84 224
172 83 224
172 83 224
173 82 224
174 81 224
174 81 224
175 80 224
175 79 224
176 79 224
177 78 224
177 78 224
178 77 224
179 76 224
179 76 224
180 75 224
181 74 224
181 74 224
182 73 224
183 72 224
183 72 224
184 71 224
184 71 224
185 70 224
186 69 224
186 69 224
187 68 224
188 67 224
188 67 224
189 66 224
190 65 224
190 65 224
191 64 224
191 63 224
192 63 224
193 62 224
193 62 224
194 61 224
195 60 224
195 60 224
196 59 224
197 58 224
197 58 224
198 57 224
199 56 224
199 56 224
200 55 224
200 55 224
201 54 224
202 53 224
202 53 224
203 52 224
204 51 224
204 51 224
205 50 224
206 49 224
206 49 224
207 48 224
207 47 224
208 47 224
209 46 224
209 46 224
210 45 224
211 44 224
211 44 224
212 43 224
213 42 224
213 42 224
214 41 224
215 40 224
215 40 224
216 39 224
216 39 224
217 38 224
218 37 224
218 37 224
219 36 224
220 35 224
220 35 224
221 34 224
222 33 224
222 33 224
223 32 224
223 31 224
224 31 224
225 30 224
225 30 224
226 29 224
227 28 224
227 28 224
228 27 224
229 26 224
229 26 224
230 25 224
231 24 224
231 24 224
232 23 224
232 23 224
233 22 224
234 21 224
234 21 224
235 20 224
236 19 224
236 19 224
237 18 224
238 17 224
238 17 224
239 16 224
239 15 224
240 15 224
241 14 224
241 14 224
242 13 224
243 12 224
243 12 224
244 11 224
245 10 224
245 10 224
246 9 224
247 8 224
247 8 224
248 7 224
248 7 224
249 6 224
250 5 224
250 5 224
251 4 224
252 3 224
252 3 224
253 2 224
254 1 224
254 1 224
255 0 224
0 255 225
0 255 225
1 254 225
1 254 225
2 253 225
3 252 225
3 252 225
4 251 225
5 250 225
5 250 225
6 249 225
7 248 225
7 248 225
8 247 225
8 247 225
9 246 225
10 245 225
10 245 225
11 244 225
12 243 225
12 243 225
13 242 225
14 241 225
14 241 225
15 240 225
15 239 225
16 239 225
17 238 225
17 238 225
18 237 225
19 236 225
19 236 225
20 235 225
21 234 225
21 234 225
22 233 225
23 232 225
23 232 225
24 231 225
24 231 225
25 230 225
26 229 225
26 229 225
27 228 225
28 227 225
28 227 225
29 226 225
30 225 225
30 225 225
31 224 225
31 223 225
32 223 225
33 222 225
33 222 225
34 221 225
35 220 225
35 220 225
36 219 225
37 218 225
37 218 225
38 217 225
39 216 225
39 216 225
40 215 225
40 215 225
41 214 225
42 213 225
42 213 225
43 212 225
44 211 225
44 211 225
45 210 225
46 209 225
46 209 225
47 208 225
47 207 225
48 207 225
49 206 225
49 206 225
50 205 225
51 204 225
51 204 225
52 203 225
53 202 225
53 202 225
54 201 225
55 200 225
55 200 225
56 199 225
56 199 225
57 198 225
58 197 225
58 197 225
59 196 225
60 195 225
60 195 225
61 194 225
62 193 225
62 193 225
63 192 225
63 191 225
64 191 225
65 190 225
65 190 225
66 189 225
67 188 225
67 188 225
68 187 225
69 186 225
69 186 225
70 185 225
71 184 225
71 184 225
72 183 225
72 183 225
73 182 225
74 181 225
74 181 225
75 180 225
76 179 225
76 179 225
77 178 225
78 177 225
78 177 225
79 176 225
79 175 225
80 175 225
81 174 225
81 174 225
82 173 225
83 172 225
83 172 225
84 171 225
85 170 225
85 170 225
86 169 225
87 168 225
87 168 225
88 167 225
88 167 225
89 166 225
90 165 225
90 165 225
91 164 225
92 163 225
92 163 225
93 162 225
94 161 225
94 161 225
95 160 225
95 159 225
96 159 225
97 158 225
97 158 225
98 157 225
99 156 225
99 156 225
100 155 225
101 154 225
101 154 225
102 153 225
103 152 225
103 152 225
104 151 225
104 151 225
105 150 225
106 149 225
106 149 225
107 148 225
108 147 225
108 147 225
109 146 225
110 145 225
110 145 225
111 144 225
111 143 225
112 143 225
113 142 225
113 142 225
114 141 225
115 140 225
115 140 225
116 139 225
117 138 225
117 138 225
118 137 225
119 136 225
119 136 225
120 135 225
120 135 225
121 134 225
122 133 225
122 133 225
123 132 225
124 131 225
124 131 225
125 130 225
126 129 225
126 129 225
127 128 225
127 127 225
128 127 225
129 126 225
129 126 225
130 125 225
131 124 225
131 124 225
132 123 225
133 122 225
133 122 225
134 121 225
135 120 225
135 120 225
136 119 225
136 119 225
137 118 225
138 117 225
138 117 225
139 116 225
140 115 225
140 115 225
141 114 225
142 113 225
142 113 225
143 112 225
143 111 225
144 111 225
145 110 225
145 110 225
146 109 225
147 108 225
147 108 225
148 107 225
149 106 225
149 106 225
150 105 225
151 104 225
151 104 225
152 103 225
152 103 225
153 102 225
154 101 225
154 101 225
155 100 225
156 99 225
156 99 225
157 98 225
158 97 225
158 97 225
159 96 225
159 95 225
160 95 225
161 94 225
161 94 225
162 93 225
163 92 225
163 92 225
164 91 225
165 90 225
165 90 225
166 89 225
167 88 225
167 88 225
168 87 225
168 87 225
169 86 225
170 85 225
170 85 225
171 84 225
172 83 225
172 83 225
173 82 225
174 81 225
174 81 225
175 80 225
175 79 225
176 79 225
177 78 225
177 78 225
178 77 225
179 76 225
179 76 225
180 75 225
181 74 225
181 74 225
182 73 225
183 72 225
183 72 225
184 71 225
184 71 225
185 70 225
186 69 225
186 69 225
187 68 225
188 67 225
188 67 225
189 66 225
190 65 225
190 65 225
191 64 225
191 63 225
192 63 225
193 62 225
193 62 225
194 61 225
195 60 225
195 60 225
196 59 225
197 58 225
197 58 225
198 57 225
199 56 225
199 56 225
200 55 225
200 55 225
201 54 225
202 53 225
202 53 225
203 52 225
204 51 225
204 51 225
205 50 225
206 49 225
206 49 225
207 48 225
207 47 225
208 47 225
209 46 225
209 46 225
210 45 225
211 44 225
211 44 225
212 43 225
213 42 225
213 42 225
214 41 225
215 40 225
215 40 225
216 39 225
216 39 225
217 38 225
218 37 225
218 37 225
219 36 225
220 35 225
220 35 225
221 34 225
222 33 225
222 33 225
223 32 225
223 31 225
224 31 225
225 30 225
225 30 225
226 29 225
227 28 225
227 28 225
228 27 225
229 26 225
229 26 225
230 25 225
231 24 225
231 24 225
232 23 225
232 23 225
233 22 225
234 21 225
234 21 225
235 20 225
236 19 225
236 19 225
237 18 225
238 17 225
238 17 225
239 16 225
239 15 225
240 15 225
241 14 225
241 14 225
242 13 225
243 12 225
243 12 225
244 11 225
245 10 225
245 10 225
246 9 225
247 8 225
247 8 225
248 7 225
248 7 225
249 6 225
250 5 225
250 5 225
251 4 225
252 3 225
252 3 225
253 2 225
254 1 225
254 1 225
255 0 225
0 255 226
0 255 226
1 254 226
1 254 226
2 253 226
3 252 226
3 252 226
4 251 226
5 250 226
5 250 226
6 249 226
7 248 226
7 248 226
8 247 226
8 247 226
9 246 226
10 245 226
10 245 226
11 244 226
12 243 226
12 243 226
13 242 226
14 241 226
14 241 226
15 240 226
15 239 226
16 239 226
17 238 226
17 238 226
18 237 226
19 236 226
19 236 226
20 235 226
21 234 226
21 234 226
22 233 226
23 232 226
23 232 226
24 231 226
24 231 226
25 230 226
26 229 226
26 229 226
27 228 226
28 227 226
28 227 226
29 226 226
30 225 226
30 225 226
31 224 226
31 223 226
32 223 226
33 222 226
33 222 226
34 221 226
35 220 226
35 220 226
36 219 226
37 218 226
37 218 226
38 217 226
39 216 226
39 216 226
40 215 226
40 215 226
41 214 226
42 213 226
42 213 226
43 212 226
44 211 226
44 211 226
45 210 226
46 209 226
46 209 226
47 208 226
47 207 226
48 207 226
49 206 226
49 206 226
50 205 226
51 204 226
51 204 226
52 203 226
53 202 226
53 202 226
54 201 226
55 200 226
55 200 226
56 199 226
56 199 226
57 198 226
58 197 226
58 197 226
59 196 226
60 195 226
60 195 226
61 194 226
62 193 226
62 193 226
63 192 226
63 191 226
64 191 226
65 190 226
65 190 226
66 189 226
67 188 226
67 188 226
68 187 226
69 186 226
69 186 226
70 185 226
71 184 226
71 184 226
72 183 226
72 183 226
73 182 226
74 181 226
74 181 226
75 180 226
76 179 226
76 179 226
77 178 226
78 177 226
78 177 226
79 176 226
79 175 226
80 175 226
81 174 226
81 174 226
82 173 226
83 172 226
83 172 226
84 171 226
85 170 226
85 170 226
86 169 226
87 168 226
87 168 226
88 167 226
88 167 226
89 166 226
90 165 226
90 165 226
91 164 226
92 163 226
92 163 226
93 162 226
94 161 226
94 161 226
95 160 226
95 159 226
96 159 226
97 158 226
97 158 226
98 157 226
99 156 226
99 156 226
100 155 226
101 154 226
101 154 226
102 153 226
103 152 226
103 152 226
104 151 226
104 151 226
105 150 226
106 149 226
106 149 226
107 148 226
108 147 226
108 147 226
109 146 226
110 145 226
110 145 226
111 144 226
111 143 226
112 143 226
113 142 226
113 142 226
114 141 226
115 140 226
115 140 226
116 139 226
117 138 226
117 138 226
118 137 226
119 136 226
119 136 226
120 135 226
120 135 226
121 134 226
122 133 226
122 133 226
123 132 226
124 131 226
124 131 226
125 130 226
126 129 226
126 129 226
127 128 226
127 127 226
128 127 226
129 126 226
129 126 226
130 125 226
131 124 226
131 124 226
132 123 226
133 122 226
133 122 226
134 121 226
135 120 226
135 120 226
136 119 226
136 119 226
137 118 226
138 117 226
138 117 226
139 116 226
140 115 226
140 115 226
141 114 226
142 113 226
142 113 226
143 112 226
143 111 226
144 111 226
145 110 226
145 110 226
146 109 226
147 108 226
147 108 226
148 107 226
149 106 226
149 106 226
150 105 226
151 104 226
151 104 226
152 103 226
152 103 226
153 102 226
154 101 226
154 101 226
155 100 226
156 99 226
156 99 226
157 98 226
158 97 226
158 97 226
159 96 226
159 95 226
160 95 226
161 94 226
161 94 226
162 93 226
163 92 226
163 92 226
164 91 226
165 90 226
165 90 226
166 89 226
167 88 226
167 88 226
168 87 226
168 87 226
169 86 226
170 85 226
170 85 226
171 84 226
172 83 226
172 83 226
173 82 226
174 81 226
174 81 226
175 80 226
175 79 226
176 79 226
177 78 226
177 78 226
178 77 226
179 76 226
179 76 226
180 75 226
181 74 226
181 74 226
182 73 226
183 72 226
183 72 226
184 71 226
184 71 226
185 70 226
186 69 226
186 69 226
187 68 226
188 67 226
188 67 226
189 66 226
190 65 226
190 65 226
191 64 226
191 63 226
192 63 226
193 62 226
193 62 226
194 61 226
195 60 226
195 60 226
196 59 226
197 58 226
197 58 226
198 57 226
199 56 226
199 56 226
200 55 226
200 55 226
201 54 226
202 53 226
202 53 226
203 52 226
204 51 226
204 51 226
205 50 226
206 49 226
206 49 226
207 48 226
207 47 226
208 47 226
209 46 226
209 46 226
210 45 226
211 44 226
211 44 226
212 43 226
213 42 226
213 42 226
214 41 226
215 40 226
215 40 226
216 39 226
216 39 226
217 38 226
218 37 226
218 37 226
219 36 226
220 35 226
220 35 226
221 34 226
222 33 226
222 33 226
223 32 226
223 31 226
224 31 226
225 30 226
225 30 226
226 29 226
227 28 226
227 28 226
228 27 226
229 26 226
229 26 226
230 25 226
231 24 226
231 24 226
232 23 226
232 23 226
233 22 226
234 21 226
234 21 226
235 20 226
236 19 226
236 19 226
237 18 226
238 17 226
238 17 226
239 16 226
239 15 226
240 15 226
241 14 226
241 14 226
242 13 226
243 12 226
243 12 226
244 11 226
245 10 226
245 10 226
246 9 226
247 8 226
247 8 226
248 7 226
248 7 226
249 6 226
250 5 226
250 5 226
251 4 226
252 3 226
252 3 226
253 2 226
254 1 226
254 1 226
255 0 226
0 255 227
0 255 227
1 254 227
1 254 227
2 253 227
3 252 227
3 252 227
4 251 227
5 250 227
5 250 227
6 249 227
7 248 227
7 248 227
8 247 227
8 247 227
9 246 227
10 245 227
10 245 227
11 244 227
12 243 227
12 243 227
13 242 227
14 241 227
14 241 227
15 240 227
15 239 227
16 239 227
17 238 227
17 238 227
18 237 227
19 236 227
19 236 227
20 235 227
21 234 227
21 234 227
22 233 227
23 232 227
23 232 227
24 231 227
24 231 227
25 230 227
26 229 227
26 229 227
27 228 227
28 227 227
28 227 227
29 226 227
30 225 227
30 225 227
31 224 227
31 223 227
32 223 227
33 222 227
33 222 227
34 221 227
35 220 227
35 220 227
36 219 227
37 218 227
37 218 227
38 217 227
39 216 227
39 216 227
40 215 227
40 215 227
41 214 227
42 213 227
42 213 227
43 212 227
44 211 227
44 211 227
45 210 227
46 209 227
46 209 227
47 208 227
47 207 227
48 207 227
49 206 227
49 206 227
50 205 227
51 204 227
51 204 227
52 203 227
53 202 227
53 202 227
54 201 227
55 200 227
55 200 227
56 199 227
56 199 227
57 198 227
58 197 227
58 197 227
59 196 227
60 195 227
60 195 227
61 194 227
62 193 227
62 193 227
63 192 227
63 191 227
64 191 227
65 190 227
65 190 227
66 189 227
67 188 227
67 188 227
68 187 227
69 186 227
69 186 227
70 185 227
71 184 227
71 184 227
72 183 227
72 183 227
73 182 227
74 181 227
74 181 227
75 180 227
76 179 227
76 179 227
77 178 227
78 177 227
78 177 227
79 176 227
79 175 227
80 175 227
81 174 227
81 174 227
82 173 227
83 172 227
83 172 227
84 171 227
85 170 227
85 170 227
86 169 227
87 168 227
87 168 227
88 167 227
88 167 227
89 166 227
90 165 227
90 165 227
91 164 227
92 163 227
92 163 227
93 162 227
94 161 227
94 161 227
95 160 227
95 159 227
96 159 227
97 158 227
97 158 227
98 157 227
99 156 227
99 156 227
100 155 227
101 154 227
101 154 227
102 153 227
103 152 227
103 152 227
104 151 227
104 151 227
105 150 227
106 149 227
106 149 227
107 148 227
108 147 227
108 147 227
109 146 227
110 145 227
110 145 227
111 144 227
111 143 227
112 143 227
113 142 227
113 142 227
114 141 227
115 140 227
115 140 227
116 139 227
117 138 227
117 138 227
118 137 227
119 136 227
119 136 227
120 135 227
120 135 227
121 134 227
122 133 227
122 133 227
123 132 227
124 131 227
124 131 227
125 130 227
126 129 227
126 129 227
127 128 227
127 127 227
128 127 227
129 126 227
129 126 227
130 125 227
131 124 227
131 124 227
132 123 227
133 122 227
133 122 227
134 121 227
135 120 227
135 120 227
136 119 227
136 119 227
137 118 227
138 117 227
138 117 227
139 116 227
140 115 227
140 115 227
141 114 227
142 113 227
142 113 227
143 112 227
143 111 227
144 111 227
145 110 227
145 110 227
146 109 227
147 108 227
147 108 227
148 107 227
149 106 227
149 106 227
150 105 227
151 104 227
151 104 227
152 103 227
152 103 227
153 102 227
154 101 227
154 101 227
155 100 227
156 99 227
156 99 227
157 98 227
158 97 227
158 97 227
159 96 227
159 95 227
160 95 227
161 94 227
161 94 227
162 93 227
163 92 227
163 92 227
164 91 227
165 90 227
165 90 227
166 89 227
167 88 227
167 88 227
168 87 227
168 87 227
169 86 227
170 85 227
170 85 227
171 84 227
172 83 227
172 83 227
173 82 227
174 81 227
174 81 227
175 80 227
175 79 227
176 79 227
177 78 227
177 78 227
178 77 227
179 76 227
179 76 227
180 75 227
181 74 227
181 74 227
182 73 227
183 72 227
183 72 227
184 71 227
184 71 227
185 70 227
186 69 227
186 69 227
187 68 227
188 67 227
188 67 227
189 66 227
190 65 227
190 65 227
191 64 227
191 63 227
192 63 227
193 62 227
193 62 227
194 61 227
195 60 227
195 60 227
196 59 227
197 58 227
197 58 227
198 57 227
199 56 227
199 56 227
200 55 227
200 55 227
201 54 227
202 53 227
202 53 227
203 52 227
204 51 227
204 51 227
205 50 227
206 49 227
206 49 227
207 48 227
207 47 227
208 47 227
209 46 227
209 46 227
210 45 227
211 44 227
211 44 227
212 43 227
213 42 227
213 42 227
214 41 227
215 40 227
215 40 227
216 39 227
216 39 227
217 38 227
218 37 227
218 37 227
219 36 227
220 35 227
220 35 227
221 34 227
222 33 227
222 33 227
223 32 227
223 31 227
224 31 227
225 30 227
225 30 227
226 29 227
227 28 227
227 28 227
228 27 227
229 26 227
229 26 227
230 25 227
231 24 227
231 24 227
232 23 227
232 23 227
233 22 227
234 21 227
234 21 227
235 20 227
236 19 227
236 19 227
237 18 227
238 17 227
238 17 227
239 16 227
239 15 227
240 15 227
241 14 227
241 14 227
242 13 227
243 12 227
243 12 227
244 11 227
245 10 227
245 10 227
246 9 227
247 8 227
247 8 227
248 7 227
248 7 227
249 6 227
250 5 227
250 5 227
251 4 227
252 3 227
252 3 227
253 2 227
254 1 227
254 1 227
255 0 227
0 255 228
0 255 228
1 254 228
1 254 228
2 253 228
3 252 228
3 252 228
4 251 228
5 250 228
5 250 228
6 249 228
7 248 228
7 248 228
8 247 228
8 247 228
9 246 228
10 245 228
10 245 228
11 244 228
12 243 228
12 243 228
13 242 228
14 241 228
14 241 228
15 240 228
15 239 228
16 239 228
17 238 228
17 238 228
18 237 228
19 236 228
19 236 228
20 235 228
21 234 228
21 234 228
22 233 228
23 232 228
23 232 228
24 231 228
24 231 228
25 230 228
26 229 228
26 229 228
27 228 228
28 227 228
28 227 228
29 226 228
30 225 228
30 225 228
31 224 228
31 223 228
32 223 228
33 222 228
33 222 228
34 221 228
35 220 228
35 220 228
36 219 228
37 218 228
37 218 228
38 217 228
39 216 228
39 216 228
40 215 228
40 215 228
41 214 228
42 213 228
42 213 228
43 212 228
44 211 228
44 211 228
45 210 228
46 209 228
46 209 228
47 208 228
47 207 228
48 207 228
49 206 228
49 206 228
50 205 228
51 204 228
51 204 228
52 203 228
53 202 228
53 202 228
54 201 228
55 200 228
55 200 228
56 199 228
56 199 228
57 198 228
58 197 228
58 197 228
59 196 228
60 195 228
60 195 228
61 194 228
62 193 228
62 193 228
63 192 228
63 191 228
64 191 228
65 190 228
65 190 228
66 189 228
67 188 228
67 188 228
68 187 228
69 186 228
69 186 228
70 185 228
71 184 228
71 184 228
72 183 228
72 183 228
73 182 228
74 181 228
74 181 228
75 180 228
76 179 228
76 179 228
77 178 228
78 177 228
78 177 228
79 176 228
79 175 228
80 175 228
81 174 228
81 174 228
82 173 228
83 172 228
83 172 228
84 171 228
85 170 228
85 170 228
86 169 228
87 168 228
87 168 228
88 167 228
88 167 228
89 166 228
90 165 228
90 165 228
91 164 228
92 163 228
92 163 228
93 162 228
94 161 228
94 161 228
95 160 228
95 159 228
96 159 228
97 158 228
97 158 228
98 157 228
99 156 228
99 156 228
100 155 228
101 154 228
101 154 228
102 153 228
103 152 228
103 152 228
104 151 228
104 151 228
105 150 228
106 149 228
106 149 228
107 148 228
108 147 228
108 147 228
109 146 228
110 145 228
110 145 228
111 144 228
111 143 228
112 143 228
113 142 228
113 142 228
114 141 228
115 140 228
115 140 228
116 139 228
117 138 228
117 138 228
118 137 228
119 136 228
119 136 228
120 135 228
120 135 228
121 134 228
122 133 228
122 133 228
123 132 228
124 131 228
124 131 228
125 130 228
126 129 228
126 129 228
127 128 228
127 127 228
128 127 228
129 126 228
129 126 228
130 125 228
131 124 228
131 124 228
132 123 228
133 122 228
133 122 228
134 121 228
135 120 228
135 120 228
136 119 228
136 119 228
137 118 228
138 117 228
138 117 228
139 116 228
140 115 228
140 115 228
141 114 228
142 113 228
142 113 228
143 112 228
143 111 228
144 111 228
145 110 228
145 110 228
146 109 228
147 108 228
147 108 228
148 107 228
149 106 228
149 106 228
150 105 228
151 104 228
151 104 228
152 103 228
152 103 228
153 102 228
154 101 228
154 101 228
155 100 228
156 99 228
156 99 228
157 98 228
158 97 228
158 97 228
159 96 228
159 95 228
160 95 228
161 94 228
161 94 228
162 93 228
163 92 228
163 92 228
164 91 228
165 90 228
165 90 228
166 89 228
167 88 228
167 88 228
168 87 228
168 87 228
169 86 228
170 85 228
170 85 228
171 84 228
172 83 228
172 83 228
173 82 228
174 81 228
174 81 228
175 80 228
175 79 228
176 79 228
177 78 228
177 78 228
178 77 228
179 76 228
179 76 228
180 75 228
181 74 228
181 74 228
182 73 228
183 72 228
183 72 228
184 71 228
184 71 228
185 70 228
186 69 228
186 69 228
187 68 228
188 67 228
188 67 228
189 66 228
190 65 228
190 65 228
191 64 228
191 63 228
192 63 228
193 62 228
193 62 228
194 61 228
195 60 228
195 60 228
196 59 228
197 58 228
197 58 228
198 57 228
199 56 228
199 56 228
200 55 228
200 55 228
201 54 228
202 53 228
202 53 228
203 52 228
204 51 228
204 51 228
205 50 228
206 49 228
206 49 228
207 48 228
207 47 228
208 47 228
209 46 228
209 46 228
210 45 228
211 44 228
211 44 228
212 43 228
213 42 228
213 42 228
214 41 228
215 40 228
215 40 228
216 39 228
216 39 228
217 38 228
218 37 228
218 37 228
219 36 228
220 35 228
220 35 228
221 34 228
222 33 228
222 33 228
223 32 228
223 31 228
224 31 228
225 30 228
225 30 228
226 29 228
227 28 228
227 28 228
228 27 228
229 26 228
229 26 228
230 25 228
231 24 228
231 24 228
232 23 228
232 23 228
233 22 228
234 21 228
234 21 228
235 20 228
236 19 228
236 19 228
237 18 228
238 17 228
238 17 228
239 16 228
239 15 228
240 15 228
241 14 228
241 14 228
242 13 228
243 12 228
243 12 228
244 11 228
245 10 228
245 10 228
246 9 228
247 8 228
247 8 228
248 7 228
248 7 228
249 6 228
250 5 228
250 5 228
251 4 228
252 3 228
252 3 228
253 2 228
254 1 228
254 1 228
255 0 228
0 255 229
0 255 229
1 254 229
1 254 229
2 253 229
3 252 229
3 252 229
4 251 229
5 250 229
5 250 229
6 249 229
7 248 229
7 248 229
8 247 229
8 247 229
9 246 229
10 245 229
10 245 229
11 244 229
12 243 229
12 243 229
13 242 229
14 241 229
14 241 229
15 240 229
15 239 229
16 239 229
17 238 229
17 238 229
18 237 229
19 236 229
19 236 229
20 235 229
21 234 229
21 234 229
22 233 229
23 232 229
23 232 229
24 231 229
24 231 229
25 230 229
26 229 229
26 229 229
27 228 229
28 227 229
28 227 229
29 226 229
30 225 229
30 225 229
31 224 229
31 223 229
32 223 229
33 222 229
33 222 229
34 221 229
35 220 229
35 220 229
36 219 229
37 218 229
37 218 229
38 217 229
39 216 229
39 216 229
40 215 229
40 215 229
41 214 229
42 213 229
42 213 229
43 212 229
44 211 229
44 211 229
45 210 229
46 209 229
46 209 229
47 208 229
47 207 229
48 207 229
49 206 229
49 206 229
50 205 229
51 204 229
51 204 229
52 203 229
53 202 229
53 202 229
54 201 229
55 200 229
55 200 229
56 199 229
56 199 229
57 198 229
58 197 229
58 197 229
59 196 229
60 195 229
60 195 229
61 194 229
62 193 229
62 193 229
63 192 229
63 191 229
64 191 229
65 190 229
65 190 229
66 189 229
67 188 229
67 188 229
68 187 229
69 186 229
69 186 229
70 185 229
71 184 229
71 184 229
72 183 229
72 183 229
73 182 229
74 181 229
74 181 229
75 180 229
76 179 229
76 179 229
77 178 229
78 177 229
78 177 229
79 176 229
79 175 229
80 175 229
81 174 229
81 174 229
82 173 229
83 172 229
83 172 229
84 171 229
85 170 229
85 170 229
86 169 229
87 168 229
87 168 229
88 167 229
88 167 229
89 166 229
90 165 229
90 165 229
91 164 229
92 163 229
92 163 229
93 162 229
94 161 229
94 161 229
95 160 229
95 159 229
96 159 229
97 158 229
97 158 229
98 157 229
99 156 229
99 156 229
100 155 229
101 154 229
101 154 229
102 153 229
103 152 229
103 152 229
104 151 229
104 151 229
105 150 229
106 149 229
106 149 229
107 148 229
108 147 229
108 147 229
109 146 229
110 145 229
110 145 229
111 144 229
111 143 229
112 143 229
113 142 229
113 142 229
114 141 229
115 140 229
115 140 229
116 139 229
117 138 229
117 138 229
118 137 229
119 136 229
119 136 229
120 135 229
120 135 229
121 134 229
122 133 229
122 133 229
123 132 229
124 131 229
124 131 229
125 130 229
126 129 229
126 129 229
127 128 229
127 127 229
128 127 229
129 126 229
129 126 229
130 125 229
131 124 229
131 124 229
132 123 229
133 122 229
133 122 229
134 121 229
135 120 229
135 120 229
136 119 229
136 119 229
137 118 229
138 117 229
138 117 229
139 116 229
140 115 229
140 115 229
141 114 229
142 113 229
142 113 229
143 112 229
143 111 229
144 111 229
145 110 229
145 110 229
146 109 229
147 108 229
147 108 229
148 107 229
149 106 229
149 106 229
150 105 229
151 104 229
151 104 229
152 103 229
152 103 229
153 102 229
154 101 229
154 101 229
155 100 229
156 99 229
156 99 229
157 98 229
158 97 229
158 97 229
159 96 229
159 95 229
160 95 229
161 94 229
161 94 229
162 93 229
163 92 229
163 92 229
164 91 229
165 90 229
165 90 229
166 89 229
167 88 229
167 88 229
168 87 229
168 87 229
169 86 229
170 85 229
170 85 229
171 84 229
172 83 229
172 83 229
173 82 229
174 81 229
174 81 229
175 80 229
175 79 229
176 79 229
177 78 229
177 78 229
178 77 229
179 76 229
179 76 229
180 75 229
181 74 229
181 74 229
182 73 229
183 72 229
183 72 229
184 71 229
184 71 229
185 70 229
186 69 229
186 69 229
187 68 229
188 67 229
188 67 229
189 66 229
190 65 229
190 65 229
191 64 229
191 63 229
192 63 229
193 62 229
193 62 229
194 61 229
195 60 229
195 60 229
196 59 229
197 58 229
197 58 229
198 57 229
199 56 229
199 56 229
200 55 229
200 55 229
201 54 229
202 53 229
202 53 229
203 52 229
204 51 229
204 51 229
205 50 229
206 49 229
206 49 229
207 48 229
207 47 229
208 47 229
209 46 229
209 46 229
210 45 229
211 44 229
211 44 229
212 43 229
213 42 229
213 42 229
214 41 229
215 40 229
215 40 229
216 39 229
216 39 229
217 38 229
218 37 229
218 37 229
219 36 229
220 35 229
220 35 229
221 34 229
222 33 229
222 33 229
223 32 229
223 31 229
224 31 229
225 30 229
225 30 229
226 29 229
227 28 229
227 28 229
228 27 229
229 26 229
229 26 229
230 25 229
231 24 229
231 24 229
232 23 229
232 23 229
233 22 229
234 21 229
234 21 229
235 20 229
236 19 229
236 19 229
237 18 229
238 17 229
238 17 229
239 16 229
239 15 229
240 15 229
241 14 229
241 14 229
242 13 229
243 12 229
243 12 229
244 11 229
245 10 229
245 10 229
246 9 229
247 8 229
247 8 229
248 7 229
248 7 229
249 6 229
250 5 229
250 5 229
251 4 229
252 3 229
252 3 229
253 2 229
254 1 229
254 1 229
255 0 229
0 255 230
0 255 230
1 254 230
1 254 230
2 253 230
3 252 230
3 252 230
4 251 230
5 250 230
5 250 230
6 249 230
7 248 230
7 248 230
8 247 230
8 247 230
9 246 230
10 245 230
10 245 230
11 244 230
12 243 230
12 243 230
13 242 230
14 241 230
14 241 230
15 240 230
15 239 230
16 239 230
17 238 230
17 238 230
18 237 230
19 236 230
19 236 230
20 235 230
21 234 230
21 234 230
22 233 230
23 232 230
23 232 230
24 231 230
24 231 230
25 230 230
26 229 230
26 229 230
27 228 230
28 227 230
28 227 230
29 226 230
30 225 230
30 225 230
31 224 230
31 223 230
32 223 230
33 222 230
33 222 230
34 221 230
35 220 230
35 220 230
36 219 230
37 218 230
37 218 230
38 217 230
39 216 230
39 216 230
40 215 230
40 215 230
41 214 230
42 213 230
42 213 230
43 212 230
44 211 230
44 211 230
45 210 230
46 209 230
46 209 230
47 208 230
47 207 230
48 207 230
49 206 230
49 206 230
50 205 230
51 204 230
51 204 230
52 203 230
53 202 230
53 202 230
54 201 230
55 200 230
55 200 230
56 199 230
56 199 230
57 198 230
58 197 230
58 197 230
59 196 230
60 195 230
60 195 230
61 194 230
62 193 230
62 193 230
63 192 230
63 191 230
64 191 230
65 190 230
65 190 230
66 189 230
67 188 230
67 188 230
68 187 230
69 186 230
69 186 230
70 185 230
71 184 230
71 184 230
72 183 230
72 183 230
73 182 230
74 181 230
74 181 230
75 180 230
76 179 230
76 179 230
77 178 230
78 177 230
78 177 230
79 176 230
79 175 230
80 175 230
81 174 230
81 174 230
82 173 230
83 172 230
83 172 230
84 171 230
85 170 230
85 170 230
86 169 230
87 168 230
87 168 230
88 167 230
88 167 230
89 166 230
90 165 230
90 165 230
91 164 230
92 163 230
92 163 230
93 162 230
94 161 230
94 161 230
95 160 230
95 159 230
96 159 230
97 158 230
97 158 230
98 157 230
99 156 230
99 156 230
100 155 230
101 154 230
101 154 230
102 153 230
103 152 230
103 152 230
104 151 230
104 151 230
105 150 230
106 149 230
106 149 230
107 148 230
108 147 230
108 147 230
109 146 230
110 145 230
110 145 230
111 144 230
111 143 230
112 143 230
113 142 230
113 142 230
114 141 230
115 140 230
115 140 230
116 139 230
117 138 230
117 138 230
118 137 230
119 136 230
119 136 230
120 135 230
120 135 230
121 134 230
122 133 230
122 133 230
123 132 230
124 131 230
124 131 230
125 130 230
126 129 230
126 129 230
127 128 230
127 127 230
128 127 230
129 126 230
129 126 230
130 125 230
131 124 230
131 124 230
132 123 230
133 122 230
133 122 230
134 121 230
135 120 230
135 120 230
136 119 230
136 119 230
137 118 230
138 117 230
138 117 230
139 116 230
140 115 230
140 115 230
141 114 230
142 113 230
142 113 230
143 112 230
143 111 230
144 111 230
145 110 230
145 110 230
146 109 230
147 108 230
147 108 230
148 107 230
149 106 230
149 106 230
150 105 230
151 104 230
151 104 230
152 103 230
152 103 230
153 102 230
154 101 230
154 101 230
155 100 230
156 99 230
156 99 230
157 98 230
158 97 230
158 97 230
159 96 230
159 95 230
160 95 230
161 94 230
161 94 230
162 93 230
163 92 230
163 92 230
164 91 230
165 90 230
165 90 230
166 89 230
167 88 230
167 88 230
168 87 230
168 87 230
169 86 230
170 85 230
170 85 230
171 84 230
172 83 230
172 83 230
173 82 230
174 81 230
174 81 230
175 80 230
175 79 230
176 79 230
177 78 230
177 78 230
178 77 230
179 76 230
179 76 230
180 75 230
181 74 230
181 74 230
182 73 230
183 72 230
183 72 230
184 71 230
184 71 230
185 70 230
186 69 230
186 69 230
187 68 230
188 67 230
188 67 230
189 66 230
190 65 230
190 65 230
191 64 230
191 63 230
192 63 230
193 62 230
193 62 230
194 61 230
195 60 230
195 60 230
196 59 230
197 58 230
197 58 230
198 57 230
199 56 230
199 56 230
200 55 230
200 55 230
201 54 230
202 53 230
202 53 230
203 52 230
204 51 230
204 51 230
205 50 230
206 49 230
206 49 230
207 48 230
207 47 230
208 47 230
209 46 230
209 46 230
210 45 230
211 44 230
211 44 230
212 43 230
213 42 230
213 42 230
214 41 230
215 40 230
215 40 230
216 39 230
216 39 230
217 38 230
218 37 230
218 37 230
219 36 230
220 35 230
220 35 230
221 34 230
222 33 230
222 33 230
223 32 230
223 31 230
224 31 230
225 30 230
225 30 230
226 29 230
227 28 230
227 28 230
228 27 230
229 26 230
229 26 230
230 25 230
231 24 230
231 24 230
232 23 230
232 23 230
233 22 230
234 21 230
234 21 230
235 20 230
236 19 230
236 19 230
237 18 230
238 17 230
238 17 230
239 16 230
239 15 230
240 15 230
241 14 230
241 14 230
242 13 230
243 12 230
243 12 230
244 11 230
245 10 230
245 10 230
246 9 230
247 8 230
247 8 230
248 7 230
248 7 230
249 6 230
250 5 230
250 5 230
251 4 230
252 3 230
252 3 230
253 2 230
254 1 230
254 1 230
255 0 230
0 255 232
0 255 232
1 254 232
1 254 232
2 253 232
3 252 232
3 252 232
4 251 232
5 250 232
5 250 232
6 249 232
7 248 232
7 248 232
8 247 232
8 247 232
9 246 232
10 245 232
10 245 232
11 244 232
12 243 232
12 243 232
13 242 232
14 241 232
14 241 232
15 240 232
15 239 232
16 239 232
17 238 232
17 238 232
18 237 232
19 236 232
19 236 232
20 235 232
21 234 232
21 234 232
22 233 232
23 232 232
23 232 232
24 231 232
24 231 232
25 230 232
26 229 232
26 229 232
27 228 232
28 227 232
28 227 232
29 226 232
30 225 232
30 225 232
31 224 232
31 223 232
32 223 232
33 222 232
33 222 232
34 221 232
35 220 232
35 220 232
36 219 232
37 218 232
37 218 232
38 217 232
39 216 232
39 216 232
40 215 232
40 215 232
41 214 232
42 213 232
42 213 232
43 212 232
44 211 232
44 211 232
45 210 232
46 209 232
46 209 232
47 208 232
47 207 232
48 207 232
49 206 232
49 206 232
50 205 232
51 204 232
51 204 232
52 203 232
53 202 232
53 202 232
54 201 232
55 200 232
55 200 232
56 199 232
56 199 232
57 198 232
58 197 232
58 197 232
59 196 232
60 195 232
60 195 232
61 194 232
62 193 232
62 193 232
63 192 232
63 191 232
64 191 232
65 190 232
65 190 232
66 189 232
67 188 232
67 188 232
68 187 232
69 186 232
69 186 232
70 185 232
71 184 232
71 184 232
72 183 232
72 183 232
73 182 232
74 181 232
74 181 232
75 180 232
76 179 232
76 179 232
77 178 232
78 177 232
78 177 232
79 176 232
79 175 232
80 175 232
81 174 232
81 174 232
82 173 232
83 172 232
83 172 232
84 171 232
85 170 232
85 170 232
86 169 232
87 168 232
87 168 232
88 167 232
88 167 232
89 166 232
90 165 232
90 165 232
91 164 232
92 163 232
92 163 232
93 162 232
94 161 232
94 161 232
95 160 232
95 159 232
96 159 232
97 158 232
97 158 232
98 157 232
99 156 232
99 156 232
100 155 232
101 154 232
101 154 232
102 153 232
103 152 232
103 152 232
104 151 232
104 151 232
105 150 232
106 149 232
106 149 232
107 148 232
108 147 232
108 147 232
109 146 232
110 145 232
110 145 232
111 144 232
111 143 232
112 143 232
113 142 232
113 142 232
114 141 232
115 140 232
115 140 232
116 139 232
117 138 232
117 138 232
118 137 232
119 136 232
119 136 232
120 135 232
120 135 232
121 134 232
122 133 232
122 133 232
123 132 232
124 131 232
124 131 232
125 130 232
126 129 232
126 129 232
127 128 232
127 127 232
128 127 232
129 126 232
129 126 232
130 125 232
131 124 232
131 124 232
132 123 232
133 122 232
133 122 232
134 121 232
135 120 232
135 120 232
136 119 232
136 119 232
137 118 232
138 117 232
138 117 232
139 116 232
140 115 232
140 115 232
141 114 232
142 113 232
142 113 232
143 112 232
143 111 232
144 111 232
145 110 232
145 110 232
146 109 232
147 108 232
147 108 232
148 107 232
149 106 232
149 106 232
150 105 232
151 104 232
151 104 232
152 103 232
152 103 232
153 102 232
154 101 232
154 101 232
155 100 232
156 99 232
156 99 232
157 98 232
158 97 232
158 97 232
159 96 232
159 95 232
160 95 232
161 94 232
161 94 232
162 93 232
163 92 232
163 92 232
164 91 232
165 90 232
165 90 232
166 89 232
167 88 232
167 88 232
168 87 232
168 87 232
169 86 232
170 85 232
170 85 232
171 84 232
172 83 232
172 83 232
173 82 232
174 81 232
174 81 232
175 80 232
175 79 232
176 79 232
177 78 232
177 78 232
178 77 232
179 76 232
179 76 232
180 75 232
181 74 232
181 74 232
182 73 232
183 72 232
183 72 232
184 71 232
184 71 232
185 70 232
186 69 232
186 69 232
187 68 232
188 67 232
188 67 232
189 66 232
190 65 232
190 65 232
191 64 232
191 63 232
192 63 232
193 62 232
193 62 232
194 61 232
195 60 232
195 60 232
196 59 232
197 58 232
197 58 232
198 57 232
199 56 232
199 56 232
200 55 232
200 55 232
201 54 232
202 53 232
202 53 232
203 52 232
204 51 232
204 51 232
205 50 232
206 49 232
206 49 232
207 48 232
207 47 232
208 47 232
209 46 232
209 46 232
210 45 232
211 44 232
211 44 232
212 43 232
213 42 232
213 42 232
214 41 232
215 40 232
215 40 232
216 39 232
216 39 232
217 38 232
218 37 232
218 37 232
219 36 232
220 35 232
220 35 232
221 34 232
222 33 232
222 33 232
223 32 232
223 31 232
224 31 232
225 30 232
225 30 232
226 29 232
227 28 232
227 28 232
228 27 232
229 26 232
229 26 232
230 25 232
231 24 232
231 24 232
232 23 232
232 23 232
233 22 232
234 21 232
234 21 232
235 20 232
236 19 232
236 19 232
237 18 232
238 17 232
238 17 232
239 16 232
239 15 232
240 15 232
241 14 232
241 14 232
242 13 232
243 12 232
243 12 232
244 11 232
245 10 232
245 10 232
246 9 232
247 8 232
247 8 232
248 7 232
248 7 232
249 6 232
250 5 232
250 5 232
251 4 232
252 3 232
252 3 232
253 2 232
254 1 232
254 1 232
255 0 232
0 255 233
0 255 233
1 254 233
1 254 233
2 253 233
3 252 233
3 252 233
4 251 233
5 250 233
5 250 233
6 249 233
7 248 233
7 248 233
8 247 233
8 247 233
9 246 233
10 245 233
10 245 233
11 244 233
12 243 233
12 243 233
13 242 233
14 241 233
14 241 233
15 240 233
15 239 233
16 239 233
17 238 233
17 238 233
18 237 233
19 236 233
19 236 233
20 235 233
21 234 233
21 234 233
22 233 233
23 232 233
23 232 233
24 231 233
24 231 233
25 230 233
26 229 233
26 229 233
27 228 233
28 227 233
28 227 233
29 226 233
30 225 233
30 225 233
31 224 233
31 223 233
32 223 233
33 222 233
33 222 233
34 221 233
35 220 233
35 220 233
36 219 233
37 218 233
37 218 233
38 217 233
39 216 233
39 216 233
40 215 233
40 215 233
41 214 233
42 213 233
42 213 233
43 212 233
44 211 233
44 211 233
45 210 233
46 209 233
46 209 233
47 208 233
47 207 233
48 207 233
49 206 233
49 206 233
50 205 233
51 204 233
51 204 233
52 203 233
53 202 233
53 202 233
54 201 233
55 200 233
55 200 233
56 199 233
56 199 233
57 198 233
58 197 233
58 197 233
59 196 233
60 195 233
60 195 233
61 194 233
62 193 233
62 193 233
63 192 233
63 191 233
64 191 233
65 190 233
65 190 233
66 189 233
67 188 233
67 188 233
68 187 233
69 186 233
69 186 233
70 185 233
71 184 233
71 184 233
72 183 233
72 183 233
73 182 233
74 181 233
74 181 233
75 180 233
76 179 233
76 179 233
77 178 233
78 177 233
78 177 233
79 176 233
79 175 233
80 175 233
81 174 233
81 174 233
82 173 233
83 172 233
83 172 233
84 171 233
85 170 233
85 170 233
86 169 233
87 168 233
87 168 233
88 167 233
88 167 233
89 166 233
90 165 233
90 165 233
91 164 233
92 163 233
92 163 233
93 162 233
94 161 233
94 161 233
95 160 233
95 159 233
96 159 233
97 158 233
97 158 233
98 157 233
99 156 233
99 156 233
100 155 233
101 154 233
101 154 233
102 153 233
103 152 233
103 152 233
104 151 233
104 151 233
105 150 233
106 149 233
106 149 233
107 148 233
108 147 233
108 147 233
109 146 233
110 145 233
110 145 233
111 144 233
111 143 233
112 143 233
113 142 233
113 142 233
114 141 233
115 140 233
115 140 233
116 139 233
117 138 233
117 138 233
118 137 233
119 136 233
119 136 233
120 135 233
120 135 233
121 134 233
122 133 233
122 133 233
123 132 233
124 131 233
124 131 233
125 130 233
126 129 233
126 129 233
127 128 233
127 127 233
128 127 233
129 126 233
129 126 233
130 125 233
131 124 233
131 124 233
132 123 233
133 122 233
133 122 233
134 121 233
135 120 233
135 120 233
136 119 233
136 119 233
137 118 233
138 117 233
138 117 233
139 116 233
140 115 233
140 115 233
141 114 233
142 113 233
142 113 233
143 112 233
143 111 233
144 111 233
145 110 233
145 110 233
146 109 233
147 108 233
147 108 233
148 107 233
149 106 233
149 106 233
150 105 233
151 104 233
151 104 233
152 103 233
152 103 233
153 102 233
154 101 233
154 101 233
155 100 233
156 99 233
156 99 233
157 98 233
158 97 233
158 97 233
159 96 233
159 95 233
160 95 233
161 94 233
161 94 233
162 93 233
163 92 233
163 92 233
164 91 233
165 90 233
165 90 233
166 89 233
167 88 233
167 88 233
168 87 233
168 87 233
169 86 233
170 85 233
170 85 233
171 84 233
172 83 233
172 83 233
173 82 233
174 81 233
174 81 233
175 80 233
175 79 233
176 79 233
177 78 233
177 78 233
178 77 233
179 76 233
179 76 233
180 75 233
181 74 233
181 74 233
182 73 233
183 72 233
183 72 233
184 71 233
184 71 233
185 70 233
186 69 233
186 69 233
187 68 233
188 67 233
188 67 233
189 66 233
190 65 233
190 65 233
191 64 233
191 63 233
192 63 233
193 62 233
193 62 233
194 61 233
195 60 233
195 60 233
196 59 233
197 58 233
197 58 233
198 57 233
199 56 233
199 56 233
200 55 233
200 55 233
201 54 233
202 53 233
202 53 233
203 52 233
204 51 233
204 51 233
205 50 233
206 49 233
206 49 233
207 48 233
207 47 233
208 47 233
209 46 233
209 46 233
210 45 233
211 44 233
211 44 233
212 43 233
213 42 233
213 42 233
214 41 233
215 40 233
215 40 233
216 39 233
216 39 233
217 38 233
218 37 233
218 37 233
219 36 233
220 35 233
220 35 233
221 34 233
222 33 233
222 33 233
223 32 233
223 31 233
224 31 233
225 30 233
225 30 233
226 29 233
227 28 233
227 28 233
228 27 233
229 26 233
229 26 233
230 25 233
231 24 233
231 24 233
232 23 233
232 23 233
233 22 233
234 21 233
234 21 233
235 20 233
236 19 233
236 19 233
237 18 233
238 17 233
238 17 233
239 16 233
239 15 233
240 15 233
241 14 233
241 14 233
242 13 233
243 12 233
243 12 233
244 11 233
245 10 233
245 10 233
246 9 233
247 8 233
247 8 233
248 7 233
248 7 233
249 6 233
250 5 233
250 5 233
251 4 233
252 3 233
252 3 233
253 2 233
254 1 233
254 1 233
255 0 233
0 255 234
0 255 234
1 254 234
1 254 234
2 253 234
3 252 234
3 252 234
4 251 234
5 250 234
5 250 234
6 249 234
7 248 234
7 248 234
8 247 234
8 247 234
9 246 234
10 245 234
10 245 234
11 244 234
12 243 234
12 243 234
13 242 234
14 241 234
14 241 234
15 240 234
15 239 234
16 239 234
17 238 234
17 238 234
18 237 234
19 236 234
19 236 234
20 235 234
21 234 234
21 234 234
22 233 234
23 232 234
23 232 234
24 231 234
24 231 234
25 230 234
26 229 234
26 229 234
27 228 234
28 227 234
28 227 234
29 226 234
30 225 234
30 225 234
31 224 234
31 223 234
32 223 234
33 222 234
33 222 234
34 221 234
35 220 234
35 220 234
36 219 234
37 218 234
37 218 234
38 217 234
39 216 234
39 216 234
40 215 234
40 215 234
41 214 234
42 213 234
42 213 234
43 212 234
44 211 234
44 211 234
45 210 234
46 209 234
46 209 234
47 208 234
47 207 234
48 207 234
49 206 234
49 206 234
50 205 234
51 204 234
51 204 234
52 203 234
53 202 234
53 202 234
54 201 234
55 200 234
55 200 234
56 199 234
56 199 234
57 198 234
58 197 234
58 197 234
59 196 234
60 195 234
60 195 234
61 194 234
62 193 234
62 193 234
63 192 234
63 191 234
64 191 234
65 190 234
65 190 234
66 189 234
67 188 234
67 188 234
68 187 234
69 186 234
69 186 234
70 185 234
71 184 234
71 184 234
72 183 234
72 183 234
73 182 234
74 181 234
74 181 234
75 180 234
76 179 234
76 179 234
77 178 234
78 177 234
78 177 234
79 176 234
79 175 234
80 175 234
81 174 234
81 174 234
82 173 234
83 172 234
83 172 234
84 171 234
85 170 234
85 170 234
86 169 234
87 168 234
87 168 234
88 167 234
88 167 234
89 166 234
90 165 234
90 165 234
91 164 234
92 163 234
92 163 234
93 162 234
94 161 234
94 161 234
95 160 234
95 159 234
96 159 234
97 158 234
97 158 234
98 157 234
99 156 234
99 156 234
100 155 234
101 154 234
101 154 234
102 153 234
103 152 234
103 152 234
104 151 234
104 151 234
105 150 234
106 149 234
106 149 234
107 148 234
108 147 234
108 147 234
109 146 234
110 145 234
110 145 234
111 144 234
111 143 234
112 143 234
113 142 234
113 142 234
114 141 234
115 140 234
115 140 234
116 139 234
117 138 234
117 138 234
118 137 234
119 136 234
119 136 234
120 135 234
120 135 234
121 134 234
122 133 234
122 133 234
123 132 234
124 131 234
124 131 234
125 130 234
126 129 234
126 129 234
127 128 234
127 127 234
128 127 234
129 126 234
129 126 234
130 125 234
131 124 234
131 124 234
132 123 234
133 122 234
133 122 234
134 121 234
135 120 234
135 120 234
136 119 234
136 119 234
137 118 234
138 117 234
138 117 234
139 116 234
140 115 234
140 115 234
141 114 234
142 113 234
142 113 234
143 112 234
143 111 234
144 111 234
145 110 234
145 110 234
146 109 234
147 108 234
147 108 234
148 107 234
149 106 234
149 106 234
150 105 234
151 104 234
151 104 234
152 103 234
152 103 234
153 102 234
154 101 234
154 101 234
155 100 234
156 99 234
156 99 234
157 98 234
158 97 234
158 97 234
159 96 234
159 95 234
160 95 234
161 94 234
161 94 234
162 93 234
163 92 234
163 92 234
164 91 234
165 90 234
165 90 234
166 89 234
167 88 234
167 88 234
168 87 234
168 87 234
169 86 234
170 85 234
170 85 234
171 84 234
172 83 234
172 83 234
173 82 234
174 81 234
174 81 234
175 80 234
175 79 234
176 79 234
177 78 234
177 78 234
178 77 234
179 76 234
179 76 234
180 75 234
181 74 234
181 74 234
182 73 234
183 72 234
183 72 234
184 71 234
184 71 234
185 70 234
186 69 234
186 69 234
187 68 234
188 67 234
188 67 234
189 66 234
190 65 234
190 65 234
191 64 234
191 63 234
192 63 234
193 62 234
193 62 234
194 61 234
195 60 234
195 60 234
196 59 234
197 58 234
197 58 234
198 57 234
199 56 234
199 56 234
200 55 234
200 55 234
201 54 234
202 53 234
202 53 234
203 52 234
204 51 234
204 51 234
205 50 234
206 49 234
206 49 234
207 48 234
207 47 234
208 47 234
209 46 234
209 46 234
210 45 234
211 44 234
211 44 234
212 43 234
213 42 234
213 42 234
214 41 234
215 40 234
215 40 234
216 39 234
216 39 234
217 38 234
218 37 234
218 37 234
219 36 234
220 35 234
220 35 234
221 34 234
222 33 234
222 33 234
223 32 234
223 31 234
224 31 234
225 30 234
225 30 234
226 29 234
227 28 234
227 28 234
228 27 234
229 26 234
229 26 234
230 25 234
231 24 234
231 24 234
232 23 234
232 23 234
233 22 234
234 21 234
234 21 234
235 20 234
236 19 234
236 19 234
237 18 234
238 17 234
238 17 234
239 16 234
239 15 234
240 15 234
241 14 234
241 14 234
242 13 234
243 12 234
243 12 234
244 11 234
245 10 234
245 10 234
246 9 234
247 8 234
247 8 234
248 7 234
248 7 234
249 6 234
250 5 234
250 5 234
251 4 234
252 3 234
252 3 234
253 2 234
254 1 234
254 1 234
255 0 234
0 255 235
0 255 235
1 254 235
1 254 235
2 253 235
3 252 235
3 252 235
4 251 235
5 250 235
5 250 235
6 249 235
7 248 235
7 248 235
8 247 235
8 247 235
9 246 235
10 245 235
10 245 235
11 244 235
12 243 235
12 243 235
13 242 235
14 241 235
14 241 235
15 240 235
15 239 235
16 239 235
17 238 235
17 238 235
18 237 235
19 236 235
19 236 235
20 235 235
21 234 235
21 234 235
22 233 235
23 232 235
23 232 235
24 231 235
24 231 235
25 230 235
26 229 235
26 229 235
27 228 235
28 227 235
28 227 235
29 226 235
30 225 235
30 225 235
31 224 235
31 223 235
32 223 235
33 222 235
33 222 235
34 221 235
35 220 235
35 220 235
36 219 235
37 218 235
37 218 235
38 217 235
39 216 235
39 216 235
40 215 235
40 215 235
41 214 235
42 213 235
42 213 235
43 212 235
44 211 235
44 211 235
45 210 235
46 209 235
46 209 235
47 208 235
47 207 235
48 207 235
49 206 235
49 206 235
50 205 235
51 204 235
51 204 235
52 203 235
53 202 235
53 202 235
54 201 235
55 200 235
55 200 235
56 199 235
56 199 235
57 198 235
58 197 235
58 197 235
59 196 235
60 195 235
60 195 235
61 194 235
62 193 235
62 193 235
63 192 235
63 191 235
64 191 235
65 190 235
65 190 235
66 189 235
67 188 235
67 188 235
68 187 235
69 186 235
69 186 235
70 185 235
71 184 235
71 184 235
72 183 235
72 183 235
73 182 235
74 181 235
74 181 235
75 180 235
76 179 235
76 179 235
77 178 235
78 177 235
78 177 235
79 176 235
79 175 235
80 175 235
81 174 235
81 174 235
82 173 235
83 172 235
83 172 235
84 171 235
85 170 235
85 170 235
86 169 235
87 168 235
87 168 235
88 167 235
88 167 235
89 166 235
90 165 235
90 165 235
91 164 235
92 163 235
92 163 235
93 162 235
94 161 235
94 161 235
95 160 235
95 159 235
96 159 235
97 158 235
97 158 235
98 157 235
99 156 235
99 156 235
100 155 235
101 154 235
101 154 235
102 153 235
103 152 235
103 152 235
104 151 235
104 151 235
105 150 235
106 149 235
106 149 235
107 148 235
108 147 235
108 147 235
109 146 235
110 145 235
110 145 235
111 144 235
111 143 235
112 143 235
113 142 235
113 142 235
114 141 235
115 140 235
115 140 235
116 139 235
117 138 235
117 138 235
118 137 235
119 136 235
119 136 235
120 135 235
120 135 235
121 134 235
122 133 235
122 133 235
123 132 235
124 131 235
124 131 235
125 130 235
126 129 235
126 129 235
127 128 235
127 127 235
128 127 235
129 126 235
129 126 235
130 125 235
131 124 235
131 124 235
132 123 235
133 122 235
133 122 235
134 121 235
135 120 235
135 120 235
136 119 235
136 119 235
137 118 235
138 117 235
138 117 235
139 116 235
140 115 235
140 115 235
141 114 235
142 113 235
142 113 235
143 112 235
143 111 235
144 111 235
145 110 235
145 110 235
146 109 235
147 108 235
147 108 235
148 107 235
149 106 235
149 106 235
150 105 235
151 104 235
151 104 235
152 103 235
152 103 235
153 102 235
154 101 235
154 101 235
155 100 235
156 99 235
156 99 235
157 98 235
158 97 235
158 97 235
159 96 235
159 95 235
160 95 235
161 94 235
161 94 235
162 93 235
163 92 235
163 92 235
164 91 235
165 90 235
165 90 235
166 89 235
167 88 235
167 88 235
168 87 235
168 87 235
169 86 235
170 85 235
170 85 235
171 84 235
172 83 235
172 83 235
173 82 235
174 81 235
174 81 235
175 80 235
175 79 235
176 79 235
177 78 235
177 78 235
178 77 235
179 76 235
179 76 235
180 75 235
181 74 235
181 74 235
182 73 235
183 72 235
183 72 235
184 71 235
184 71 235
185 70 235
186 69 235
186 69 235
187 68 235
188 67 235
188 67 235
189 66 235
190 65 235
190 65 235
191 64 235
191 63 235
192 63 235
193 62 235
193 62 235
194 61 235
195 60 235
195 60 235
196 59 235
197 58 235
197 58 235
198 57 235
199 56 235
199 56 235
200 55 235
200 55 235
201 54 235
202 53 235
202 53 235
203 52 235
204 51 235
204 51 235
205 50 235
206 49 235
206 49 235
207 48 235
207 47 235
208 47 235
209 46 235
209 46 235
210 45 235
211 44 235
211 44 235
212 43 235
213 42 235
213 42 235
214 41 235
215 40 235
215 40 235
216 39 235
216 39 235
217 38 235
218 37 235
218 37 235
219 36 235
220 35 235
220 35 235
221 34 235
222 33 235
222 33 235
223 32 235
223 31 235
224 31 235
225 30 235
225 30 235
226 29 235
227 28 235
227 28 235
228 27 235
229 26 235
229 26 235
230 25 235
231 24 235
231 24 235
232 23 235
232 23 235
233 22 235
234 21 235
234 21 235
235 20 235
236 19 235
236 19 235
237 18 235
238 17 235
238 17 235
239 16 235
239 15 235
240 15 235
241 14 235
241 14 235
242 13 235
243 12 235
243 12 235
244 11 235
245 10 235
245 10 235
246 9 235
247 8 235
247 8 235
248 7 235
248 7 235
249 6 235
250 5 235
250 5 235
251 4 235
252 3 235
252 3 235
253 2 235
254 1 235
254 1 235
255 0 235
0 255 236
0 255 236
1 254 236
1 254 236
2 253 236
3 252 236
3 252 236
4 251 236
5 250 236
5 250 236
6 249 236
7 248 236
7 248 236
8 247 236
8 247 236
9 246 236
10 245 236
10 245 236
11 244 236
12 243 236
12 243 236
13 242 236
14 241 236
14 241 236
15 240 236
15 239 236
16 239 236
17 238 236
17 238 236
18 237 236
19 236 236
19 236 236
20 235 236
21 234 236
21 234 236
22 233 236
23 232 236
23 232 236
24 231 236
24 231 236
25 230 236
26 229 236
26 229 236
27 228 236
28 227 236
28 227 236
29 226 236
30 225 236
30 225 236
31 224 236
31 223 236
32 223 236
33 222 236
33 222 236
34 221 236
35 220 236
35 220 236
36 219 236
37 218 236
37 218 236
38 217 236
39 216 236
39 216 236
40 215 236
40 215 236
41 214 236
42 213 236
42 213 236
43 212 236
44 211 236
44 211 236
45 210 236
46 209 236
46 209 236
47 208 236
47 207 236
48 207 236
49 206 236
49 206 236
50 205 236
51 204 236
51 204 236
52 203 236
53 202 236
53 202 236
54 201 236
55 200 236
55 200 236
56 199 236
56 199 236
57 198 236
58 197 236
58 197 236
59 196 236
60 195 236
60 195 236
61 194 236
62 193 236
62 193 236
63 192 236
63 191 236
64 191 236
65 190 236
65 190 236
66 189 236
67 188 236
67 188 236
68 187 236
69 186 236
69 186 236
70 185 236
71 184 236
71 184 236
72 183 236
72 183 236
73 182 236
74 181 236
74 181 236
75 180 236
76 179 236
76 179 236
77 178 236
78 177 236
78 177 236
79 176 236
79 175 236
80 175 236
81 174 236
81 174 236
82 173 236
83 172 236
83 172 236
84 171 236
85 170 236
85 170 236
86 169 236
87 168 236
87 168 236
88 167 236
88 167 236
89 166 236
90 165 236
90 165 236
91 164 236
92 163 236
92 163 236
93 162 236
94 161 236
94 161 236
95 160 236
95 159 236
96 159 236
97 158 236
97 158 236
98 157 236
99 156 236
99 156 236
100 155 236
101 154 236
101 154 236
102 153 236
103 152 236
103 152 236
104 151 236
104 151 236
105 150 236
106 149 236
106 149 236
107 148 236
108 147 236
108 147 236
109 146 236
110 145 236
110 145 236
111 144 236
111 143 236
112 143 236
113 142 236
113 142 236
114 141 236
115 140 236
115 140 236
116 139 236
117 138 236
117 138 236
118 137 236
119 136 236
119 136 236
120 135 236
120 135 236
121 134 236
122 133 236
122 133 236
123 132 236
124 131 236
124 131 236
125 130 236
126 129 236
126 129 236
127 128 236
127 127 236
128 127 236
129 126 236
129 126 236
130 125 236
131 124 236
131 124 236
132 123 236
133 122 236
133 122 236
134 121 236
135 120 236
135 120 236
136 119 236
136 119 236
137 118 236
138 117 236
138 117 236
139 116 236
140 115 236
140 115 236
141 114 236
142 113 236
142 113 236
143 112 236
143 111 236
144 111 236
145 110 236
145 110 236
146 109 236
147 108 236
147 108 236
148 107 236
149 106 236
149 106 236
150 105 236
151 104 236
151 104 236
152 103 236
152 103 236
153 102 236
154 101 236
154 101 236
155 100 236
156 99 236
156 99 236
157 98 236
158 97 236
158 97 236
159 96 236
159 95 236
160 95 236
161 94 236
161 94 236
162 93 236
163 92 236
163 92 236
164 91 236
165 90 236
165 90 236
166 89 236
167 88 236
167 88 236
168 87 236
168 87 236
169 86 236
170 85 236
170 85 236
171 84 236
172 83 236
172 83 236
173 82 236
174 81 236
174 81 236
175 80 236
175 79 236
176 79 236
177 78 236
177 78 236
178 77 236
179 76 236
179 76 236
180 75 236
181 74 236
181 74 236
182 73 236
183 72 236
183 72 236
184 71 236
184 71 236
185 70 236
186 69 236
186 69 236
187 68 236
188 67 236
188 67 236
189 66 236
190 65 236
190 65 236
191 64 236
191 63 236
192 63 236
193 62 236
193 62 236
194 61 236
195 60 236
195 60 236
196 59 236
197 58 236
197 58 236
198 57 236
199 56 236
199 56 236
200 55 236
200 55 236
201 54 236
202 53 236
202 53 236
203 52 236
204 51 236
204 51 236
205 50 236
206 49 236
206 49 236
207 48 236
207 47 236
208 47 236
209 46 236
209 46 236
210 45 236
211 44 236
211 44 236
212 43 236
213 42 236
213 42 236
214 41 236
215 40 236
215 40 236
216 39 236
216 39 236
217 38 236
218 37 236
218 37 236
219 36 236
220 35 236
220 35 236
221 34 236
222 33 236
222 33 236
223 32 236
223 31 236
224 31 236
225 30 236
225 30 236
226 29 236
227 28 236
227 28 236
228 27 236
229 26 236
229 26 236
230 25 236
231 24 236
231 24 236
232 23 236
232 23 236
233 22 236
234 21 236
234 21 236
235 20 236
236 19 236
236 19 236
237 18 236
238 17 236
238 17 236
239 16 236
239 15 236
240 15 236
241 14 236
241 14 236
242 13 236
243 12 236
243 12 236
244 11 236
245 10 236
245 10 236
246 9 236
247 8 236
247 8 236
248 7 236
248 7 236
249 6 236
250 5 236
250 5 236
251 4 236
252 3 236
252 3 236
253 2 236
254 1 236
254 1 236
255 0 236
0 255 237
0 255 237
1 254 237
1 254 237
2 253 237
3 252 237
3 252 237
4 251 237
5 250 237
5 250 237
6 249 237
7 248 237
7 248 237
8 247 237
8 247 237
9 246 237
10 245 237
10 245 237
11 244 237
12 243 237
12 243 237
13 242 237
14 241 237
14 241 237
15 240 237
15 239 237
16 239 237
17 238 237
17 238 237
18 237 237
19 236 237
19 236 237
20 235 237
21 234 237
21 234 237
22 233 237
23 232 237
23 232 237
24 231 237
24 231 237
25 230 237
26 229 237
26 229 237
27 228 237
28 227 237
28 227 237
29 226 237
30 225 237
30 225 237
31 224 237
31 223 237
32 223 237
33 222 237
33 222 237
34 221 237
35 220 237
35 220 237
36 219 237
37 218 237
37 218 237
38 217 237
39 216 237
39 216 237
40 215 237
40 215 237
41 214 237
42 213 237
42 213 237
43 212 237
44 211 237
44 211 237
45 210 237
46 209 237
46 209 237
47 208 237
47 207 237
48 207 237
49 206 237
49 206 237
50 205 237
51 204 237
51 204 237
52 203 237
53 202 237
53 202 237
54 201 237
55 200 237
55 200 237
56 199 237
56 199 237
57 198 237
58 197 237
58 197 237
59 196 237
60 195 237
60 195 237
61 194 237
62 193 237
62 193 237
63 192 237
63 191 237
64 191 237
65 190 237
65 190 237
66 189 237
67 188 237
67 188 237
68 187 237
69 186 237
69 186 237
70 185 237
71 184 237
71 184 237
72 183 237
72 183 237
73 182 237
74 181 237
74 181 237
75 180 237
76 179 237
76 179 237
77 178 237
78 177 237
78 177 237
79 176 237
79 175 237
80 175 237
81 174 237
81 174 237
82 173 237
83 172 237
83 172 237
84 171 237
85 170 237
85 170 237
86 169 237
87 168 237
87 168 237
88 167 237
88 167 237
89 166 237
90 165 237
90 165 237
91 164 237
92 163 237
92 163 237
93 162 237
94 161 237
94 161 237
95 160 237
95 159 237
96 159 237
97 158 237
97 158 237
98 157 237
99 156 237
99 156 237
100 155 237
101 154 237
101 154 237
102 153 237
103 152 237
103 152 237
104 151 237
104 151 237
105 150 237
106 149 237
106 149 237
107 148 237
108 147 237
108 147 237
109 146 237
110 145 237
110 145 237
111 144 237
111 143 237
112 143 237
113 142 237
113 142 237
114 141 237
115 140 237
115 140 237
116 139 237
117 138 237
117 138 237
118 137 237
119 136 237
119 136 237
120 135 237
120 135 237
121 134 237
122 133 237
122 133 237
123 132 237
124 131 237
124 131 237
125 130 237
126 129 237
126 129 237
127 128 237
127 127 237
128 127 237
129 126 237
129 126 237
130 125 237
131 124 237
131 124 237
132 123 237
133 122 237
133 122 237
134 121 237
135 120 237
135 120 237
136 119 237
136 119 237
137 118 237
138 117 237
138 117 237
139 116 237
140 115 237
140 115 237
141 114 237
142 113 237
142 113 237
143 112 237
143 111 237
144 111 237
145 110 237
145 110 237
146 109 237
147 108 237
147 108 237
148 107 237
149 106 237
149 106 237
150 105 237
151 104 237
151 104 237
152 103 237
152 103 237
153 102 237
154 101 237
154 101 237
155 100 237
156 99 237
156 99 237
157 98 237
158 97 237
158 97 237
159 96 237
159 95 237
160 95 237
161 94 237
161 94 237
162 93 237
163 92 237
163 92 237
164 91 237
165 90 237
165 90 237
166 89 237
167 88 237
167 88 237
168 87 237
168 87 237
169 86 237
170 85 237
170 85 237
171 84 237
172 83 237
172 83 237
173 82 237
174 81 237
174 81 237
175 80 237
175 79 237
176 79 237
177 78 237
177 78 237
178 77 237
179 76 237
179 76 237
180 75 237
181 74 237
181 74 237
182 73 237
183 72 237
183 72 237
184 71 237
184 71 237
185 70 237
186 69 237
186 69 237
187 68 237
188 67 237
188 67 237
189 66 237
190 65 237
190 65 237
191 64 237
191 63 237
192 63 237
193 62 237
193 62 237
194 61 237
195 60 237
195 60 237
196 59 237
197 58 237
197 58 237
198 57 237
199 56 237
199 56 237
200 55 237
200 55 237
201 54 237
202 53 237
202 53 237
203 52 237
204 51 237
204 51 237
205 50 237
206 49 237
206 49 237
207 48 237
207 47 237
208 47 237
209 46 237
209 46 237
210 45 237
211 44 237
211 44 237
212 43 237
213 42 237
213 42 237
214 41 237
215 40 237
215 40 237
216 39 237
216 39 237
217 38 237
218 37 237
218 37 237
219 36 237
220 35 237
220 35 237
221 34 237
222 33 237
222 33 237
223 32 237
223 31 237
224 31 237
225 30 237
225 30 237
226 29 237
227 28 237
227 28 237
228 27 237
229 26 237
229 26 237
230 25 237
231 24 237
231 24 237
232 23 237
232 23 237
233 22 237
234 21 237
234 21 237
235 20 237
236 19 237
236 19 237
237 18 237
238 17 237
238 17 237
239 16 237
239 15 237
240 15 237
241 14 237
241 14 237
242 13 237
243 12 237
243 12 237
244 11 237
245 10 237
245 10 237
246 9 237
247 8 237
247 8 237
248 7 237
248 7 237
249 6 237
250 5 237
250 5 237
251 4 237
252 3 237
252 3 237
253 2 237
254 1 237
254 1 237
255 0 237
0 255 238
0 255 238
1 254 238
1 254 238
2 253 238
3 252 238
3 252 238
4 251 238
5 250 238
5 250 238
6 249 238
7 248 238
7 248 238
8 247 238
8 247 238
9 246 238
10 245 238
10 245 238
11 244 238
12 243 238
12 243 238
13 242 238
14 241 238
14 241 238
15 240 238
15 239 238
16 239 238
17 238 238
17 238 238
18 237 238
19 236 238
19 236 238
20 235 238
21 234 238
21 234 238
22 233 238
23 232 238
23 232 238
24 231 238
24 231 238
25 230 238
26 229 238
26 229 238
27 228 238
28 227 238
28 227 238
29 226 238
30 225 238
30 225 238
31 224 238
31 223 238
32 223 238
33 222 238
33 222 238
34 221 238
35 220 238
35 220 238
36 219 238
37 218 238
37 218 238
38 217 238
39 216 238
39 216 238
40 215 238
40 215 238
41 214 238
42 213 238
42 213 238
43 212 238
44 211 238
44 211 238
45 210 238
46 209 238
46 209 238
47 208 238
47 207 238
48 207 238
49 206 238
49 206 238
50 205 238
51 204 238
51 204 238
52 203 238
53 202 238
53 202 238
54 201 238
55 200 238
55 200 238
56 199 238
56 199 238
57 198 238
58 197 238
58 197 238
59 196 238
60 195 238
60 195 238
61 194 238
62 193 238
62 193 238
63 192 238
63 191 238
64 191 238
65 190 238
65 190 238
66 189 238
67 188 238
67 188 238
68 187 238
69 186 238
69 186 238
70 185 238
71 184 238
71 184 238
72 183 238
72 183 238
73 182 238
74 181 238
74 181 238
75 180 238
76 179 238
76 179 238
77 178 238
78 177 238
78 177 238
79 176 238
79 175 238
80 175 238
81 174 238
81 174 238
82 173 238
83 172 238
83 172 238
84 171 238
85 170 238
85 170 238
86 169 238
87 168 238
87 168 238
88 167 238
88 167 238
89 166 238
90 165 238
90 165 238
91 164 238
92 163 238
92 163 238
93 162 238
94 161 238
94 161 238
95 160 238
95 159 238
96 159 238
97 158 238
97 158 238
98 157 238
99 156 238
99 156 238
100 155 238
101 154 238
101 154 238
102 153 238
103 152 238
103 152 238
104 151 238
104 151 238
105 150 238
106 149 238
106 149 238
107 148 238
108 147 238
108 147 238
109 146 238
110 145 238
110 145 238
111 144 238
111 143 238
112 143 238
113 142 238
113 142 238
114 141 238
115 140 238
115 140 238
116 139 238
117 138 238
117 138 238
118 137 238
119 136 238
119 136 238
120 135 238
120 135 238
121 134 238
122 133 238
122 133 238
123 132 238
124 131 238
124 131 238
125 130 238
126 129 238
126 129 238
127 128 238
127 127 238
128 127 238
129 126 238
129 126 238
130 125 238
131 124 238
131 124 238
132 123 238
133 122 238
133 122 238
134 121 238
135 120 238
135 120 238
136 119 238
136 119 238
137 118 238
138 117 238
138 117 238
139 116 238
140 115 238
140 115 238
141 114 238
142 113 238
142 113 238
143 112 238
143 111 238
144 111 238
145 110 238
145 110 238
146 109 238
147 108 238
147 108 238
148 107 238
149 106 238
149 106 238
150 105 238
151 104 238
151 104 238
152 103 238
152 103 238
153 102 238
154 101 238
154 101 238
155 100 238
156 99 238
156 99 238
157 98 238
158 97 238
158 97 238
159 96 238
159 95 238
160 95 238
161 94 238
161 94 238
162 93 238
163 92 238
163 92 238
164 91 238
165 90 238
165 90 238
166 89 238
167 88 238
167 88 238
168 87 238
168 87 238
169 86 238
170 85 238
170 85 238
171 84 238
172 83 238
172 83 238
173 82 238
174 81 238
174 81 238
175 80 238
175 79 238
176 79 238
177 78 238
177 78 238
178 77 238
179 76 238
179 76 238
180 75 238
181 74 238
181 74 238
182 73 238
183 72 238
183 72 238
184 71 238
184 71 238
185 70 238
186 69 238
186 69 238
187 68 238
188 67 238
188 67 238
189 66 238
190 65 238
190 65 238
191 64 238
191 63 238
192 63 238
193 62 238
193 62 238
194 61 238
195 60 238
195 60 238
196 59 238
197 58 238
197 58 238
198 57 238
199 56 238
199 56 238
200 55 238
200 55 238
201 54 238
202 53 238
202 53 238
203 52 238
204 51 238
204 51 238
205 50 238
206 49 238
206 49 238
207 48 238
207 47 238
208 47 238
209 46 238
209 46 238
210 45 238
211 44 238
211 44 238
212 43 238
213 42 238
213 42 238
214 41 238
215 40 238
215 40 238
216 39 238
216 39 238
217 38 238
218 37 238
218 37 238
219 36 238
220 35 238
220 35 238
221 34 238
222 33 238
222 33 238
223 32 238
223 31 238
224 31 238
225 30 238
225 30 238
226 29 238
227 28 238
227 28 238
228 27 238
229 26 238
229 26 238
230 25 238
231 24 238
231 24 238
232 23 238
232 23 238
233 22 238
234 21 238
234 21 238
235 20 238
236 19 238
236 19 238
237 18 238
238 17 238
238 17 238
239 16 238
239 15 238
240 15 238
241 14 238
241 14 238
242 13 238
243 12 238
243 12 238
244 11 238
245 10 238
245 10 238
246 9 238
247 8 238
247 8 238
248 7 238
248 7 238
249 6 238
250 5 238
250 5 238
251 4 238
252 3 238
252 3 238
253 2 238
254 1 238
254 1 238
255 0 238
0 255 240
0 255 240
1 254 240
1 254 240
2 253 240
3 252 240
3 252 240
4 251 240
5 250 240
5 250 240
6 249 240
7 248 240
7 248 240
8 247 240
8 247 240
9 246 240
10 245 240
10 245 240
11 244 240
12 243 240
12 243 240
13 242 240
14 241 240
14 241 240
15 240 240
15 239 240
16 239 240
17 238 240
17 238 240
18 237 240
19 236 240
19 236 240
20 235 240
21 234 240
21 234 240
22 233 240
23 232 240
23 232 240
24 231 240
24 231 240
25 230 240
26 229 240
26 229 240
27 228 240
28 227 240
28 227 240
29 226 240
30 225 240
30 225 240
31 224 240
31 223 240
32 223 240
33 222 240
33 222 240
34 221 240
35 220 240
35 220 240
36 219 240
37 218 240
37 218 240
38 217 240
39 216 240
39 216 240
40 215 240
40 215 240
41 214 240
42 213 240
42 213 240
43 212 240
44 211 240
44 211 240
45 210 240
46 209 240
46 209 240
47 208 240
47 207 240
48 207 240
49 206 240
49 206 240
50 205 240
51 204 240
51 204 240
52 203 240
53 202 240
53 202 240
54 201 240
55 200 240
55 200 240
56 199 240
56 199 240
57 198 240
58 197 240
58 197 240
59 196 240
60 195 240
60 195 240
61 194 240
62 193 240
62 193 240
63 192 240
63 191 240
64 191 240
65 190 240
65 190 240
66 189 240
67 188 240
67 188 240
68 187 240
69 186 240
69 186 240
70 185 240
71 184 240
71 184 240
72 183 240
72 183 240
73 182 240
74 181 240
74 181 240
75 180 240
76 179 240
76 179 240
77 178 240
78 177 240
78 177 240
79 176 240
79 175 240
80 175 240
81 174 240
81 174 240
82 173 240
83 172 240
83 172 240
84 171 240
85 170 240
85 170 240
86 169 240
87 168 240
87 168 240
88 167 240
88 167 240
89 166 240
90 165 240
90 165 240
91 164 240
92 163 240
92 163 240
93 162 240
94 161 240
94 161 240
95 160 240
95 159 240
96 159 240
97 158 240
97 158 240
98 157 240
99 156 240
99 156 240
100 155 240
101 154 240
101 154 240
102 153 240
103 152 240
103 152 240
104 151 240
104 151 240
105 150 240
106 149 240
106 149 240
107 148 240
108 147 240
108 147 240
109 146 240
110 145 240
110 145 240
111 144 240
111 143 240
112 143 240
113 142 240
113 142 240
114 141 240
115 140 240
115 140 240
116 139 240
117 138 240
117 138 240
118 137 240
119 136 240
119 136 240
120 135 240
120 135 240
121 134 240
122 133 240
122 133 240
123 132 240
124 131 240
124 131 240
125 130 240
126 129 240
126 129 240
127 128 240
127 127 240
128 127 240
129 126 240
129 126 240
130 125 240
131 124 240
131 124 240
132 123 240
133 122 240
133 122 240
134 121 240
135 120 240
135 120 240
136 119 240
136 119 240
137 118 240
138 117 240
138 117 240
139 116 240
140 115 240
140 115 240
141 114 240
142 113 240
142 113 240
143 112 240
143 111 240
144 111 240
145 110 240
145 110 240
146 109 240
147 108 240
147 108 240
148 107 240
149 106 240
149 106 240
150 105 240
151 104 240
151 104 240
152 103 240
152 103 240
153 102 240
154 101 240
154 101 240
155 100 240
156 99 240
156 99 240
157 98 240
158 97 240
158 97 240
159 96 240
159 95 240
160 95 240
161 94 240
161 94 240
162 93 240
163 92 240
163 92 240
164 91 240
165 90 240
165 90 240
166 89 240
167 88 240
167 88 240
168 87 240
168 87 240
169 86 240
170 85 240
170 85 240
171 84 240
172 83 240
172 83 240
173 82 240
174 81 240
174 81 240
175 80 240
175 79 240
176 79 240
177 78 240
177 78 240
178 77 240
179 76 240
179 76 240
180 75 240
181 74 240
181 74 240
182 73 240
183 72 240
183 72 240
184 71 240
184 71 240
185 70 240
186 69 240
186 69 240
187 68 240
188 67 240
188 67 240
189 66 240
190 65 240
190 65 240
191 64 240
191 63 240
192 63 240
193 62 240
193 62 240
194 61 240
195 60 240
195 60 240
196 59 240
197 58 240
197 58 240
198 57 240
199 56 240
199 56 240
200 55 240
200 55 240
201 54 240
202 53 240
202 53 240
203 52 240
204 51 240
204 51 240
205 50 240
206 49 240
206 49 240
207 48 240
207 47 240
208 47 240
209 46 240
209 46 240
210 45 240
211 44 240
211 44 240
212 43 240
213 42 240
213 42 240
214 41 240
215 40 240
215 40 240
216 39 240
216 39 240
217 38 240
218 37 240
218 37 240
219 36 240
220 35 240
220 35 240
221 34 240
222 33 240
222 33 240
223 32 240
223 31 240
224 31 240
225 30 240
225 30 240
226 29 240
227 28 240
227 28 240
228 27 240
229 26 240
229 26 240
230 25 240
231 24 240
231 24 240
232 23 240
232 23 240
233 22 240
234 21 240
234 21 240
235 20 240
236 19 240
236 19 240
237 18 240
238 17 240
238 17 240
239 16 240
239 15 240
240 15 240
241 14 240
241 14 240
242 13 240
243 12 240
243 12 240
244 11 240
245 10 240
245 10 240
246 9 240
247 8 240
247 8 240
248 7 240
248 7 240
249 6 240
250 5 240
250 5 240
251 4 240
252 3 240
252 3 240
253 2 240
254 1 240
254 1 240
255 0 240
0 255 241
0 255 241
1 254 241
1 254 241
2 253 241
3 252 241
3 252 241
4 251 241
5 250 241
5 250 241
6 249 241
7 248 241
7 248 241
8 247 241
8 247 241
9 246 241
10 245 241
10 245 241
11 244 241
12 243 241
12 243 241
13 242 241
14 241 241
14 241 241
15 240 241
15 239 241
16 239 241
17 238 241
17 238 241
18 237 241
19 236 241
19 236 241
20 235 241
21 234 241
21 234 241
22 233 241
23 232 241
23 232 241
24 231 241
24 231 241
25 230 241
26 229 241
26 229 241
27 228 241
28 227 241
28 227 241
29 226 241
30 225 241
30 225 241
31 224 241
31 223 241
32 223 241
33 222 241
33 222 241
34 221 241
35 220 241
35 220 241
36 219 241
37 218 241
37 218 241
38 217 241
39 216 241
39 216 241
40 215 241
40 215 241
41 214 241
42 213 241
42 213 241
43 212 241
44 211 241
44 211 241
45 210 241
46 209 241
46 209 241
47 208 241
47 207 241
48 207 241
49 206 241
49 206 241
50 205 241
51 204 241
51 204 241
52 203 241
53 202 241
53 202 241
54 201 241
55 200 241
55 200 241
56 199 241
56 199 241
57 198 241
58 197 241
58 197 241
59 196 241
60 195 241
60 195 241
61 194 241
62 193 241
62 193 241
63 192 241
63 191 241
64 191 241
65 190 241
65 190 241
66 189 241
67 188 241
67 188 241
68 187 241
69 186 241
69 186 241
70 185 241
71 184 241
71 184 241
72 183 241
72 183 241
73 182 241
74 181 241
74 181 241
75 180 241
76 179 241
76 179 241
77 178 241
78 177 241
78 177 241
79 176 241
79 175 241
80 175 241
81 174 241
81 174 241
82 173 241
83 172 241
83 172 241
84 171 241
85 170 241
85 170 241
86 169 241
87 168 241
87 168 241
88 167 241
88 167 241
89 166 241
90 165 241
90 165 241
91 164 241
92 163 241
92 163 241
93 162 241
94 161 241
94 161 241
95 160 241
95 159 241
96 159 241
97 158 241
97 158 241
98 157 241
99 156 241
99 156 241
100 155 241
101 154 241
101 154 241
102 153 241
103 152 241
103 152 241
104 151 241
104 151 241
105 150 241
106 149 241
106 149 241
107 148 241
108 147 241
108 147 241
109 146 241
110 145 241
110 145 241
111 144 241
111 143 241
112 143 241
113 142 241
113 142 241
114 141 241
115 140 241
115 140 241
116 139 241
117 138 241
117 138 241
118 137 241
119 136 241
119 136 241
120 135 241
120 135 241
121 134 241
122 133 241
122 133 241
123 132 241
124 131 241
124 131 241
125 130 241
126 129 241
126 129 241
127 128 241
127 127 241
128 127 241
129 126 241
129 126 241
130 125 241
131 124 241
131 124 241
132 123 241
133 122 241
133 122 241
134 121 241
135 120 241
135 120 241
136 119 241
136 119 241
137 118 241
138 117 241
138 117 241
139 116 241
140 115 241
140 115 241
141 114 241
142 113 241
142 113 241
143 112 241
143 111 241
144 111 241
145 110 241
145 110 241
146 109 241
147 108 241
147 108 241
148 107 241
149 106 241
149 106 241
150 105 241
151 104 241
151 104 241
152 103 241
152 103 241
153 102 241
154 101 241
154 101 241
155 100 241
156 99 241
156 99 241
157 98 241
158 97 241
158 97 241
159 96 241
159 95 241
160 95 241
161 94 241
161 94 241
162 93 241
163 92 241
163 92 241
164 91 241
165 90 241
165 90 241
166 89 241
167 88 241
167 88 241
168 87 241
168 87 241
169 86 241
170 85 241
170 85 241
171 84 241
172 83 241
172 83 241
173 82 241
174 81 241
174 81 241
175 80 241
175 79 241
176 79 241
177 78 241
177 78 241
178 77 241
179 76 241
179 76 241
180 75 241
181 74 241
181 74 241
182 73 241
183 72 241
183 72 241
184 71 241
184 71 241
185 70 241
186 69 241
186 69 241
187 68 241
188 67 241
188 67 241
189 66 241
190 65 241
190 65 241
191 64 241
191 63 241
192 63 241
193 62 241
193 62 241
194 61 241
195 60 241
195 60 241
196 59 241
197 58 241
197 58 241
198 57 241
199 56 241
199 56 241
200 55 241
200 55 241
201 54 241
202 53 241
202 53 241
203 52 241
204 51 241
204 51 241
205 50 241
206 49 241
206 49 241
207 48 241
207 47 241
208 47 241
209 46 241
209 46 241
210 45 241
211 44 241
211 44 241
212 43 241
213 42 241
213 42 241
214 41 241
215 40 241
215 40 241
216 39 241
216 39 241
217 38 241
218 37 241
218 37 241
219 36 241
220 35 241
220 35 241
221 34 241
222 33 241
222 33 241
223 32 241
223 31 241
224 31 241
225 30 241
225 30 241
226 29 241
227 28 241
227 28 241
228 27 241
229 26 241
229 26 241
230 25 241
231 24 241
231 24 241
232 23 241
232 23 241
233 22 241
234 21 241
234 21 241
235 20 241
236 19 241
236 19 241
237 18 241
238 17 241
238 17 241
239 16 241
239 15 241
240 15 241
241 14 241
241 14 241
242 13 241
243 12 241
243 12 241
244 11 241
245 10 241
245 10 241
246 9 241
247 8 241
247 8 241
248 7 241
248 7 241
249 6 241
250 5 241
250 5 241
251 4 241
252 3 241
252 3 241
253 2 241
254 1 241
254 1 241
255 0 241
0 255 242
0 255 242
1 254 242
1 254 242
2 253 242
3 252 242
3 252 242
4 251 242
5 250 242
5 250 242
6 249 242
7 248 242
7 248 242
8 247 242
8 247 242
9 246 242
10 245 242
10 245 242
11 244 242
12 243 242
12 243 242
13 242 242
14 241 242
14 241 242
15 240 242
15 239 242
16 239 242
17 238 242
17 238 242
18 237 242
19 236 242
19 236 242
20 235 242
21 234 242
21 234 242
22 233 242
23 232 242
23 232 242
24 231 242
24 231 242
25 230 242
26 229 242
26 229 242
27 228 242
28 227 242
28 227 242
29 226 242
30 225 242
30 225 242
31 224 242
31 223 242
32 223 242
33 222 242
33 222 242
34 221 242
35 220 242
35 220 242
36 219 242
37 218 242
37 218 242
38 217 242
39 216 242
39 216 242
40 215 242
40 215 242
41 214 242
42 213 242
42 213 242
43 212 242
44 211 242
44 211 242
45 210 242
46 209 242
46 209 242
47 208 242
47 207 242
48 207 242
49 206 242
49 206 242
50 205 242
51 204 242
51 204 242
52 203 242
53 202 242
53 202 242
54 201 242
55 200 242
55 200 242
56 199 242
56 199 242
57 198 242
58 197 242
58 197 242
59 196 242
60 195 242
60 195 242
61 194 242
62 193 242
62 193 242
63 192 242
63 191 242
64 191 242
65 190 242
65 190 242
66 189 242
67 188 242
67 188 242
68 187 242
69 186 242
69 186 242
70 185 242
71 184 242
71 184 242
72 183 242
72 183 242
73 182 242
74 181 242
74 181 242
75 180 242
76 179 242
76 179 242
77 178 242
78 177 242
78 177 242
79 176 242
79 175 242
80 175 242
81 174 242
81 174 242
82 173 242
83 172 242
83 172 242
84 171 242
85 170 242
85 170 242
86 169 242
87 168 242
87 168 242
88 167 242
88 167 242
89 166 242
90 165 242
90 165 242
91 164 242
92 163 242
92 163 242
93 162 242
94 161 242
94 161 242
95 160 242
95 159 242
96 159 242
97 158 242
97 158 242
98 157 242
99 156 242
99 156 242
100 155 242
101 154 242
101 154 242
102 153 242
103 152 242
103 152 242
104 151 242
104 151 242
105 150 242
106 149 242
106 149 242
107 148 242
108 147 242
108 147 242
109 146 242
110 145 242
110 145 242
111 144 242
111 143 242
112 143 242
113 142 242
113 142 242
114 141 242
115 140 242
115 140 242
116 139 242
117 138 242
117 138 242
118 137 242
119 136 242
119 136 242
120 135 242
120 135 242
121 134 242
122 133 242
122 133 242
123 132 242
124 131 242
124 131 242
125 130 242
126 129 242
126 129 242
127 128 242
127 127 242
128 127 242
129 126 242
129 126 242
130 125 242
131 124 242
131 124 242
132 123 242
133 122 242
133 122 242
134 121 242
135 120 242
135 120 242
136 119 242
136 119 242
137 118 242
138 117 242
138 117 242
139 116 242
140 115 242
140 115 242
141 114 242
142 113 242
142 113 242
143 112 242
143 111 242
144 111 242
145 110 242
145 110 242
146 109 242
147 108 242
147 108 242
148 107 242
149 106 242
149 106 242
150 105 242
151 104 242
151 104 242
152 103 242
152 103 242
153 102 242
154 101 242
154 101 242
155 100 242
156 99 242
156 99 242
157 98 242
158 97 242
158 97 242
159 96 242
159 95 242
160 95 242
161 94 242
161 94 242
162 93 242
163 92 242
163 92 242
164 91 242
165 90 242
165 90 242
166 89 242
167 88 242
167 88 242
168 87 242
168 87 242
169 86 242
170 85 242
170 85 242
171 84 242
172 83 242
172 83 242
173 82 242
174 81 242
174 81 242
175 80 242
175 79 242
176 79 242
177 78 242
177 78 242
178 77 242
179 76 242
179 76 242
180 75 242
181 74 242
181 74 242
182 73 242
183 72 242
183 72 242
184 71 242
184 71 242
185 70 242
186 69 242
186 69 242
187 68 242
188 67 242
188 67 242
189 66 242
190 65 242
190 65 242
191 64 242
191 63 242
192 63 242
193 62 242
193 62 242
194 61 242
195 60 242
195 60 242
196 59 242
197 58 242
197 58 242
198 57 242
199 56 242
199 56 242
200 55 242
200 55 242
201 54 242
202 53 242
202 53 242
203 52 242
204 51 242
204 51 242
205 50 242
206 49 242
206 49 242
207 48 242
207 47 242
208 47 242
209 46 242
209 46 242
210 45 242
211 44 242
211 44 242
212 43 242
213 42 242
213 42 242
214 41 242
215 40 242
215 40 242
216 39 242
216 39 242
217 38 242
218 37 242
218 37 242
219 36 242
220 35 242
220 35 242
221 34 242
222 33 242
222 33 242
223 32 242
223 31 242
224 31 242
225 30 242
225 30 242
226 29 242
227 28 242
227 28 242
228 27 242
229 26 242
229 26 242
230 25 242
231 24 242
231 24 242
232 23 242
232 23 242
233 22 242
234 21 242
234 21 242
235 20 242
236 19 242
236 19 242
237 18 242
238 17 242
238 17 242
239 16 242
239 15 242
240 15 242
241 14 242
241 14 242
242 13 242
243 12 242
243 12 242
244 11 242
245 10 242
245 10 242
246 9 242
247 8 242
247 8 242
248 7 242
248 7 242
249 6 242
250 5 242
250 5 242
251 4 242
252 3 242
252 3 242
253 2 242
254 1 242
254 1 242
255 0 242
0 255 243
0 255 243
1 254 243
1 254 243
2 253 243
3 252 243
3 252 243
4 251 243
5 250 243
5 250 243
6 249 243
7 248 243
7 248 243
8 247 243
8 247 243
9 246 243
10 245 243
10 245 243
11 244 243
12 243 243
12 243 243
13 242 243
14 241 243
14 241 243
15 240 243
15 239 243
16 239 243
17 238 243
17 238 243
18 237 243
19 236 243
19 236 243
20 235 243
21 234 243
21 234 243
22 233 243
23 232 243
23 232 243
24 231 243
24 231 243
25 230 243
26 229 243
26 229 243
27 228 243
28 227 243
28 227 243
29 226 243
30 225 243
30 225 243
31 224 243
31 223 243
32 223 243
33 222 243
33 222 243
34 221 243
35 220 243
35 220 243
36 219 243
37 218 243
37 218 243
38 217 243
39 216 243
39 216 243
40 215 243
40 215 243
41 214 243
42 213 243
42 213 243
43 212 243
44 211 243
44 211 243
45 210 243
46 209 243
46 209 243
47 208 243
47 207 243
48 207 243
49 206 243
49 206 243
50 205 243
51 204 243
51 204 243
52 203 243
53 202 243
53 202 243
54 201 243
55 200 243
55 200 243
56 199 243
56 199 243
57 198 243
58 197 243
58 197 243
59 196 243
60 195 243
60 195 243
61 194 243
62 193 243
62 193 243
63 192 243
63 191 243
64 191 243
65 190 243
65 190 243
66 189 243
67 188 243
67 188 243
68 187 243
69 186 243
69 186 243
70 185 243
71 184 243
71 184 243
72 183 243
72 183 243
73 182 243
74 181 243
74 181 243
75 180 243
76 179 243
76 179 243
77 178 243
78 177 243
78 177 243
79 176 243
79 175 243
80 175 243
81 174 243
81 174 243
82 173 243
83 172 243
83 172 243
84 171 243
85 170 243
85 170 243
86 169 243
87 168 243
87 168 243
88 167 243
88 167 243
89 166 243
90 165 243
90 165 243
91 164 243
92 163 243
92 163 243
93 162 243
94 161 243
94 161 243
95 160 243
95 159 243
96 159 243
97 158 243
97 158 243
98 157 243
99 156 243
99 156 243
100 155 243
101 154 243
101 154 243
102 153 243
103 152 243
103 152 243
104 151 243
104 151 243
105 150 243
106 149 243
106 149 243
107 148 243
108 147 243
108 147 243
109 146 243
110 145 243
110 145 243
111 144 243
111 143 243
112 143 243
113 142 243
113 142 243
114 141 243
115 140 243
115 140 243
116 139 243
117 138 243
117 138 243
118 137 243
119 136 243
119 136 243
120 135 243
120 135 243
121 134 243
122 133 243
122 133 243
123 132 243
124 131 243
124 131 243
125 130 243
126 129 243
126 129 243
127 128 243
127 127 243
128 127 243
129 126 243
129 126 243
130 125 243
131 124 243
131 124 243
132 123 243
133 122 243
133 122 243
134 121 243
135 120 243
135 120 243
136 119 243
136 119 243
137 118 243
138 117 243
138 117 243
139 116 243
140 115 243
140 115 243
141 114 243
142 113 243
142 113 243
143 112 243
143 111 243
144 111 243
145 110 243
145 110 243
146 109 243
147 108 243
147 108 243
148 107 243
149 106 243
149 106 243
150 105 243
151 104 243
151 104 243
152 103 243
152 103 243
153 102 243
154 101 243
154 101 243
155 100 243
156 99 243
156 99 243
157 98 243
158 97 243
158 97 243
159 96 243
159 95 243
160 95 243
161 94 243
161 94 243
162 93 243
163 92 243
163 92 243
164 91 243
165 90 243
165 90 243
166 89 243
167 88 243
167 88 243
168 87 243
168 87 243
169 86 243
170 85 243
170 85 243
171 84 243
172 83 243
172 83 243
173 82 243
174 81 243
174 81 243
175 80 243
175 79 243
176 79 243
177 78 243
177 78 243
178 77 243
179 76 243
179 76 243
180 75 243
181 74 243
181 74 243
182 73 243
183 72 243
183 72 243
184 71 243
184 71 243
185 70 243
186 69 243
186 69 243
187 68 243
188 67 243
188 67 243
189 66 243
190 65 243
190 65 243
191 64 243
191 63 243
192 63 243
193 62 243
193 62 243
194 61 243
195 60 243
195 60 243
196 59 243
197 58 243
197 58 243
198 57 243
199 56 243
199 56 243
200 55 243
200 55 243
201 54 243
202 53 243
202 53 243
203 52 243
204 51 243
204 51 243
205 50 243
206 49 243
206 49 243
207 48 243
207 47 243
208 47 243
209 46 243
209 46 243
210 45 243
211 44 243
211 44 243
212 43 243
213 42 243
213 42 243
214 41 243
215 40 243
215 40 243
216 39 243
216 39 243
217 38 243
218 37 243
218 37 243
219 36 243
220 35 243
220 35 243
221 34 243
222 33 243
222 33 243
223 32 243
223 31 243
224 31 243
225 30 243
225 30 243
226 29 243
227 28 243
227 28 243
228 27 243
229 26 243
229 26 243
230 25 243
231 24 243
231 24 243
232 23 243
232 23 243
233 22 243
234 21 243
234 21 243
235 20 243
236 19 243
236 19 243
237 18 243
238 17 243
238 17 243
239 16 243
239 15 243
240 15 243
241 14 243
241 14 243
242 13 243
243 12 243
243 12 243
244 11 243
245 10 243
245 10 243
246 9 243
247 8 243
247 8 243
248 7 243
248 7 243
249 6 243
250 5 243
250 5 243
251 4 243
252 3 243
252 3 243
253 2 243
254 1 243
254 1 243
255 0 243
0 255 244
0 255 244
1 254 244
1 254 244
2 253 244
3 252 244
3 252 244
4 251 244
5 250 244
5 250 244
6 249 244
7 248 244
7 248 244
8 247 244
8 247 244
9 246 244
10 245 244
10 245 244
11 244 244
12 243 244
12 243 244
13 242 244
14 241 244
14 241 244
15 240 244
15 239 244
16 239 244
17 238 244
17 238 244
18 237 244
19 236 244
19 236 244
20 235 244
21 234 244
21 234 244
22 233 244
23 232 244
23 232 244
24 231 244
24 231 244
25 230 244
26 229 244
26 229 244
27 228 244
28 227 244
28 227 244
29 226 244
30 225 244
30 225 244
31 224 244
31 223 244
32 223 244
33 222 244
33 222 244
34 221 244
35 220 244
35 220 244
36 219 244
37 218 244
37 218 244
38 217 244
39 216 244
39 216 244
40 215 244
40 215 244
41 214 244
42 213 244
42 213 244
43 212 244
44 211 244
44 211 244
45 210 244
46 209 244
46 209 244
47 208 244
47 207 244
48 207 244
49 206 244
49 206 244
50 205 244
51 204 244
51 204 244
52 203 244
53 202 244
53 202 244
54 201 244
55 200 244
55 200 244
56 199 244
56 199 244
57 198 244
58 197 244
58 197 244
59 196 244
60 195 244
60 195 244
61 194 244
62 193 244
62 193 244
63 192 244
63 191 244
64 191 244
65 190 244
65 190 244
66 189 244
67 188 244
67 188 244
68 187 244
69 186 244
69 186 244
70 185 244
71 184 244
71 184 244
72 183 244
72 183 244
73 182 244
74 181 244
74 181 244
75 180 244
76 179 244
76 179 244
77 178 244
78 177 244
78 177 244
79 176 244
79 175 244
80 175 244
81 174 244
81 174 244
82 173 244
83 172 244
83 172 244
84 171 244
85 170 244
85 170 244
86 169 244
87 168 244
87 168 244
88 167 244
88 167 244
89 166 244
90 165 244
90 165 244
91 164 244
92 163 244
92 163 244
93 162 244
94 161 244
94 161 244
95 160 244
95 159 244
96 159 244
97 158 244
97 158 244
98 157 244
99 156 244
99 156 244
100 155 244
101 154 244
101 154 244
102 153 244
103 152 244
103 152 244
104 151 244
104 151 244
105 150 244
106 149 244
106 149 244
107 148 244
108 147 244
108 147 244
109 146 244
110 145 244
110 145 244
111 144 244
111 143 244
112 143 244
113 142 244
113 142 244
114 141 244
115 140 244
115 140 244
116 139 244
117 138 244
117 138 244
118 137 244
119 136 244
119 136 244
120 135 244
120 135 244
121 134 244
122 133 244
122 133 244
123 132 244
124 131 244
124 131 244
125 130 244
126 129 244
126 129 244
127 128 244
127 127 244
128 127 244
129 126 244
129 126 244
130 125 244
131 124 244
131 124 244
132 123 244
133 122 244
133 122 244
134 121 244
135 120 244
135 120 244
136 119 244
136 119 244
137 118 244
138 117 244
138 117 244
139 116 244
140 115 244
140 115 244
141 114 244
142 113 244
142 113 244
143 112 244
143 111 244
144 111 244
145 110 244
145 110 244
146 109 244
147 108 244
147 108 244
148 107 244
149 106 244
149 106 244
150 105 244
151 104 244
151 104 244
152 103 244
152 103 244
153 102 244
154 101 244
154 101 244
155 100 244
156 99 244
156 99 244
157 98 244
158 97 244
158 97 244
159 96 244
159 95 244
160 95 244
161 94 244
161 94 244
162 93 244
163 92 244
163 92 244
164 91 244
165 90 244
165 90 244
166 89 244
167 88 244
167 88 244
168 87 244
168 87 244
169 86 244
170 85 244
170 85 244
171 84 244
172 83 244
172 83 244
173 82 244
174 81 244
174 81 244
175 80 244
175 79 244
176 79 244
177 78 244
177 78 244
178 77 244
179 76 244
179 76 244
180 75 244
181 74 244
181 74 244
182 73 244
183 72 244
183 72 244
184 71 244
184 71 244
185 70 244
186 69 244
186 69 244
187 68 244
188 67 244
188 67 244
189 66 244
190 65 244
190 65 244
191 64 244
191 63 244
192 63 244
193 62 244
193 62 244
194 61 244
195 60 244
195 60 244
196 59 244
197 58 244
197 58 244
198 57 244
199 56 244
199 56 244
200 55 244
200 55 244
201 54 244
202 53 244
202 53 244
203 52 244
204 51 244
204 51 244
205 50 244
206 49 244
206 49 244
207 48 244
207 47 244
208 47 244
209 46 244
209 46 244
210 45 244
211 44 244
211 44 244
212 43 244
213 42 244
213 42 244
214 41 244
215 40 244
215 40 244
216 39 244
216 39 244
217 38 244
218 37 244
218 37 244
219 36 244
220 35 244
220 35 244
221 34 244
222 33 244
222 33 244
223 32 244
223 31 244
224 31 244
225 30 244
225 30 244
226 29 244
227 28 244
227 28 244
228 27 244
229 26 244
229 26 244
230 25 244
231 24 244
231 24 244
232 23 244
232 23 244
233 22 244
234 21 244
234 21 244
235 20 244
236 19 244
236 19 244
237 18 244
238 17 244
238 17 244
239 16 244
239 15 244
240 15 244
241 14 244
241 14 244
242 13 244
243 12 244
243 12 244
244 11 244
245 10 244
245 10 244
246 9 244
247 8 244
247 8 244
248 7 244
248 7 244
249 6 244
250 5 244
250 5 244
251 4 244
252 3 244
252 3 244
253 2 244
254 1 244
254 1 244
255 0 244
0 255 245
0 255 245
1 254 245
1 254 245
2 253 245
3 252 245
3 252 245
4 251 245
5 250 245
5 250 245
6 249 245
7 248 245
7 248 245
8 247 245
8 247 245
9 246 245
10 245 245
10 245 245
11 244 245
12 243 245
12 243 245
13 242 245
14 241 245
14 241 245
15 240 245
15 239 245
16 239 245
17 238 245
17 238 245
18 237 245
19 236 245
19 236 245
20 235 245
21 234 245
21 234 245
22 233 245
23 232 245
23 232 245
24 231 245
24 231 245
25 230 245
26 229 245
26 229 245
27 228 245
28 227 245
28 227 245
29 226 245
30 225 245
30 225 245
31 224 245
31 223 245
32 223 245
33 222 245
33 222 245
34 221 245
35 220 245
35 220 245
36 219 245
37 218 245
37 218 245
38 217 245
39 216 245
39 216 245
40 215 245
40 215 245
41 214 245
42 213 245
42 213 245
43 212 245
44 211 245
44 211 245
45 210 245
46 209 245
46 209 245
47 208 245
47 207 245
48 207 245
49 206 245
49 206 245
50 205 245
51 204 245
51 204 245
52 203 245
53 202 245
53 202 245
54 201 245
55 200 245
55 200 245
56 199 245
56 199 245
57 198 245
58 197 245
58 197 245
59 196 245
60 195 245
60 195 245
61 194 245
62 193 245
62 193 245
63 192 245
63 191 245
64 191 245
65 190 245
65 190 245
66 189 245
67 188 245
67 188 245
68 187 245
69 186 245
69 186 245
70 185 245
71 184 245
71 184 245
72 183 245
72 183 245
73 182 245
74 181 245
74 181 245
75 180 245
76 179 245
76 179 245
77 178 245
78 177 245
78 177 245
79 176 245
79 175 245
80 175 245
81 174 245
81 174 245
82 173 245
83 172 245
83 172 245
84 171 245
85 170 245
85 170 245
86 169 245
87 168 245
87 168 245
88 167 245
88 167 245
89 166 245
90 165 245
90 165 245
91 164 245
92 163 245
92 163 245
93 162 245
94 161 245
94 161 245
95 160 245
95 159 245
96 159 245
97 158 245
97 158 245
98 157 245
99 156 245
99 156 245
100 155 245
101 154 245
101 154 245
102 153 245
103 152 245
103 152 245
104 151 245
104 151 245
105 150 245
106 149 245
106 149 245
107 148 245
108 147 245
108 147 245
109 146 245
110 145 245
110 145 245
111 144 245
111 143 245
112 143 245
113 142 245
113 142 245
114 141 245
115 140 245
115 140 245
116 139 245
117 138 245
117 138 245
118 137 245
119 136 245
119 136 245
120 135 245
120 135 245
121 134 245
122 133 245
122 133 245
123 132 245
124 131 245
124 131 245
125 130 245
126 129 245
126 129 245
127 128 245
127 127 245
128 127 245
129 126 245
129 126 245
130 125 245
131 124 245
131 124 245
132 123 245
133 122 245
133 122 245
134 121 245
135 120 245
135 120 245
136 119 245
136 119 245
137 118 245
138 117 245
138 117 245
139 116 245
140 115 245
140 115 245
141 114 245
142 113 245
142 113 245
143 112 245
143 111 245
144 111 245
145 110 245
145 110 245
146 109 245
147 108 245
147 108 245
148 107 245
149 106 245
149 106 245
150 105 245
151 104 245
151 104 245
152 103 245
152 103 245
153 102 245
154 101 245
154 101 245
155 100 245
156 99 245
156 99 245
157 98 245
158 97 245
158 97 245
159 96 245
159 95 245
160 95 245
161 94 245
161 94 245
162 93 245
163 92 245
163 92 245
164 91 245
165 90 245
165 90 245
166 89 245
167 88 245
167 88 245
168 87 245
168 87 245
169 86 245
170 85 245
170 85 245
171 84 245
172 83 245
172 83 245
173 82 245
174 81 245
174 81 245
175 80 245
175 79 245
176 79 245
177 78 245
177 78 245
178 77 245
179 76 245
179 76 245
180 75 245
181 74 245
181 74 245
182 73 245
183 72 245
183 72 245
184 71 245
184 71 245
185 70 245
186 69 245
186 69 245
187 68 245
188 67 245
188 67 245
189 66 245
190 65 245
190 65 245
191 64 245
191 63 245
192 63 245
193 62 245
193 62 245
194 61 245
195 60 245
195 60 245
196 59 245
197 58 245
197 58 245
198 57 245
199 56 245
199 56 245
200 55 245
200 55 245
201 54 245
202 53 245
202 53 245
203 52 245
204 51 245
204 51 245
205 50 245
206 49 245
206 49 245
207 48 245
207 47 245
208 47 245
209 46 245
209 46 245
210 45 245
211 44 245
211 44 245
212 43 245
213 42 245
213 42 245
214 41 245
215 40 245
215 40 245
216 39 245
216 39 245
217 38 245
218 37 245
218 37 245
219 36 245
220 35 245
220 35 245
221 34 245
222 33 245
222 33 245
223 32 245
223 31 245
224 31 245
225 30 245
225 30 245
226 29 245
227 28 245
227 28 245
228 27 245
229 26 245
229 26 245
230 25 245
231 24 245
231 24 245
232 23 245
232 23 245
233 22 245
234 21 245
234 21 245
235 20 245
236 19 245
236 19 245
237 18 245
238 17 245
238 17 245
239 16 245
239 15 245
240 15 245
241 14 245
241 14 245
242 13 245
243 12 245
243 12 245
244 11 245
245 10 245
245 10 245
246 9 245
247 8 245
247 8 245
248 7 245
248 7 245
249 6 245
250 5 245
250 5 245
251 4 245
252 3 245
252 3 245
253 2 245
254 1 245
254 1 245
255 0 245
0 255 246
0 255 246
1 254 246
1 254 246
2 253 246
3 252 246
3 252 246
4 251 246
5 250 246
5 250 246
6 249 246
7 248 246
7 248 246
8 247 246
8 247 246
9 246 246
10 245 246
10 245 246
11 244 246
12 243 246
12 243 246
13 242 246
14 241 246
14 241 246
15 240 246
15 239 246
16 239 246
17 238 246
17 238 246
18 237 246
19 236 246
19 236 246
20 235 246
21 234 246
21 234 246
22 233 246
23 232 246
23 232 246
24 231 246
24 231 246
25 230 246
26 229 246
26 229 246
27 228 246
28 227 246
28 227 246
29 226 246
30 225 246
30 225 246
31 224 246
31 223 246
32 223 246
33 222 246
33 222 246
34 221 246
35 220 246
35 220 246
36 219 246
37 218 246
37 218 246
38 217 246
39 216 246
39 216 246
40 215 246
40 215 246
41 214 246
42 213 246
42 213 246
43 212 246
44 211 246
44 211 246
45 210 246
46 209 246
46 209 246
47 208 246
47 207 246
48 207 246
49 206 246
49 206 246
50 205 246
51 204 246
51 204 246
52 203 246
53 202 246
53 202 246
54 201 246
55 200 246
55 200 246
56 199 246
56 199 246
57 198 246
58 197 246
58 197 246
59 196 246
60 195 246
60 195 246
61 194 246
62 193 246
62 193 246
63 192 246
63 191 246
64 191 246
65 190 246
65 190 246
66 189 246
67 188 246
67 188 246
68 187 246
69 186 246
69 186 246
70 185 246
71 184 246
71 184 246
72 183 246
72 183 246
73 182 246
74 181 246
74 181 246
75 180 246
76 179 246
76 179 246
77 178 246
78 177 246
78 177 246
79 176 246
79 175 246
80 175 246
81 174 246
81 174 246
82 173 246
83 172 246
83 172 246
84 171 246
85 170 246
85 170 246
86 169 246
87 168 246
87 168 246
88 167 246
88 167 246
89 166 246
90 165 246
90 165 246
91 164 246
92 163 246
92 163 246
93 162 246
94 161 246
94 161 246
95 160 246
95 159 246
96 159 246
97 158 246
97 158 246
98 157 246
99 156 246
99 156 246
100 155 246
101 154 246
101 154 246
102 153 246
103 152 246
103 152 246
104 151 246
104 151 246
105 150 246
106 149 246
106 149 246
107 148 246
108 147 246
108 147 246
109 146 246
110 145 246
110 145 246
111 144 246
111 143 246
112 143 246
113 142 246
113 142 246
114 141 246
115 140 246
115 140 246
116 139 246
117 138 246
117 138 246
118 137 246
119 136 246
119 136 246
120 135 246
120 135 246
121 134 246
122 133 246
122 133 246
123 132 246
124 131 246
124 131 246
125 130 246
126 129 246
126 129 246
127 128 246
127 127 246
128 127 246
129 126 246
129 126 246
130 125 246
131 124 246
131 124 246
132 123 246
133 122 246
133 122 246
134 121 246
135 120 246
135 120 246
136 119 246
136 119 246
137 118 246
138 117 246
138 117 246
139 116 246
140 115 246
140 115 246
141 114 246
142 113 246
142 113 246
143 112 246
143 111 246
144 111 246
145 110 246
145 110 246
146 109 246
147 108 246
147 108 246
148 107 246
149 106 246
149 106 246
150 105 246
151 104 246
151 104 246
152 103 246
152 103 246
153 102 246
154 101 246
154 101 246
155 100 246
156 99 246
156 99 246
157 98 246
158 97 246
158 97 246
159 96 246
159 95 246
160 95 246
161 94 246
161 94 246
162 93 246
163 92 246
163 92 246
164 91 246
165 90 246
165 90 246
166 89 246
167 88 246
167 88 246
168 87 246
168 87 246
169 86 246
170 85 246
170 85 246
171 84 246
172 83 246
172 83 246
173 82 246
174 81 246
174 81 246
175 80 246
175 79 246
176 79 246
177 78 246
177 78 246
178 77 246
179 76 246
179 76 246
180 75 246
181 74 246
181 74 246
182 73 246
183 72 246
183 72 246
184 71 246
184 71 246
185 70 246
186 69 246
186 69 246
187 68 246
188 67 246
188 67 246
189 66 246
190 65 246
190 65 246
191 64 246
191 63 246
192 63 246
193 62 246
193 62 246
194 61 246
195 60 246
195 60 246
196 59 246
197 58 246
197 58 246
198 57 246
199 56 246
199 56 246
200 55 246
200 55 246
201 54 246
202 53 246
202 53 246
203 52 246
204 51 246
204 51 246
205 50 246
206 49 246
206 49 246
207 48 246
207 47 246
208 47 246
209 46 246
209 46 246
210 45 246
211 44 246
211 44 246
212 43 246
213 42 246
213 42 246
214 41 246
215 40 246
215 40 246
216 39 246
216 39 246
217 38 246
218 37 246
218 37 246
219 36 246
220 35 246
220 35 246
221 34 246
222 33 246
222 33 246
223 32 246
223 31 246
224 31 246
225 30 246
225 30 246
226 29 246
227 28 246
227 28 246
228 27 246
229 26 246
229 26 246
230 25 246
231 24 246
231 24 246
232 23 246
232 23 246
233 22 246
234 21 246
234 21 246
235 20 246
236 19 246
236 19 246
237 18 246
238 17 246
238 17 246
239 16 246
239 15 246
240 15 246
241 14 246
241 14 246
242 13 246
243 12 246
243 12 246
244 11 246
245 10 246
245 10 246
246 9 246
247 8 246
247 8 246
248 7 246
248 7 246
249 6 246
250 5 246
250 5 246
251 4 246
252 3 246
252 3 246
253 2 246
254 1 246
254 1 246
255 0 246
0 255 248
0 255 248
1 254 248
1 254 248
2 253 248
3 252 248
3 252 248
4 251 248
5 250 248
5 250 248
6 249 248
7 248 248
7 248 248
8 247 248
8 247 248
9 246 248
10 245 248
10 245 248
11 244 248
12 243 248
12 243 248
13 242 248
14 241 248
14 241 248
15 240 248
15 239 248
16 239 248
17 238 248
17 238 248
18 237 248
19 236 248
19 236 248
20 235 248
21 234 248
21 234 248
22 233 248
23 232 248
23 232 248
24 231 248
24 231 248
25 230 248
26 229 248
26 229 248
27 228 248
28 227 248
28 227 248
29 226 248
30 225 248
30 225 248
31 224 248
31 223 248
32 223 248
33 222 248
33 222 248
34 221 248
35 220 248
35 220 248
36 219 248
37 218 248
37 218 248
38 217 248
39 216 248
39 216 248
40 215 248
40 215 248
41 214 248
42 213 248
42 213 248
43 212 248
44 211 248
44 211 248
45 210 248
46 209 248
46 209 248
47 208 248
47 207 248
48 207 248
49 206 248
49 206 248
50 205 248
51 204 248
51 204 248
52 203 248
53 202 248
53 202 248
54 201 248
55 200 248
55 200 248
56 199 248
56 199 248
57 198 248
58 197 248
58 197 248
59 196 248
60 195 248
60 195 248
61 194 248
62 193 248
62 193 248
63 192 248
63 191 248
64 191 248
65 190 248
65 190 248
66 189 248
67 188 248
67 188 248
68 187 248
69 186 248
69 186 248
70 185 248
71 184 248
71 184 248
72 183 248
72 183 248
73 182 248
74 181 248
74 181 248
75 180 248
76 179 248
76 179 248
77 178 248
78 177 248
78 177 248
79 176 248
79 175 248
80 175 248
81 174 248
81 174 248
82 173 248
83 172 248
83 172 248
84 171 248
85 170 248
85 170 248
86 169 248
87 168 248
87 168 248
88 167 248
88 167 248
89 166 248
90 165 248
90 165 248
91 164 248
92 163 248
92 163 248
93 162 248
94 161 248
94 161 248
95 160 248
95 159 248
96 159 248
97 158 248
97 158 248
98 157 248
99 156 248
99 156 248
100 155 248
101 154 248
101 154 248
102 153 248
103 152 248
103 152 248
104 151 248
104 151 248
105 150 248
106 149 248
106 149 248
107 148 248
108 147 248
108 147 248
109 146 248
110 145 248
110 145 248
111 144 248
111 143 248
112 143 248
113 142 248
113 142 248
114 141 248
115 140 248
115 140 248
116 139 248
117 138 248
117 138 248
118 137 248
119 136 248
119 136 248
120 135 248
120 135 248
121 134 248
122 133 248
122 133 248
123 132 248
124 131 248
124 131 248
125 130 248
126 129 248
126 129 248
127 128 248
127 127 248
128 127 248
129 126 248
129 126 248
130 125 248
131 124 248
131 124 248
132 123 248
133 122 248
133 122 248
134 121 248
135 120 248
135 120 248
136 119 248
136 119 248
137 118 248
138 117 248
138 117 248
139 116 248
140 115 248
140 115 248
141 114 248
142 113 248
142 113 248
143 112 248
143 111 248
144 111 248
145 110 248
145 110 248
146 109 248
147 108 248
147 108 248
148 107 248
149 106 248
149 106 248
150 105 248
151 104 248
151 104 248
152 103 248
152 103 248
153 102 248
154 101 248
154 101 248
155 100 248
156 99 248
156 99 248
157 98 248
158 97 248
158 97 248
159 96 248
159 95 248
160 95 248
161 94 248
161 94 248
162 93 248
163 92 248
163 92 248
164 91 248
165 90 248
165 90 248
166 89 248
167 88 248
167 88 248
168 87 248
168 87 248
169 86 248
170 85 248
170 85 248
171 84 248
172 83 248
172 83 248
173 82 248
174 81 248
174 81 248
175 80 248
175 79 248
176 79 248
177 78 248
177 78 248
178 77 248
179 76 248
179 76 248
180 75 248
181 74 248
181 74 248
182 73 248
183 72 248
183 72 248
184 71 248
184 71 248
185 70 248
186 69 248
186 69 248
187 68 248
188 67 248
188 67 248
189 66 248
190 65 248
190 65 248
191 64 248
191 63 248
192 63 248
193 62 248
193 62 248
194 61 248
195 60 248
195 60 248
196 59 248
197 58 248
197 58 248
198 57 248
199 56 248
199 56 248
200 55 248
200 55 248
201 54 248
202 53 248
202 53 248
203 52 248
204 51 248
204 51 248
205 50 248
206 49 248
206 49 248
207 48 248
207 47 248
208 47 248
209 46 248
209 46 248
210 45 248
211 44 248
211 44 248
212 43 248
213 42 248
213 42 248
214 41 248
215 40 248
215 40 248
216 39 248
216 39 248
217 38 248
218 37 248
218 37 248
219 36 248
220 35 248
220 35 248
221 34 248
222 33 248
222 33 248
223 32 248
223 31 248
224 31 248
225 30 248
225 30 248
226 29 248
227 28 248
227 28 248
228 27 248
229 26 248
229 26 248
230 25 248
231 24 248
231 24 248
232 23 248
232 23 248
233 22 248
234 21 248
234 21 248
235 20 248
236 19 248
236 19 248
237 18 248
238 17 248
238 17 248
239 16 248
239 15 248
240 15 248
241 14 248
241 14 248
242 13 248
243 12 248
243 12 248
244 11 248
245 10 248
245 10 248
246 9 248
247 8 248
247 8 248
248 7 248
248 7 248
249 6 248
250 5 248
250 5 248
251 4 248
252 3 248
252 3 248
253 2 248
254 1 248
254 1 248
255 0 248
0 255 249
0 255 249
1 254 249
1 254 249
2 253 249
3 252 249
3 252 249
4 251 249
5 250 249
5 250 249
6 249 249
7 248 249
7 248 249
8 247 249
8 247 249
9 246 249
10 245 249
10 245 249
11 244 249
12 243 249
12 243 249
13 242 249
14 241 249
14 241 249
15 240 249
15 239 249
16 239 249
17 238 249
17 238 249
18 237 249
19 236 249
19 236 249
20 235 249
21 234 249
21 234 249
22 233 249
23 232 249
23 232 249
24 231 249
24 231 249
25 230 249
26 229 249
26 229 249
27 228 249
28 227 249
28 227 249
29 226 249
30 225 249
30 225 249
31 224 249
31 223 249
32 223 249
33 222 249
33 222 249
34 221 249
35 220 249
35 220 249
36 219 249
37 218 249
37 218 249
38 217 249
39 216 249
39 216 249
40 215 249
40 215 249
41 214 249
42 213 249
42 213 249
43 212 249
44 211 249
44 211 249
45 210 249
46 209 249
46 209 249
47 208 249
47 207 249
48 207 249
49 206 249
49 206 249
50 205 249
51 204 249
51 204 249
52 203 249
53 202 249
53 202 249
54 201 249
55 200 249
55 200 249
56 199 249
56 199 249
57 198 249
58 197 249
58 197 249
59 196 249
60 195 249
60 195 249
61 194 249
62 193 249
62 193 249
63 192 249
63 191 249
64 191 249
65 190 249
65 190 249
66 189 249
67 188 249
67 188 249
68 187 249
69 186 249
69 186 249
70 185 249
71 184 249
71 184 249
72 183 249
72 183 249
73 182 249
74 181 249
74 181 249
75 180 249
76 179 249
76 179 249
77 178 249
78 177 249
78 177 249
79 176 249
79 175 249
80 175 249
81 174 249
81 174 249
82 173 249
83 172 249
83 172 249
84 171 249
85 170 249
85 170 249
86 169 249
87 168 249
87 168 249
88 167 249
88 167 249
89 166 249
90 165 249
90 165 249
91 164 249
92 163 249
92 163 249
93 162 249
94 161 249
94 161 249
95 160 249
95 159 249
96 159 249
97 158 249
97 158 249
98 157 249
99 156 249
99 156 249
100 155 249
101 154 249
101 154 249
102 153 249
103 152 249
103 152 249
104 151 249
104 151 249
105 150 249
106 149 249
106 149 249
107 148 249
108 147 249
108 147 249
109 146 249
110 145 249
110 145 249
111 144 249
111 143 249
112 143 249
113 142 249
113 142 249
114 141 249
115 140 249
115 140 249
116 139 249
117 138 249
117 138 249
118 137 249
119 136 249
119 136 249
120 135 249
120 135 249
121 134 249
122 133 249
122 133 249
123 132 249
124 131 249
124 131 249
125 130 249
126 129 249
126 129 249
127 128 249
127 127 249
128 127 249
129 126 249
129 126 249
130 125 249
131 124 249
131 124 249
132 123 249
133 122 249
133 122 249
134 121 249
135 120 249
135 120 249
136 119 249
136 119 249
137 118 249
138 117 249
138 117 249
139 116 249
140 115 249
140 115 249
141 114 249
142 113 249
142 113 249
143 112 249
143 111 249
144 111 249
145 110 249
145 110 249
146 109 249
147 108 249
147 108 249
148 107 249
149 106 249
149 106 249
150 105 249
151 104 249
151 104 249
152 103 249
152 103 249
153 102 249
154 101 249
154 101 249
155 100 249
156 99 249
156 99 249
157 98 249
158 97 249
158 97 249
159 96 249
159 95 249
160 95 249
161 94 249
161 94 249
162 93 249
163 92 249
163 92 249
164 91 249
165 90 249
165 90 249
166 89 249
167 88 249
167 88 249
168 87 249
168 87 249
169 86 249
170 85 249
170 85 249
171 84 249
172 83 249
172 83 249
173 82 249
174 81 249
174 81 249
175 80 249
175 79 249
176 79 249
177 78 249
177 78 249
178 77 249
179 76 249
179 76 249
180 75 249
181 74 249
181 74 249
182 73 249
183 72 249
183 72 249
184 71 249
184 71 249
185 70 249
186 69 249
186 69 249
187 68 249
188 67 249
188 67 249
189 66 249
190 65 249
190 65 249
191 64 249
191 63 249
192 63 249
193 62 249
193 62 249
194 61 249
195 60 249
195 60 249
196 59 249
197 58 249
197 58 249
198 57 249
199 56 249
199 56 249
200 55 249
200 55 249
201 54 249
202 53 249
202 53 249
203 52 249
204 51 249
204 51 249
205 50 249
206 49 249
206 49 249
207 48 249
207 47 249
208 47 249
209 46 249
209 46 249
210 45 249
211 44 249
211 44 249
212 43 249
213 42 249
213 42 249
214 41 249
215 40 249
215 40 249
216 39 249
216 39 249
217 38 249
218 37 249
218 37 249
219 36 249
220 35 249
220 35 249
221 34 249
222 33 249
222 33 249
223 32 249
223 31 249
224 31 249
225 30 249
225 30 249
226 29 249
227 28 249
227 28 249
228 27 249
229 26 249
229 26 249
230 25 249
231 24 249
231 24 249
232 23 249
232 23 249
233 22 249
234 21 249
234 21 249
235 20 249
236 19 249
236 19 249
237 18 249
238 17 249
238 17 249
239 16 249
239 15 249
240 15 249
241 14 249
241 14 249
242 13 249
243 12 249
243 12 249
244 11 249
245 10 249
245 10 249
246 9 249
247 8 249
247 8 249
248 7 249
248 7 249
249 6 249
250 5 249
250 5 249
251 4 249
252 3 249
252 3 249
253 2 249
254 1 249
254 1 249
255 0 249
0 255 250
0 255 250
1 254 250
1 254 250
2 253 250
3 252 250
3 252 250
4 251 250
5 250 250
5 250 250
6 249 250
7 248 250
7 248 250
8 247 250
8 247 250
9 246 250
10 245 250
10 245 250
11 244 250
12 243 250
12 243 250
13 242 250
14 241 250
14 241 250
15 240 250
15 239 250
16 239 250
17 238 250
17 238 250
18 237 250
19 236 250
19 236 250
20 235 250
21 234 250
21 234 250
22 233 250
23 232 250
23 232 250
24 231 250
24 231 250
25 230 250
26 229 250
26 229 250
27 228 250
28 227 250
28 227 250
29 226 250
30 225 250
30 225 250
31 224 250
31 223 250
32 223 250
33 222 250
33 222 250
34 221 250
35 220 250
35 220 250
36 219 250
37 218 250
37 218 250
38 217 250
39 216 250
39 216 250
40 215 250
40 215 250
41 214 250
42 213 250
42 213 250
43 212 250
44 211 250
44 211 250
45 210 250
46 209 250
46 209 250
47 208 250
47 207 250
48 207 250
49 206 250
49 206 250
50 205 250
51 204 250
51 204 250
52 203 250
53 202 250
53 202 250
54 201 250
55 200 250
55 200 250
56 199 250
56 199 250
57 198 250
58 197 250
58 197 250
59 196 250
60 195 250
60 195 250
61 194 250
62 193 250
62 193 250
63 192 250
63 191 250
64 191 250
65 190 250
65 190 250
66 189 250
67 188 250
67 188 250
68 187 250
69 186 250
69 186 250
70 185 250
71 184 250
71 184 250
72 183 250
72 183 250
73 182 250
74 181 250
74 181 250
75 180 250
76 179 250
76 179 250
77 178 250
78 177 250
78 177 250
79 176 250
79 175 250
80 175 250
81 174 250
81 174 250
82 173 250
83 172 250
83 172 250
84 171 250
85 170 250
85 170 250
86 169 250
87 168 250
87 168 250
88 167 250
88 167 250
89 166 250
90 165 250
90 165 250
91 164 250
92 163 250
92 163 250
93 162 250
94 161 250
94 161 250
95 160 250
95 159 250
96 159 250
97 158 250
97 158 250
98 157 250
99 156 250
99 156 250
100 155 250
101 154 250
101 154 250
102 153 250
103 152 250
103 152 250
104 151 250
104 151 250
105 150 250
106 149 250
106 149 250
107 148 250
108 147 250
108 147 250
109 146 250
110 145 250
110 145 250
111 144 250
111 143 250
112 143 250
113 142 250
113 142 250
114 141 250
115 140 250
115 140 250
116 139 250
117 138 250
117 138 250
118 137 250
119 136 250
119 136 250
120 135 250
120 135 250
121 134 250
122 133 250
122 133 250
123 132 250
124 131 250
124 131 250
125 130 250
126 129 250
126 129 250
127 128 250
127 127 250
128 127 250
129 126 250
129 126 250
130 125 250
131 124 250
131 124 250
132 123 250
133 122 250
133 122 250
134 121 250
135 120 250
135 120 250
136 119 250
136 119 250
137 118 250
138 117 250
138 117 250
139 116 250
140 115 250
140 115 250
141 114 250
142 113 250
142 113 250
143 112 250
143 111 250
144 111 250
145 110 250
145 110 250
146 109 250
147 108 250
147 108 250
148 107 250
149 106 250
149 106 250
150 105 250
151 104 250
151 104 250
152 103 250
152 103 250
153 102 250
154 101 250
154 101 250
155 100 250
156 99 250
156 99 250
157 98 250
158 97 250
158 97 250
159 96 250
159 95 250
160 95 250
161 94 250
161 94 250
162 93 250
163 92 250
163 92 250
164 91 250
165 90 250
165 90 250
166 89 250
167 88 250
167 88 250
168 87 250
168 87 250
169 86 250
170 85 250
170 85 250
171 84 250
172 83 250
172 83 250
173 82 250
174 81 250
174 81 250
175 80 250
175 79 250
176 79 250
177 78 250
177 78 250
178 77 250
179 76 250
179 76 250
180 75 250
181 74 250
181 74 250
182 73 250
183 72 250
183 72 250
184 71 250
184 71 250
185 70 250
186 69 250
186 69 250
187 68 250
188 67 250
188 67 250
189 66 250
190 65 250
190 65 250
191 64 250
191 63 250
192 63 250
193 62 250
193 62 250
194 61 250
195 60 250
195 60 250
196 59 250
197 58 250
197 58 250
198 57 250
199 56 250
199 56 250
200 55 250
200 55 250
201 54 250
202 53 250
202 53 250
203 52 250
204 51 250
204 51 250
205 50 250
206 49 250
206 49 250
207 48 250
207 47 250
208 47 250
209 46 250
209 46 250
210 45 250
211 44 250
211 44 250
212 43 250
213 42 250
213 42 250
214 41 250
215 40 250
215 40 250
216 39 250
216 39 250
217 38 250
218 37 250
218 37 250
219 36 250
220 35 250
220 35 250
221 34 250
222 33 250
222 33 250
223 32 250
223 31 250
224 31 250
225 30 250
225 30 250
226 29 250
227 28 250
227 28 250
228 27 250
229 26 250
229 26 250
230 25 250
231 24 250
231 24 250
232 23 250
232 23 250
233 22 250
234 21 250
234 21 250
235 20 250
236 19 250
236 19 250
237 18 250
238 17 250
238 17 250
239 16 250
239 15 250
240 15 250
241 14 250
241 14 250
242 13 250
243 12 250
243 12 250
244 11 250
245 10 250
245 10 250
246 9 250
247 8 250
247 8 250
248 7 250
248 7 250
249 6 250
250 5 250
250 5 250
251 4 250
252 3 250
252 3 250
253 2 250
254 1 250
254 1 250
255 0 250
0 255 251
0 255 251
1 254 251
1 254 251
2 253 251
3 252 251
3 252 251
4 251 251
5 250 251
5 250 251
6 249 251
7 248 251
7 248 251
8 247 251
8 247 251
9 246 251
10 245 251
10 245 251
11 244 251
12 243 251
12 243 251
13 242 251
14 241 251
14 241 251
15 240 251
15 239 251
16 239 251
17 238 251
17 238 251
18 237 251
19 236 251
19 236 251
20 235 251
21 234 251
21 234 251
22 233 251
23 232 251
23 232 251
24 231 251
24 231 251
25 230 251
26 229 251
26 229 251
27 228 251
28 227 251
28 227 251
29 226 251
30 225 251
30 225 251
31 224 251
31 223 251
32 223 251
33 222 251
33 222 251
34 221 251
35 220 251
35 220 251
36 219 251
37 218 251
37 218 251
38 217 251
39 216 251
39 216 251
40 215 251
40 215 251
41 214 251
42 213 251
42 213 251
43 212 251
44 211 251
44 211 251
45 210 251
46 209 251
46 209 251
47 208 251
47 207 251
48 207 251
49 206 251
49 206 251
50 205 251
51 204 251
51 204 251
52 203 251
53 202 251
53 202 251
54 201 251
55 200 251
55 200 251
56 199 251
56 199 251
57 198 251
58 197 251
58 197 251
59 196 251
60 195 251
60 195 251
61 194 251
62 193 251
62 193 251
63 192 251
63 191 251
64 191 251
65 190 251
65 190 251
66 189 251
67 188 251
67 188 251
68 187 251
69 186 251
69 186 251
70 185 251
71 184 251
71 184 251
72 183 251
72 183 251
73 182 251
74 181 251
74 181 251
75 180 251
76 179 251
76 179 251
77 178 251
78 177 251
78 177 251
79 176 251
79 175 251
80 175 251
81 174 251
81 174 251
82 173 251
83 172 251
83 172 251
84 171 251
85 170 251
85 170 251
86 169 251
87 168 251
87 168 251
88 167 251
88 167 251
89 166 251
90 165 251
90 165 251
91 164 251
92 163 251
92 163 251
93 162 251
94 161 251
94 161 251
95 160 251
95 159 251
96 159 251
97 158 251
97 158 251
98 157 251
99 156 251
99 156 251
100 155 251
101 154 251
101 154 251
102 153 251
103 152 251
103 152 251
104 151 251
104 151 251
105 150 251
106 149 251
106 149 251
107 148 251
108 147 251
108 147 251
109 146 251
110 145 251
110 145 251
111 144 251
111 143 251
112 143 251
113 142 251
113 142 251
114 141 251
115 140 251
115 140 251
116 139 251
117 138 251
117 138 251
118 137 251
119 136 251
119 136 251
120 135 251
120 135 251
121 134 251
122 133 251
122 133 251
123 132 251
124 131 251
124 131 251
125 130 251
126 129 251
126 129 251
127 128 251
127 127 251
128 127 251
129 126 251
129 126 251
130 125 251
131 124 251
131 124 251
132 123 251
133 122 251
133 122 251
134 121 251
135 120 251
135 120 251
136 119 251
136 119 251
137 118 251
138 117 251
138 117 251
139 116 251
140 115 251
140 115 251
141 114 251
142 113 251
142 113 251
143 112 251
143 111 251
144 111 251
145 110 251
145 110 251
146 109 251
147 108 251
147 108 251
148 107 251
149 106 251
149 106 251
150 105 251
151 104 251
151 104 251
152 103 251
152 103 251
153 102 251
154 101 251
154 101 251
155 100 251
156 99 251
156 99 251
157 98 251
158 97 251
158 97 251
159 96 251
159 95 251
160 95 251
161 94 251
161 94 251
162 93 251
163 92 251
163 92 251
164 91 251
165 90 251
165 90 251
166 89 251
167 88 251
167 88 251
168 87 251
168 87 251
169 86 251
170 85 251
170 85 251
171 84 251
172 83 251
172 83 251
173 82 251
174 81 251
174 81 251
175 80 251
175 79 251
176 79 251
177 78 251
177 78 251
178 77 251
179 76 251
179 76 251
180 75 251
181 74 251
181 74 251
182 73 251
183 72 251
183 72 251
184 71 251
184 71 251
185 70 251
186 69 251
186 69 251
187 68 251
188 67 251
188 67 251
189 66 251
190 65 251
190 65 251
191 64 251
191 63 251
192 63 251
193 62 251
193 62 251
194 61 251
195 60 251
195 60 251
196 59 251
197 58 251
197 58 251
198 57 251
199 56 251
199 56 251
200 55 251
200 55 251
201 54 251
202 53 251
202 53 251
203 52 251
204 51 251
204 51 251
205 50 251
206 49 251
206 49 251
207 48 251
207 47 251
208 47 251
209 46 251
209 46 251
210 45 251
211 44 251
211 44 251
212 43 251
213 42 251
213 42 251
214 41 251
215 40 251
215 40 251
216 39 251
216 39 251
217 38 251
218 37 251
218 37 251
219 36 251
220 35 251
220 35 251
221 34 251
222 33 251
222 33 251
223 32 251
223 31 251
224 31 251
225 30 251
225 30 251
226 29 251
227 28 251
227 28 251
228 27 251
229 26 251
229 26 251
230 25 251
231 24 251
231 24 251
232 23 251
232 23 251
233 22 251
234 21 251
234 21 251
235 20 251
236 19 251
236 19 251
237 18 251
238 17 251
238 17 251
239 16 251
239 15 251
240 15 251
241 14 251
241 14 251
242 13 251
243 12 251
243 12 251
244 11 251
245 10 251
245 10 251
246 9 251
247 8 251
247 8 251
248 7 251
248 7 251
249 6 251
250 5 251
250 5 251
251 4 251
252 3 251
252 3 251
253 2 251
254 1 251
254 1 251
255 0 251
0 255 252
0 255 252
1 254 252
1 254 252
2 253 252
3 252 252
3 252 252
4 251 252
5 250 252
5 250 252
6 249 252
7 248 252
7 248 252
8 247 252
8 247 252
9 246 252
10 245 252
10 245 252
11 244 252
12 243 252
12 243 252
13 242 252
14 241 252
14 241 252
15 240 252
15 239 252
16 239 252
17 238 252
17 238 252
18 237 252
19 236 252
19 236 252
20 235 252
21 234 252
21 234 252
22 233 252
23 232 252
23 232 252
24 231 252
24 231 252
25 230 252
26 229 252
26 229 252
27 228 252
28 227 252
28 227 252
29 226 252
30 225 252
30 225 252
31 224 252
31 223 252
32 223 252
33 222 252
33 222 252
34 221 252
35 220 252
35 220 252
36 219 252
37 218 252
37 218 252
38 217 252
39 216 252
39 216 252
40 215 252
40 215 252
41 214 252
42 213 252
42 213 252
43 212 252
44 211 252
44 211 252
45 210 252
46 209 252
46 209 252
47 208 252
47 207 252
48 207 252
49 206 252
49 206 252
50 205 252
51 204 252
51 204 252
52 203 252
53 202 252
53 202 252
54 201 252
55 200 252
55 200 252
56 199 252
56 199 252
57 198 252
58 197 252
58 197 252
59 196 252
60 195 252
60 195 252
61 194 252
62 193 252
62 193 252
63 192 252
63 191 252
64 191 252
65 190 252
65 190 252
66 189 252
67 188 252
67 188 252
68 187 252
69 186 252
69 186 252
70 185 252
71 184 252
71 184 252
72 183 252
72 183 252
73 182 252
74 181 252
74 181 252
75 180 252
76 179 252
76 179 252
77 178 252
78 177 252
78 177 252
79 176 252
79 175 252
80 175 252
81 174 252
81 174 252
82 173 252
83 172 252
83 172 252
84 171 252
85 170 252
85 170 252
86 169 252
87 168 252
87 168 252
88 167 252
88 167 252
89 166 252
90 165 252
90 165 252
91 164 252
92 163 252
92 163 252
93 162 252
94 161 252
94 161 252
95 160 252
95 159 252
96 159 252
97 158 252
97 158 252
98 157 252
99 156 252
99 156 252
100 155 252
101 154 252
101 154 252
102 153 252
103 152 252
103 152 252
104 151 252
104 151 252
105 150 252
106 149 252
106 149 252
107 148 252
108 147 252
108 147 252
109 146 252
110 145 252
110 145 252
111 144 252
111 143 252
112 143 252
113 142 252
113 142 252
114 141 252
115 140 252
115 140 252
116 139 252
117 138 252
117 138 252
118 137 252
119 136 252
119 136 252
120 135 252
120 135 252
121 134 252
122 133 252
122 133 252
123 132 252
124 131 252
124 131 252
125 130 252
126 129 252
126 129 252
127 128 252
127 127 252
128 127 252
129 126 252
129 126 252
130 125 252
131 124 252
131 124 252
132 123 252
133 122 252
133 122 252
134 121 252
135 120 252
135 120 252
136 119 252
136 119 252
137 118 252
138 117 252
138 117 252
139 116 252
140 115 252
140 115 252
141 114 252
142 113 252
142 113 252
143 112 252
143 111 252
144 111 252
145 110 252
145 110 252
146 109 252
147 108 252
147 108 252
148 107 252
149 106 252
149 106 252
150 105 252
151 104 252
151 104 252
152 103 252
152 103 252
153 102 252
154 101 252
154 101 252
155 100 252
156 99 252
156 99 252
157 98 252
158 97 252
158 97 252
159 96 252
159 95 252
160 95 252
161 94 252
161 94 252
162 93 252
163 92 252
163 92 252
164 91 252
165 90 252
165 90 252
166 89 252
167 88 252
167 88 252
168 87 252
168 87 252
169 86 252
170 85 252
170 85 252
171 84 252
172 83 252
172 83 252
173 82 252
174 81 252
174 81 252
175 80 252
175 79 252
176 79 252
177 78 252
177 78 252
178 77 252
179 76 252
179 76 252
180 75 252
181 74 252
181 74 252
182 73 252
183 72 252
183 72 252
184 71 252
184 71 252
185 70 252
186 69 252
186 69 252
187 68 252
188 67 252
188 67 252
189 66 252
190 65 252
190 65 252
191 64 252
191 63 252
192 63 252
193 62 252
193 62 252
194 61 252
195 60 252
195 60 252
196 59 252
197 58 252
197 58 252
198 57 252
199 56 252
199 56 252
200 55 252
200 55 252
201 54 252
202 53 252
202 53 252
203 52 252
204 51 252
204 51 252
205 50 252
206 49 252
206 49 252
207 48 252
207 47 252
208 47 252
209 46 252
209 46 252
210 45 252
211 44 252
211 44 252
212 43 252
213 42 252
213 42 252
214 41 252
215 40 252
215 40 252
216 39 252
216 39 252
217 38 252
218 37 252
218 37 252
219 36 252
220 35 252
220 35 252
221 34 252
222 33 252
222 33 252
223 32 252
223 31 252
224 31 252
225 30 252
225 30 252
226 29 252
227 28 252
227 28 252
228 27 252
229 26 252
229 26 252
230 25 252
231 24 252
231 24 252
232 23 252
232 23 252
233 22 252
234 21 252
234 21 252
235 20 252
236 19 252
236 19 252
237 18 252
238 17 252
238 17 252
239 16 252
239 15 252
240 15 252
241 14 252
241 14 252
242 13 252
243 12 252
243 12 252
244 11 252
245 10 252
245 10 252
246 9 252
247 8 252
247 8 252
248 7 252
248 7 252
249 6 252
250 5 252
250 5 252
251 4 252
252 3 252
252 3 252
253 2 252
254 1 252
254 1 252
255 0 252
0 255 253
0 255 253
1 254 253
1 254 253
2 253 253
3 252 253
3 252 253
4 251 253
5 250 253
5 250 253
6 249 253
7 248 253
7 248 253
8 247 253
8 247 253
9 246 253
10 245 253
10 245 253
11 244 253
12 243 253
12 243 253
13 242 253
14 241 253
14 241 253
15 240 253
15 239 253
16 239 253
17 238 253
17 238 253
18 237 253
19 236 253
19 236 253
20 235 253
21 234 253
21 234 253
22 233 253
23 232 253
23 232 253
24 231 253
24 231 253
25 230 253
26 229 253
26 229 253
27 228 253
28 227 253
28 227 253
29 226 253
30 225 253
30 225 253
31 224 253
31 223 253
32 223 253
33 222 253
33 222 253
34 221 253
35 220 253
35 220 253
36 219 253
37 218 253
37 218 253
38 217 253
39 216 253
39 216 253
40 215 253
40 215 253
41 214 253
42 213 253
42 213 253
43 212 253
44 211 253
44 211 253
45 210 253
46 209 253
46 209 253
47 208 253
47 207 253
48 207 253
49 206 253
49 206 253
50 205 253
51 204 253
51 204 253
52 203 253
53 202 253
53 202 253
54 201 253
55 200 253
55 200 253
56 199 253
56 199 253
57 198 253
58 197 253
58 197 253
59 196 253
60 195 253
60 195 253
61 194 253
62 193 253
62 193 253
63 192 253
63 191 253
64 191 253
65 190 253
65 190 253
66 189 253
67 188 253
67 188 253
68 187 253
69 186 253
69 186 253
70 185 253
71 184 253
71 184 253
72 183 253
72 183 253
73 182 253
74 181 253
74 181 253
75 180 253
76 179 253
76 179 253
77 178 253
78 177 253
78 177 253
79 176 253
79 175 253
80 175 253
81 174 253
81 174 253
82 173 253
83 172 253
83 172 253
84 171 253
85 170 253
85 170 253
86 169 253
87 168 253
87 168 253
88 167 253
88 167 253
89 166 253
90 165 253
90 165 253
91 164 253
92 163 253
92 163 253
93 162 253
94 161 253
94 161 253
95 160 253
95 159 253
96 159 253
97 158 253
97 158 253
98 157 253
99 156 253
99 156 253
100 155 253
101 154 253
101 154 253
102 153 253
103 152 253
103 152 253
104 151 253
104 151 253
105 150 253
106 149 253
106 149 253
107 148 253
108 147 253
108 147 253
109 146 253
110 145 253
110 145 253
111 144 253
111 143 253
112 143 253
113 142 253
113 142 253
114 141 253
115 140 253
115 140 253
116 139 253
117 138 253
117 138 253
118 137 253
119 136 253
119 136 253
120 135 253
120 135 253
121 134 253
122 133 253
122 133 253
123 132 253
124 131 253
124 131 253
125 130 253
126 129 253
126 129 253
127 128 253
127 127 253
128 127 253
129 126 253
129 126 253
130 125 253
131 124 253
131 124 253
132 123 253
133 122 253
133 122 253
134 121 253
135 120 253
135 120 253
136 119 253
136 119 253
137 118 253
138 117 253
138 117 253
139 116 253
140 115 253
140 115 253
141 114 253
142 113 253
142 113 253
143 112 253
143 111 253
144 111 253
145 110 253
145 110 253
146 109 253
147 108 253
147 108 253
148 107 253
149 106 253
149 106 253
150 105 253
151 104 253
151 104 253
152 103 253
152 103 253
153 102 253
154 101 253
154 101 253
155 100 253
156 99 253
156 99 253
157 98 253
158 97 253
158 97 253
159 96 253
159 95 253
160 95 253
161 94 253
161 94 253
162 93 253
163 92 253
163 92 253
164 91 253
165 90 253
165 90 253
166 89 253
167 88 253
167 88 253
168 87 253
168 87 253
169 86 253
170 85 253
170 85 253
171 84 253
172 83 253
172 83 253
173 82 253
174 81 253
174 81 253
175 80 253
175 79 253
176 79 253
177 78 253
177 78 253
178 77 253
179 76 253
179 76 253
180 75 253
181 74 253
181 74 253
182 73 253
183 72 253
183 72 253
184 71 253
184 71 253
185 70 253
186 69 253
186 69 253
187 68 253
188 67 253
188 67 253
189 66 253
190 65 253
190 65 253
191 64 253
191 63 253
192 63 253
193 62 253
193 62 253
194 61 253
195 60 253
195 60 253
196 59 253
197 58 253
197 58 253
198 57 253
199 56 253
199 56 253
200 55 253
200 55 253
201 54 253
202 53 253
202 53 253
203 52 253
204 51 253
204 51 253
205 50 253
206 49 253
206 49 253
207 48 253
207 47 253
208 47 253
209 46 253
209 46 253
210 45 253
211 44 253
211 44 253
212 43 253
213 42 253
213 42 253
214 41 253
215 40 253
215 40 253
216 39 253
216 39 253
217 38 253
218 37 253
218 37 253
219 36 253
220 35 253
220 35 253
221 34 253
222 33 253
222 33 253
223 32 253
223 31 253
224 31 253
225 30 253
225 30 253
226 29 253
227 28 253
227 28 253
228 27 253
229 26 253
229 26 253
230 25 253
231 24 253
231 24 253
232 23 253
232 23 253
233 22 253
234 21 253
234 21 253
235 20 253
236 19 253
236 19 253
237 18 253
238 17 253
238 17 253
239 16 253
239 15 253
240 15 253
241 14 253
241 14 253
242 13 253
243 12 253
243 12 253
244 11 253
245 10 253
245 10 253
246 9 253
247 8 253
247 8 253
248 7 253
248 7 253
249 6 253
250 5 253
250 5 253
251 4 253
252 3 253
252 3 253
253 2 253
254 1 253
254 1 253
255 0 253
0 255 254
0 255 254
1 254 254
1 254 254
2 253 254
3 252 254
3 252 254
4 251 254
5 250 254
5 250 254
6 249 254
7 248 254
7 248 254
8 247 254
8 247 254
9 246 254
10 245 254
10 245 254
11 244 254
12 243 254
12 243 254
13 242 254
14 241 254
14 241 254
15 240 254
15 239 254
16 239 254
17 238 254
17 238 254
18 237 254
19 236 254
19 236 254
20 235 254
21 234 254
21 234 254
22 233 254
23 232 254
23 232 254
24 231 254
24 231 254
25 230 254
26 229 254
26 229 254
27 228 254
28 227 254
28 227 254
29 226 254
30 225 254
30 225 254
31 224 254
31 223 254
32 223 254
33 222 254
33 222 254
34 221 254
35 220 254
35 220 254
36 219 254
37 218 254
37 218 254
38 217 254
39 216 254
39 216 254
40 215 254
40 215 254
41 214 254
42 213 254
42 213 254
43 212 254
44 211 254
44 211 254
45 210 254
46 209 254
46 209 254
47 208 254
47 207 254
48 207 254
49 206 254
49 206 254
50 205 254
51 204 254
51 204 254
52 203 254
53 202 254
53 202 254
54 201 254
55 200 254
55 200 254
56 199 254
56 199 254
57 198 254
58 197 254
58 197 254
59 196 254
60 195 254
60 195 254
61 194 254
62 193 254
62 193 254
63 192 254
63 191 254
64 191 254
65 190 254
65 190 254
66 189 254
67 188 254
67 188 254
68 187 254
69 186 254
69 186 254
70 185 254
71 184 254
71 184 254
72 183 254
72 183 254
73 182 254
74 181 254
74 181 254
75 180 254
76 179 254
76 179 254
77 178 254
78 177 254
78 177 254
79 176 254
79 175 254
80 175 254
81 174 254
81 174 254
82 173 254
83 172 254
83 172 254
84 171 254
85 170 254
85 170 254
86 169 254
87 168 254
87 168 254
88 167 254
88 167 254
89 166 254
90 165 254
90 165 254
91 164 254
92 163 254
92 163 254
93 162 254
94 161 254
94 161 254
95 160 254
95 159 254
96 159 254
97 158 254
97 158 254
98 157 254
99 156 254
99 156 254
100 155 254
101 154 254
101 154 254
102 153 254
103 152 254
103 152 254
104 151 254
104 151 254
105 150 254
106 149 254
106 149 254
107 148 254
108 147 254
108 147 254
109 146 254
110 145 254
110 145 254
111 144 254
111 143 254
112 143 254
113 142 254
113 142 254
114 141 254
115 140 254
115 140 254
116 139 254
117 138 254
117 138 254
118 137 254
119 136 254
119 136 254
120 135 254
120 135 254
121 134 254
122 133 254
122 133 254
123 132 254
124 131 254
124 131 254
125 130 254
126 129 254
126 129 254
127 128 254
127 127 254
128 127 254
129 126 254
129 126 254
130 125 254
131 124 254
131 124 254
132 123 254
133 122 254
133 122 254
134 121 254
135 120 254
135 120 254
136 119 254
136 119 254
137 118 254
138 117 254
138 117 254
139 116 254
140 115 254
140 115 254
141 114 254
142 113 254
142 113 254
143 112 254
143 111 254
144 111 254
145 110 254
145 110 254
146 109 254
147 108 254
147 108 254
148 107 254
149 106 254
149 106 254
150 105 254
151 104 254
151 104 254
152 103 254
152 103 254
153 102 254
154 101 254
154 101 254
155 100 254
156 99 254
156 99 254
157 98 254
158 97 254
158 97 254
159 96 254
159 95 254
160 95 254
161 94 254
161 94 254
162 93 254
163 92 254
163 92 254
164 91 254
165 90 254
165 90 254
166 89 254
167 88 254
167 88 254
168 87 254
168 87 254
169 86 254
170 85 254
170 85 254
171 84 254
172 83 254
172 83 254
173 82 254
174 81 254
174 81 254
175 80 254
175 79 254
176 79 254
177 78 254
177 78 254
178 77 254
179 76 254
179 76 254
180 75 254
181 74 254
181 74 254
182 73 254
183 72 254
183 72 254
184 71 254
184 71 254
185 70 254
186 69 254
186 69 254
187 68 254
188 67 254
188 67 254
189 66 254
190 65 254
190 65 254
191 64 254
191 63 254
192 63 254
193 62 254
193 62 254
194 61 254
195 60 254
195 60 254
196 59 254
197 58 254
197 58 254
198 57 254
199 56 254
199 56 254
200 55 254
200 55 254
201 54 254
202 53 254
202 53 254
203 52 254
204 51 254
204 51 254
205 50 254
206 49 254
206 49 254
207 48 254
207 47 254
208 47 254
209 46 254
209 46 254
210 45 254
211 44 254
211 44 254
212 43 254
213 42 254
213 42 254
214 41 254
215 40 254
215 40 254
216 39 254
216 39 254
217 38 254
218 37 254
218 37 254
219 36 254
220 35 254
220 35 254
221 34 254
222 33 254
222 33 254
223 32 254
223 31 254
224 31 254
225 30 254
225 30 254
226 29 254
227 28 254
227 28 254
228 27 254
229 26 254
229 26 254
230 25 254
231 24 254
231 24 254
232 23 254
232 23 254
233 22 254
234 21 254
234 21 254
235 20 254
236 19 254
236 19 254
237 18 254
238 17 254
238 17 254
239 16 254
239 15 254
240 15 254
241 14 254
241 14 254
242 13 254
243 12 254
243 12 254
244 11 254
245 10 254
245 10 254
246 9 254
247 8 254
247 8 254
248 7 254
248 7 254
249 6 254
250 5 254
250 5 254
251 4 254
252 3 254
252 3 254
253 2 254
254 1 254
254 1 254
255 0 254
